Shapers/Cubic.cube
# Cubic Shaper LUT
# Copyright (C) 2022 Jan Van Coppenolle

LUT_1D_SIZE 4096

DOMAIN_MIN 0.0 0.0 0.0
DOMAIN_MAX 1.0 1.0 1.0

0.000000 0.000000 0.000000
0.000488 0.031253 0.031253
0.000976 0.039376 0.039376
0.001464 0.045074 0.045074
0.001951 0.049611 0.049611
0.002438 0.053442 0.053442
0.002924 0.056791 0.056791
0.003410 0.059785 0.059785
0.003896 0.062507 0.062507
0.004381 0.065010 0.065010
0.004866 0.067335 0.067335
0.005351 0.069509 0.069509
0.005835 0.071555 0.071555
0.006319 0.073490 0.073490
0.006803 0.075329 0.075329
0.007286 0.077082 0.077082
0.007769 0.078759 0.078759
0.008251 0.080368 0.080368
0.008733 0.081914 0.081914
0.009215 0.083405 0.083405
0.009697 0.084844 0.084844
0.010178 0.086237 0.086237
0.010659 0.087585 0.087585
0.011139 0.088894 0.088894
0.011619 0.090165 0.090165
0.012099 0.091402 0.091402
0.012578 0.092606 0.092606
0.013057 0.093779 0.093779
0.013536 0.094925 0.094925
0.014014 0.096043 0.096043
0.014492 0.097136 0.097136
0.014969 0.098205 0.098205
0.015447 0.099251 0.099251
0.015923 0.100276 0.100276
0.016400 0.101281 0.101281
0.016876 0.102266 0.102266
0.017352 0.103232 0.103232
0.017827 0.104181 0.104181
0.018302 0.105113 0.105113
0.018777 0.106029 0.106029
0.019252 0.106930 0.106930
0.019726 0.107816 0.107816
0.020199 0.108687 0.108687
0.020673 0.109545 0.109545
0.021146 0.110390 0.110390
0.021618 0.111222 0.111222
0.022091 0.112042 0.112042
0.022563 0.112851 0.112851
0.023034 0.113648 0.113648
0.023506 0.114434 0.114434
0.023976 0.115210 0.115210
0.024447 0.115975 0.115975
0.024917 0.116731 0.116731
0.025387 0.117477 0.117477
0.025857 0.118214 0.118214
0.026326 0.118942 0.118942
0.026795 0.119661 0.119661
0.027263 0.120372 0.120372
0.027731 0.121075 0.121075
0.028199 0.121770 0.121770
0.028666 0.122457 0.122457
0.029133 0.123136 0.123136
0.029600 0.123809 0.123809
0.030066 0.124474 0.124474
0.030532 0.125132 0.125132
0.030998 0.125784 0.125784
0.031464 0.126429 0.126429
0.031929 0.127068 0.127068
0.032393 0.127700 0.127700
0.032857 0.128326 0.128326
0.033321 0.128947 0.128947
0.033785 0.129561 0.129561
0.034248 0.130170 0.130170
0.034711 0.130774 0.130774
0.035174 0.131372 0.131372
0.035636 0.131965 0.131965
0.036098 0.132552 0.132552
0.036559 0.133135 0.133135
0.037021 0.133713 0.133713
0.037481 0.134286 0.134286
0.037942 0.134854 0.134854
0.038402 0.135418 0.135418
0.038862 0.135977 0.135977
0.039321 0.136531 0.136531
0.039781 0.137082 0.137082
0.040239 0.137628 0.137628
0.040698 0.138169 0.138169
0.041156 0.138707 0.138707
0.041614 0.139241 0.139241
0.042071 0.139771 0.139771
0.042528 0.140297 0.140297
0.042985 0.140819 0.140819
0.043441 0.141338 0.141338
0.043897 0.141852 0.141852
0.044353 0.142364 0.142364
0.044808 0.142871 0.142871
0.045263 0.143376 0.143376
0.045718 0.143877 0.143877
0.046172 0.144374 0.144374
0.046626 0.144869 0.144869
0.047080 0.145360 0.145360
0.047533 0.145848 0.145848
0.047986 0.146332 0.146332
0.048439 0.146814 0.146814
0.048891 0.147293 0.147293
0.049343 0.147769 0.147769
0.049795 0.148242 0.148242
0.050246 0.148712 0.148712
0.050697 0.149179 0.149179
0.051148 0.149643 0.149643
0.051598 0.150105 0.150105
0.052048 0.150564 0.150564
0.052498 0.151020 0.151020
0.052947 0.151474 0.151474
0.053396 0.151925 0.151925
0.053844 0.152374 0.152374
0.054293 0.152820 0.152820
0.054741 0.153264 0.153264
0.055188 0.153705 0.153705
0.055635 0.154144 0.154144
0.056082 0.154580 0.154580
0.056529 0.155014 0.155014
0.056975 0.155446 0.155446
0.057421 0.155876 0.155876
0.057866 0.156303 0.156303
0.058312 0.156729 0.156729
0.058756 0.157152 0.157152
0.059201 0.157573 0.157573
0.059645 0.157991 0.157991
0.060089 0.158408 0.158408
0.060533 0.158823 0.158823
0.060976 0.159236 0.159236
0.061419 0.159646 0.159646
0.061861 0.160055 0.160055
0.062303 0.160462 0.160462
0.062745 0.160867 0.160867
0.063187 0.161270 0.161270
0.063628 0.161671 0.161671
0.064069 0.162070 0.162070
0.064509 0.162467 0.162467
0.064950 0.162863 0.162863
0.065389 0.163257 0.163257
0.065829 0.163649 0.163649
0.066268 0.164039 0.164039
0.066707 0.164428 0.164428
0.067145 0.164815 0.164815
0.067584 0.165200 0.165200
0.068022 0.165584 0.165584
0.068459 0.165966 0.165966
0.068896 0.166346 0.166346
0.069333 0.166725 0.166725
0.069770 0.167102 0.167102
0.070206 0.167478 0.167478
0.070642 0.167852 0.167852
0.071077 0.168224 0.168224
0.071512 0.168595 0.168595
0.071947 0.168965 0.168965
0.072382 0.169333 0.169333
0.072816 0.169699 0.169699
0.073250 0.170065 0.170065
0.073684 0.170428 0.170428
0.074117 0.170791 0.170791
0.074550 0.171151 0.171151
0.074982 0.171511 0.171511
0.075414 0.171869 0.171869
0.075846 0.172226 0.172226
0.076278 0.172581 0.172581
0.076709 0.172936 0.172936
0.077140 0.173288 0.173288
0.077571 0.173640 0.173640
0.078001 0.173990 0.173990
0.078431 0.174339 0.174339
0.078860 0.174687 0.174687
0.079290 0.175033 0.175033
0.079719 0.175379 0.175379
0.080147 0.175723 0.175723
0.080576 0.176065 0.176065
0.081004 0.176407 0.176407
0.081431 0.176747 0.176747
0.081859 0.177087 0.177087
0.082286 0.177425 0.177425
0.082712 0.177762 0.177762
0.083139 0.178097 0.178097
0.083565 0.178432 0.178432
0.083990 0.178766 0.178766
0.084416 0.179098 0.179098
0.084841 0.179429 0.179429
0.085265 0.179760 0.179760
0.085690 0.180089 0.180089
0.086114 0.180417 0.180417
0.086538 0.180744 0.180744
0.086961 0.181070 0.181070
0.087384 0.181395 0.181395
0.087807 0.181719 0.181719
0.088229 0.182042 0.182042
0.088651 0.182364 0.182364
0.089073 0.182685 0.182685
0.089495 0.183005 0.183005
0.089916 0.183324 0.183324
0.090337 0.183642 0.183642
0.090757 0.183959 0.183959
0.091177 0.184275 0.184275
0.091597 0.184590 0.184590
0.092017 0.184904 0.184904
0.092436 0.185217 0.185217
0.092855 0.185530 0.185530
0.093273 0.185841 0.185841
0.093691 0.186151 0.186151
0.094109 0.186461 0.186461
0.094527 0.186770 0.186770
0.094944 0.187078 0.187078
0.095361 0.187385 0.187385
0.095778 0.187691 0.187691
0.096194 0.187996 0.187996
0.096610 0.188300 0.188300
0.097026 0.188604 0.188604
0.097441 0.188906 0.188906
0.097856 0.189208 0.189208
0.098271 0.189509 0.189509
0.098685 0.189809 0.189809
0.099099 0.190109 0.190109
0.099513 0.190407 0.190407
0.099927 0.190705 0.190705
0.100340 0.191002 0.191002
0.100753 0.191298 0.191298
0.101165 0.191594 0.191594
0.101577 0.191888 0.191888
0.101989 0.192182 0.192182
0.102401 0.192475 0.192475
0.102812 0.192768 0.192768
0.103223 0.193059 0.193059
0.103633 0.193350 0.193350
0.104043 0.193640 0.193640
0.104453 0.193930 0.193930
0.104863 0.194218 0.194218
0.105272 0.194506 0.194506
0.105681 0.194793 0.194793
0.106090 0.195080 0.195080
0.106498 0.195366 0.195366
0.106906 0.195651 0.195651
0.107314 0.195935 0.195935
0.107721 0.196219 0.196219
0.108129 0.196502 0.196502
0.108535 0.196784 0.196784
0.108942 0.197066 0.197066
0.109348 0.197347 0.197347
0.109754 0.197627 0.197627
0.110159 0.197907 0.197907
0.110564 0.198186 0.198186
0.110969 0.198465 0.198465
0.111374 0.198742 0.198742
0.111778 0.199019 0.199019
0.112182 0.199296 0.199296
0.112586 0.199572 0.199572
0.112989 0.199847 0.199847
0.113392 0.200121 0.200121
0.113795 0.200395 0.200395
0.114197 0.200669 0.200669
0.114599 0.200941 0.200941
0.115001 0.201214 0.201214
0.115402 0.201485 0.201485
0.115803 0.201756 0.201756
0.116204 0.202026 0.202026
0.116605 0.202296 0.202296
0.117005 0.202565 0.202565
0.117405 0.202834 0.202834
0.117804 0.203102 0.203102
0.118204 0.203369 0.203369
0.118603 0.203636 0.203636
0.119001 0.203903 0.203903
0.119400 0.204168 0.204168
0.119798 0.204434 0.204434
0.120195 0.204698 0.204698
0.120593 0.204962 0.204962
0.120990 0.205226 0.205226
0.121386 0.205489 0.205489
0.121783 0.205751 0.205751
0.122179 0.206013 0.206013
0.122575 0.206275 0.206275
0.122970 0.206536 0.206536
0.123366 0.206796 0.206796
0.123761 0.207056 0.207056
0.124155 0.207315 0.207315
0.124549 0.207574 0.207574
0.124943 0.207832 0.207832
0.125337 0.208090 0.208090
0.125730 0.208347 0.208347
0.126124 0.208604 0.208604
0.126516 0.208860 0.208860
0.126909 0.209116 0.209116
0.127301 0.209371 0.209371
0.127693 0.209626 0.209626
0.128084 0.209881 0.209881
0.128475 0.210135 0.210135
0.128866 0.210388 0.210388
0.129257 0.210641 0.210641
0.129647 0.210893 0.210893
0.130037 0.211145 0.211145
0.130427 0.211397 0.211397
0.130816 0.211648 0.211648
0.131205 0.211898 0.211898
0.131594 0.212148 0.212148
0.131983 0.212398 0.212398
0.132371 0.212647 0.212647
0.132759 0.212896 0.212896
0.133146 0.213144 0.213144
0.133533 0.213392 0.213392
0.133920 0.213640 0.213640
0.134307 0.213887 0.213887
0.134693 0.214133 0.214133
0.135079 0.214379 0.214379
0.135465 0.214625 0.214625
0.135851 0.214870 0.214870
0.136236 0.215115 0.215115
0.136620 0.215360 0.215360
0.137005 0.215604 0.215604
0.137389 0.215847 0.215847
0.137773 0.216091 0.216091
0.138157 0.216333 0.216333
0.138540 0.216576 0.216576
0.138923 0.216818 0.216818
0.139306 0.217059 0.217059
0.139688 0.217300 0.217300
0.140070 0.217541 0.217541
0.140452 0.217781 0.217781
0.140834 0.218021 0.218021
0.141215 0.218261 0.218261
0.141596 0.218500 0.218500
0.141976 0.218739 0.218739
0.142357 0.218977 0.218977
0.142736 0.219215 0.219215
0.143116 0.219453 0.219453
0.143496 0.219690 0.219690
0.143875 0.219927 0.219927
0.144253 0.220164 0.220164
0.144632 0.220400 0.220400
0.145010 0.220636 0.220636
0.145388 0.220871 0.220871
0.145766 0.221106 0.221106
0.146143 0.221341 0.221341
0.146520 0.221575 0.221575
0.146897 0.221809 0.221809
0.147273 0.222042 0.222042
0.147649 0.222276 0.222276
0.148025 0.222509 0.222509
0.148400 0.222741 0.222741
0.148776 0.222973 0.222973
0.149151 0.223205 0.223205
0.149525 0.223437 0.223437
0.149899 0.223668 0.223668
0.150274 0.223899 0.223899
0.150647 0.224129 0.224129
0.151021 0.224359 0.224359
0.151394 0.224589 0.224589
0.151767 0.224818 0.224818
0.152139 0.225048 0.225048
0.152511 0.225276 0.225276
0.152883 0.225505 0.225505
0.153255 0.225733 0.225733
0.153626 0.225961 0.225961
0.153997 0.226188 0.226188
0.154368 0.226415 0.226415
0.154739 0.226642 0.226642
0.155109 0.226869 0.226869
0.155479 0.227095 0.227095
0.155848 0.227321 0.227321
0.156218 0.227546 0.227546
0.156587 0.227772 0.227772
0.156955 0.227997 0.227997
0.157324 0.228221 0.228221
0.157692 0.228446 0.228446
0.158060 0.228670 0.228670
0.158427 0.228893 0.228893
0.158794 0.229117 0.229117
0.159161 0.229340 0.229340
0.159528 0.229563 0.229563
0.159894 0.229785 0.229785
0.160261 0.230008 0.230008
0.160626 0.230230 0.230230
0.160992 0.230451 0.230451
0.161357 0.230673 0.230673
0.161722 0.230894 0.230894
0.162087 0.231115 0.231115
0.162451 0.231335 0.231335
0.162815 0.231555 0.231555
0.163179 0.231775 0.231775
0.163542 0.231995 0.231995
0.163905 0.232214 0.232214
0.164268 0.232433 0.232433
0.164631 0.232652 0.232652
0.164993 0.232871 0.232871
0.165355 0.233089 0.233089
0.165717 0.233307 0.233307
0.166078 0.233525 0.233525
0.166439 0.233742 0.233742
0.166800 0.233959 0.233959
0.167161 0.234176 0.234176
0.167521 0.234393 0.234393
0.167881 0.234609 0.234609
0.168241 0.234826 0.234826
0.168600 0.235041 0.235041
0.168959 0.235257 0.235257
0.169318 0.235472 0.235472
0.169676 0.235687 0.235687
0.170035 0.235902 0.235902
0.170393 0.236117 0.236117
0.170750 0.236331 0.236331
0.171108 0.236545 0.236545
0.171465 0.236759 0.236759
0.171822 0.236973 0.236973
0.172178 0.237186 0.237186
0.172534 0.237399 0.237399
0.172890 0.237612 0.237612
0.173246 0.237825 0.237825
0.173602 0.238037 0.238037
0.173957 0.238249 0.238249
0.174311 0.238461 0.238461
0.174666 0.238673 0.238673
0.175020 0.238884 0.238884
0.175374 0.239095 0.239095
0.175728 0.239306 0.239306
0.176081 0.239517 0.239517
0.176434 0.239727 0.239727
0.176787 0.239937 0.239937
0.177140 0.240147 0.240147
0.177492 0.240357 0.240357
0.177844 0.240567 0.240567
0.178196 0.240776 0.240776
0.178547 0.240985 0.240985
0.178898 0.241194 0.241194
0.179249 0.241402 0.241402
0.179600 0.241611 0.241611
0.179950 0.241819 0.241819
0.180300 0.242027 0.242027
0.180650 0.242235 0.242235
0.180999 0.242442 0.242442
0.181348 0.242649 0.242649
0.181697 0.242857 0.242857
0.182046 0.243063 0.243063
0.182394 0.243270 0.243270
0.182742 0.243476 0.243476
0.183090 0.243683 0.243683
0.183437 0.243889 0.243889
0.183784 0.244094 0.244094
0.184131 0.244300 0.244300
0.184478 0.244505 0.244505
0.184824 0.244711 0.244711
0.185170 0.244915 0.244915
0.185516 0.245120 0.245120
0.185862 0.245325 0.245325
0.186207 0.245529 0.245529
0.186552 0.245733 0.245733
0.186896 0.245937 0.245937
0.187241 0.246141 0.246141
0.187585 0.246344 0.246344
0.187929 0.246548 0.246548
0.188272 0.246751 0.246751
0.188616 0.246954 0.246954
0.188958 0.247157 0.247157
0.189301 0.247359 0.247359
0.189644 0.247561 0.247561
0.189986 0.247764 0.247764
0.190328 0.247966 0.247966
0.190669 0.248167 0.248167
0.191011 0.248369 0.248369
0.191352 0.248570 0.248570
0.191692 0.248772 0.248772
0.192033 0.248973 0.248973
0.192373 0.249173 0.249173
0.192713 0.249374 0.249374
0.193053 0.249574 0.249574
0.193392 0.249775 0.249775
0.193731 0.249975 0.249975
0.194070 0.250175 0.250175
0.194409 0.250374 0.250374
0.194747 0.250574 0.250574
0.195085 0.250773 0.250773
0.195423 0.250972 0.250972
0.195760 0.251171 0.251171
0.196097 0.251370 0.251370
0.196434 0.251569 0.251569
0.196771 0.251767 0.251767
0.197107 0.251966 0.251966
0.197444 0.252164 0.252164
0.197779 0.252362 0.252362
0.198115 0.252560 0.252560
0.198450 0.252757 0.252757
0.198785 0.252955 0.252955
0.199120 0.253152 0.253152
0.199454 0.253349 0.253349
0.199789 0.253546 0.253546
0.200123 0.253743 0.253743
0.200456 0.253939 0.253939
0.200790 0.254136 0.254136
0.201123 0.254332 0.254332
0.201455 0.254528 0.254528
0.201788 0.254724 0.254724
0.202120 0.254920 0.254920
0.202452 0.255115 0.255115
0.202784 0.255311 0.255311
0.203116 0.255506 0.255506
0.203447 0.255701 0.255701
0.203778 0.255896 0.255896
0.204108 0.256091 0.256091
0.204439 0.256285 0.256285
0.204769 0.256480 0.256480
0.205099 0.256674 0.256674
0.205428 0.256868 0.256868
0.205758 0.257062 0.257062
0.206087 0.257256 0.257256
0.206416 0.257450 0.257450
0.206744 0.257643 0.257643
0.207072 0.257837 0.257837
0.207400 0.258030 0.258030
0.207728 0.258223 0.258223
0.208055 0.258416 0.258416
0.208383 0.258609 0.258609
0.208709 0.258801 0.258801
0.209036 0.258994 0.258994
0.209362 0.259186 0.259186
0.209689 0.259378 0.259378
0.210014 0.259570 0.259570
0.210340 0.259762 0.259762
0.210665 0.259954 0.259954
0.210990 0.260146 0.260146
0.211315 0.260337 0.260337
0.211640 0.260528 0.260528
0.211964 0.260720 0.260720
0.212288 0.260911 0.260911
0.212612 0.261101 0.261101
0.212935 0.261292 0.261292
0.213258 0.261483 0.261483
0.213581 0.261673 0.261673
0.213904 0.261864 0.261864
0.214226 0.262054 0.262054
0.214548 0.262244 0.262244
0.214870 0.262434 0.262434
0.215192 0.262623 0.262623
0.215513 0.262813 0.262813
0.215834 0.263003 0.263003
0.216155 0.263192 0.263192
0.216475 0.263381 0.263381
0.216796 0.263570 0.263570
0.217116 0.263759 0.263759
0.217435 0.263948 0.263948
0.217755 0.264137 0.264137
0.218074 0.264325 0.264325
0.218393 0.264514 0.264514
0.218712 0.264702 0.264702
0.219030 0.264890 0.264890
0.219348 0.265078 0.265078
0.219666 0.265266 0.265266
0.219984 0.265454 0.265454
0.220301 0.265642 0.265642
0.220618 0.265829 0.265829
0.220935 0.266017 0.266017
0.221252 0.266204 0.266204
0.221568 0.266391 0.266391
0.221884 0.266578 0.266578
0.222200 0.266765 0.266765
0.222516 0.266952 0.266952
0.222831 0.267139 0.267139
0.223146 0.267325 0.267325
0.223461 0.267512 0.267512
0.223775 0.267698 0.267698
0.224090 0.267884 0.267884
0.224404 0.268070 0.268070
0.224717 0.268256 0.268256
0.225031 0.268442 0.268442
0.225344 0.268628 0.268628
0.225657 0.268813 0.268813
0.225970 0.268999 0.268999
0.226282 0.269184 0.269184
0.226594 0.269369 0.269369
0.226906 0.269554 0.269554
0.227218 0.269739 0.269739
0.227529 0.269924 0.269924
0.227841 0.270109 0.270109
0.228152 0.270294 0.270294
0.228462 0.270478 0.270478
0.228773 0.270663 0.270663
0.229083 0.270847 0.270847
0.229393 0.271031 0.271031
0.229702 0.271215 0.271215
0.230012 0.271399 0.271399
0.230321 0.271583 0.271583
0.230630 0.271767 0.271767
0.230938 0.271950 0.271950
0.231247 0.272134 0.272134
0.231555 0.272317 0.272317
0.231862 0.272501 0.272501
0.232170 0.272684 0.272684
0.232477 0.272867 0.272867
0.232784 0.273050 0.273050
0.233091 0.273233 0.273233
0.233398 0.273416 0.273416
0.233704 0.273599 0.273599
0.234010 0.273781 0.273781
0.234316 0.273964 0.273964
0.234622 0.274146 0.274146
0.234927 0.274328 0.274328
0.235232 0.274510 0.274510
0.235537 0.274692 0.274692
0.235841 0.274874 0.274874
0.236146 0.275056 0.275056
0.236450 0.275238 0.275238
0.236753 0.275420 0.275420
0.237057 0.275601 0.275601
0.237360 0.275783 0.275783
0.237663 0.275964 0.275964
0.237966 0.276145 0.276145
0.238269 0.276327 0.276327
0.238571 0.276508 0.276508
0.238873 0.276689 0.276689
0.239175 0.276869 0.276869
0.239476 0.277050 0.277050
0.239777 0.277231 0.277231
0.240078 0.277411 0.277411
0.240379 0.277592 0.277592
0.240680 0.277772 0.277772
0.240980 0.277953 0.277953
0.241280 0.278133 0.278133
0.241580 0.278313 0.278313
0.241879 0.278493 0.278493
0.242179 0.278673 0.278673
0.242478 0.278853 0.278853
0.242776 0.279032 0.279032
0.243075 0.279212 0.279212
0.243373 0.279392 0.279392
0.243671 0.279571 0.279571
0.243969 0.279750 0.279750
0.244267 0.279930 0.279930
0.244564 0.280109 0.280109
0.244861 0.280288 0.280288
0.245158 0.280467 0.280467
0.245454 0.280646 0.280646
0.245751 0.280825 0.280825
0.246047 0.281004 0.281004
0.246342 0.281182 0.281182
0.246638 0.281361 0.281361
0.246933 0.281539 0.281539
0.247228 0.281718 0.281718
0.247523 0.281896 0.281896
0.247818 0.282074 0.282074
0.248112 0.282252 0.282252
0.248406 0.282430 0.282430
0.248700 0.282608 0.282608
0.248994 0.282786 0.282786
0.249287 0.282964 0.282964
0.249580 0.283142 0.283142
0.249873 0.283319 0.283319
0.250166 0.283497 0.283497
0.250458 0.283674 0.283674
0.250750 0.283852 0.283852
0.251042 0.284029 0.284029
0.251334 0.284206 0.284206
0.251625 0.284383 0.284383
0.251916 0.284561 0.284561
0.252207 0.284738 0.284738
0.252498 0.284914 0.284914
0.252788 0.285091 0.285091
0.253078 0.285268 0.285268
0.253368 0.285445 0.285445
0.253658 0.285621 0.285621
0.253948 0.285798 0.285798
0.254237 0.285974 0.285974
0.254526 0.286151 0.286151
0.254815 0.286327 0.286327
0.255103 0.286503 0.286503
0.255391 0.286679 0.286679
0.255679 0.286855 0.286855
0.255967 0.287031 0.287031
0.256255 0.287207 0.287207
0.256542 0.287383 0.287383
0.256829 0.287559 0.287559
0.257116 0.287734 0.287734
0.257402 0.287910 0.287910
0.257689 0.288085 0.288085
0.257975 0.288261 0.288261
0.258261 0.288436 0.288436
0.258546 0.288612 0.288612
0.258832 0.288787 0.288787
0.259117 0.288962 0.288962
0.259402 0.289137 0.289137
0.259686 0.289312 0.289312
0.259971 0.289487 0.289487
0.260255 0.289662 0.289662
0.260539 0.289837 0.289837
0.260823 0.290011 0.290011
0.261106 0.290186 0.290186
0.261389 0.290361 0.290361
0.261672 0.290535 0.290535
0.261955 0.290710 0.290710
0.262238 0.290884 0.290884
0.262520 0.291058 0.291058
0.262802 0.291233 0.291233
0.263084 0.291407 0.291407
0.263365 0.291581 0.291581
0.263647 0.291755 0.291755
0.263928 0.291929 0.291929
0.264209 0.292103 0.292103
0.264489 0.292277 0.292277
0.264770 0.292450 0.292450
0.265050 0.292624 0.292624
0.265330 0.292798 0.292798
0.265609 0.292971 0.292971
0.265889 0.293145 0.293145
0.266168 0.293318 0.293318
0.266447 0.293492 0.293492
0.266726 0.293665 0.293665
0.267004 0.293838 0.293838
0.267283 0.294012 0.294012
0.267561 0.294185 0.294185
0.267839 0.294358 0.294358
0.268116 0.294531 0.294531
0.268394 0.294704 0.294704
0.268671 0.294877 0.294877
0.268948 0.295050 0.295050
0.269224 0.295222 0.295222
0.269501 0.295395 0.295395
0.269777 0.295568 0.295568
0.270053 0.295740 0.295740
0.270329 0.295913 0.295913
0.270604 0.296085 0.296085
0.270879 0.296258 0.296258
0.271154 0.296430 0.296430
0.271429 0.296602 0.296602
0.271704 0.296775 0.296775
0.271978 0.296947 0.296947
0.272252 0.297119 0.297119
0.272526 0.297291 0.297291
0.272800 0.297463 0.297463
0.273073 0.297635 0.297635
0.273346 0.297807 0.297807
0.273619 0.297978 0.297978
0.273892 0.298150 0.298150
0.274164 0.298322 0.298322
0.274437 0.298494 0.298494
0.274709 0.298665 0.298665
0.274981 0.298837 0.298837
0.275252 0.299008 0.299008
0.275524 0.299180 0.299180
0.275795 0.299351 0.299351
0.276066 0.299522 0.299522
0.276336 0.299694 0.299694
0.276607 0.299865 0.299865
0.276877 0.300036 0.300036
0.277147 0.300207 0.300207
0.277417 0.300378 0.300378
0.277686 0.300549 0.300549
0.277956 0.300720 0.300720
0.278225 0.300891 0.300891
0.278494 0.301062 0.301062
0.278762 0.301233 0.301233
0.279031 0.301403 0.301403
0.279299 0.301574 0.301574
0.279567 0.301745 0.301745
0.279834 0.301915 0.301915
0.280102 0.302086 0.302086
0.280369 0.302256 0.302256
0.280636 0.302427 0.302427
0.280903 0.302597 0.302597
0.281170 0.302768 0.302768
0.281436 0.302938 0.302938
0.281702 0.303108 0.303108
0.281968 0.303278 0.303278
0.282234 0.303448 0.303448
0.282499 0.303619 0.303619
0.282765 0.303789 0.303789
0.283030 0.303959 0.303959
0.283294 0.304129 0.304129
0.283559 0.304298 0.304298
0.283823 0.304468 0.304468
0.284088 0.304638 0.304638
0.284351 0.304808 0.304808
0.284615 0.304978 0.304978
0.284879 0.305147 0.305147
0.285142 0.305317 0.305317
0.285405 0.305486 0.305486
0.285668 0.305656 0.305656
0.285930 0.305825 0.305825
0.286193 0.305995 0.305995
0.286455 0.306164 0.306164
0.286717 0.306334 0.306334
0.286978 0.306503 0.306503
0.287240 0.306672 0.306672
0.287501 0.306841 0.306841
0.287762 0.307011 0.307011
0.288023 0.307180 0.307180
0.288284 0.307349 0.307349
0.288544 0.307518 0.307518
0.288804 0.307687 0.307687
0.289064 0.307856 0.307856
0.289324 0.308025 0.308025
0.289583 0.308193 0.308193
0.289843 0.308362 0.308362
0.290102 0.308531 0.308531
0.290360 0.308700 0.308700
0.290619 0.308868 0.308868
0.290877 0.309037 0.309037
0.291136 0.309206 0.309206
0.291394 0.309374 0.309374
0.291651 0.309543 0.309543
0.291909 0.309711 0.309711
0.292166 0.309880 0.309880
0.292423 0.310048 0.310048
0.292680 0.310217 0.310217
0.292937 0.310385 0.310385
0.293193 0.310553 0.310553
0.293450 0.310721 0.310721
0.293706 0.310890 0.310890
0.293961 0.311058 0.311058
0.294217 0.311226 0.311226
0.294472 0.311394 0.311394
0.294727 0.311562 0.311562
0.294982 0.311730 0.311730
0.295237 0.311898 0.311898
0.295492 0.312066 0.312066
0.295746 0.312234 0.312234
0.296000 0.312402 0.312402
0.296254 0.312570 0.312570
0.296508 0.312737 0.312737
0.296761 0.312905 0.312905
0.297014 0.313073 0.313073
0.297267 0.313241 0.313241
0.297520 0.313408 0.313408
0.297773 0.313576 0.313576
0.298025 0.313743 0.313743
0.298277 0.313911 0.313911
0.298529 0.314078 0.314078
0.298781 0.314246 0.314246
0.299032 0.314413 0.314413
0.299284 0.314581 0.314581
0.299535 0.314748 0.314748
0.299785 0.314915 0.314915
0.300036 0.315083 0.315083
0.300287 0.315250 0.315250
0.300537 0.315417 0.315417
0.300787 0.315584 0.315584
0.301037 0.315752 0.315752
0.301286 0.315919 0.315919
0.301536 0.316086 0.316086
0.301785 0.316253 0.316253
0.302034 0.316420 0.316420
0.302283 0.316587 0.316587
0.302531 0.316754 0.316754
0.302779 0.316921 0.316921
0.303028 0.317088 0.317088
0.303276 0.317254 0.317254
0.303523 0.317421 0.317421
0.303771 0.317588 0.317588
0.304018 0.317755 0.317755
0.304265 0.317922 0.317922
0.304512 0.318088 0.318088
0.304759 0.318255 0.318255
0.305005 0.318422 0.318422
0.305251 0.318588 0.318588
0.305497 0.318755 0.318755
0.305743 0.318921 0.318921
0.305989 0.319088 0.319088
0.306234 0.319254 0.319254
0.306479 0.319421 0.319421
0.306724 0.319587 0.319587
0.306969 0.319754 0.319754
0.307214 0.319920 0.319920
0.307458 0.320086 0.320086
0.307702 0.320253 0.320253
0.307946 0.320419 0.320419
0.308190 0.320585 0.320585
0.308434 0.320752 0.320752
0.308677 0.320918 0.320918
0.308920 0.321084 0.321084
0.309163 0.321250 0.321250
0.309406 0.321416 0.321416
0.309648 0.321582 0.321582
0.309891 0.321748 0.321748
0.310133 0.321914 0.321914
0.310375 0.322080 0.322080
0.310616 0.322246 0.322246
0.310858 0.322412 0.322412
0.311099 0.322578 0.322578
0.311340 0.322744 0.322744
0.311581 0.322910 0.322910
0.311822 0.323076 0.323076
