Shapers/Flat.cube
# Flat Shaper LUT
# Copyright (C) 2022 Jan Van Coppenolle

LUT_1D_SIZE 4096

DOMAIN_MIN 0.0 0.0 0.0
DOMAIN_MAX 1.0 1.0 1.0

0.070000 0.070000 0.070000
0.070360 0.070360 0.070360
0.070559 0.070559 0.070559
0.070726 0.070726 0.070726
0.070876 0.070876 0.070876
0.071015 0.071015 0.071015
0.071147 0.071147 0.071147
0.071273 0.071273 0.071273
0.071395 0.071395 0.071395
0.071514 0.071514 0.071514
0.071629 0.071629 0.071629
0.071743 0.071743 0.071743
0.071855 0.071855 0.071855
0.071965 0.071965 0.071965
0.072074 0.072074 0.072074
0.072182 0.072182 0.072182
0.072289 0.072289 0.072289
0.072396 0.072396 0.072396
0.072501 0.072501 0.072501
0.072606 0.072606 0.072606
0.072710 0.072710 0.072710
0.072814 0.072814 0.072814
0.072918 0.072918 0.072918
0.073021 0.073021 0.073021
0.073124 0.073124 0.073124
0.073226 0.073226 0.073226
0.073329 0.073329 0.073329
0.073431 0.073431 0.073431
0.073533 0.073533 0.073533
0.073635 0.073635 0.073635
0.073737 0.073737 0.073737
0.073839 0.073839 0.073839
0.073941 0.073941 0.073941
0.074042 0.074042 0.074042
0.074144 0.074144 0.074144
0.074246 0.074246 0.074246
0.074348 0.074348 0.074348
0.074450 0.074450 0.074450
0.074552 0.074552 0.074552
0.074653 0.074653 0.074653
0.074755 0.074755 0.074755
0.074858 0.074858 0.074858
0.074960 0.074960 0.074960
0.075062 0.075062 0.075062
0.075164 0.075164 0.075164
0.075267 0.075267 0.075267
0.075369 0.075369 0.075369
0.075472 0.075472 0.075472
0.075574 0.075574 0.075574
0.075677 0.075677 0.075677
0.075780 0.075780 0.075780
0.075883 0.075883 0.075883
0.075986 0.075986 0.075986
0.076089 0.076089 0.076089
0.076193 0.076193 0.076193
0.076296 0.076296 0.076296
0.076400 0.076400 0.076400
0.076504 0.076504 0.076504
0.076608 0.076608 0.076608
0.076712 0.076712 0.076712
0.076816 0.076816 0.076816
0.076921 0.076921 0.076921
0.077025 0.077025 0.077025
0.077130 0.077130 0.077130
0.077235 0.077235 0.077235
0.077340 0.077340 0.077340
0.077445 0.077445 0.077445
0.077550 0.077550 0.077550
0.077655 0.077655 0.077655
0.077761 0.077761 0.077761
0.077867 0.077867 0.077867
0.077972 0.077972 0.077972
0.078078 0.078078 0.078078
0.078185 0.078185 0.078185
0.078291 0.078291 0.078291
0.078397 0.078397 0.078397
0.078504 0.078504 0.078504
0.078611 0.078611 0.078611
0.078718 0.078718 0.078718
0.078825 0.078825 0.078825
0.078932 0.078932 0.078932
0.079039 0.079039 0.079039
0.079147 0.079147 0.079147
0.079254 0.079254 0.079254
0.079362 0.079362 0.079362
0.079470 0.079470 0.079470
0.079578 0.079578 0.079578
0.079687 0.079687 0.079687
0.079795 0.079795 0.079795
0.079904 0.079904 0.079904
0.080012 0.080012 0.080012
0.080121 0.080121 0.080121
0.080230 0.080230 0.080230
0.080339 0.080339 0.080339
0.080449 0.080449 0.080449
0.080558 0.080558 0.080558
0.080668 0.080668 0.080668
0.080778 0.080778 0.080778
0.080888 0.080888 0.080888
0.080998 0.080998 0.080998
0.081108 0.081108 0.081108
0.081218 0.081218 0.081218
0.081329 0.081329 0.081329
0.081439 0.081439 0.081439
0.081550 0.081550 0.081550
0.081661 0.081661 0.081661
0.081772 0.081772 0.081772
0.081883 0.081883 0.081883
0.081995 0.081995 0.081995
0.082106 0.082106 0.082106
0.082218 0.082218 0.082218
0.082330 0.082330 0.082330
0.082442 0.082442 0.082442
0.082554 0.082554 0.082554
0.082666 0.082666 0.082666
0.082778 0.082778 0.082778
0.082891 0.082891 0.082891
0.083003 0.083003 0.083003
0.083116 0.083116 0.083116
0.083229 0.083229 0.083229
0.083342 0.083342 0.083342
0.083455 0.083455 0.083455
0.083569 0.083569 0.083569
0.083682 0.083682 0.083682
0.083796 0.083796 0.083796
0.083909 0.083909 0.083909
0.084023 0.084023 0.084023
0.084137 0.084137 0.084137
0.084251 0.084251 0.084251
0.084366 0.084366 0.084366
0.084480 0.084480 0.084480
0.084595 0.084595 0.084595
0.084709 0.084709 0.084709
0.084824 0.084824 0.084824
0.084939 0.084939 0.084939
0.085054 0.085054 0.085054
0.085169 0.085169 0.085169
0.085284 0.085284 0.085284
0.085400 0.085400 0.085400
0.085515 0.085515 0.085515
0.085631 0.085631 0.085631
0.085747 0.085747 0.085747
0.085863 0.085863 0.085863
0.085979 0.085979 0.085979
0.086095 0.086095 0.086095
0.086211 0.086211 0.086211
0.086328 0.086328 0.086328
0.086444 0.086444 0.086444
0.086561 0.086561 0.086561
0.086678 0.086678 0.086678
0.086795 0.086795 0.086795
0.086912 0.086912 0.086912
0.087029 0.087029 0.087029
0.087146 0.087146 0.087146
0.087264 0.087264 0.087264
0.087381 0.087381 0.087381
0.087499 0.087499 0.087499
0.087617 0.087617 0.087617
0.087735 0.087735 0.087735
0.087853 0.087853 0.087853
0.087971 0.087971 0.087971
0.088089 0.088089 0.088089
0.088207 0.088207 0.088207
0.088326 0.088326 0.088326
0.088444 0.088444 0.088444
0.088563 0.088563 0.088563
0.088682 0.088682 0.088682
0.088801 0.088801 0.088801
0.088920 0.088920 0.088920
0.089039 0.089039 0.089039
0.089158 0.089158 0.089158
0.089278 0.089278 0.089278
0.089397 0.089397 0.089397
0.089517 0.089517 0.089517
0.089636 0.089636 0.089636
0.089756 0.089756 0.089756
0.089876 0.089876 0.089876
0.089996 0.089996 0.089996
0.090116 0.090116 0.090116
0.090237 0.090237 0.090237
0.090357 0.090357 0.090357
0.090478 0.090478 0.090478
0.090598 0.090598 0.090598
0.090719 0.090719 0.090719
0.090840 0.090840 0.090840
0.090961 0.090961 0.090961
0.091082 0.091082 0.091082
0.091203 0.091203 0.091203
0.091324 0.091324 0.091324
0.091445 0.091445 0.091445
0.091567 0.091567 0.091567
0.091688 0.091688 0.091688
0.091810 0.091810 0.091810
0.091932 0.091932 0.091932
0.092054 0.092054 0.092054
0.092176 0.092176 0.092176
0.092298 0.092298 0.092298
0.092420 0.092420 0.092420
0.092542 0.092542 0.092542
0.092664 0.092664 0.092664
0.092787 0.092787 0.092787
0.092909 0.092909 0.092909
0.093032 0.093032 0.093032
0.093155 0.093155 0.093155
0.093278 0.093278 0.093278
0.093401 0.093401 0.093401
0.093524 0.093524 0.093524
0.093647 0.093647 0.093647
0.093770 0.093770 0.093770
0.093894 0.093894 0.093894
0.094017 0.094017 0.094017
0.094141 0.094141 0.094141
0.094264 0.094264 0.094264
0.094388 0.094388 0.094388
0.094512 0.094512 0.094512
0.094636 0.094636 0.094636
0.094760 0.094760 0.094760
0.094884 0.094884 0.094884
0.095008 0.095008 0.095008
0.095132 0.095132 0.095132
0.095257 0.095257 0.095257
0.095381 0.095381 0.095381
0.095506 0.095506 0.095506
0.095631 0.095631 0.095631
0.095755 0.095755 0.095755
0.095880 0.095880 0.095880
0.096005 0.096005 0.096005
0.096130 0.096130 0.096130
0.096255 0.096255 0.096255
0.096381 0.096381 0.096381
0.096506 0.096506 0.096506
0.096631 0.096631 0.096631
0.096757 0.096757 0.096757
0.096882 0.096882 0.096882
0.097008 0.097008 0.097008
0.097134 0.097134 0.097134
0.097260 0.097260 0.097260
0.097386 0.097386 0.097386
0.097512 0.097512 0.097512
0.097638 0.097638 0.097638
0.097764 0.097764 0.097764
0.097890 0.097890 0.097890
0.098017 0.098017 0.098017
0.098143 0.098143 0.098143
0.098270 0.098270 0.098270
0.098396 0.098396 0.098396
0.098523 0.098523 0.098523
0.098650 0.098650 0.098650
0.098777 0.098777 0.098777
0.098904 0.098904 0.098904
0.099031 0.099031 0.099031
0.099158 0.099158 0.099158
0.099285 0.099285 0.099285
0.099413 0.099413 0.099413
0.099540 0.099540 0.099540
0.099668 0.099668 0.099668
0.099795 0.099795 0.099795
0.099923 0.099923 0.099923
0.100050 0.100050 0.100050
0.100178 0.100178 0.100178
0.100306 0.100306 0.100306
0.100434 0.100434 0.100434
0.100562 0.100562 0.100562
0.100690 0.100690 0.100690
0.100818 0.100818 0.100818
0.100947 0.100947 0.100947
0.101075 0.101075 0.101075
0.101204 0.101204 0.101204
0.101332 0.101332 0.101332
0.101461 0.101461 0.101461
0.101589 0.101589 0.101589
0.101718 0.101718 0.101718
0.101847 0.101847 0.101847
0.101976 0.101976 0.101976
0.102105 0.102105 0.102105
0.102234 0.102234 0.102234
0.102363 0.102363 0.102363
0.102492 0.102492 0.102492
0.102622 0.102622 0.102622
0.102751 0.102751 0.102751
0.102880 0.102880 0.102880
0.103010 0.103010 0.103010
0.103140 0.103140 0.103140
0.103269 0.103269 0.103269
0.103399 0.103399 0.103399
0.103529 0.103529 0.103529
0.103659 0.103659 0.103659
0.103789 0.103789 0.103789
0.103919 0.103919 0.103919
0.104049 0.104049 0.104049
0.104179 0.104179 0.104179
0.104309 0.104309 0.104309
0.104440 0.104440 0.104440
0.104570 0.104570 0.104570
0.104701 0.104701 0.104701
0.104831 0.104831 0.104831
0.104962 0.104962 0.104962
0.105093 0.105093 0.105093
0.105223 0.105223 0.105223
0.105354 0.105354 0.105354
0.105485 0.105485 0.105485
0.105616 0.105616 0.105616
0.105747 0.105747 0.105747
0.105878 0.105878 0.105878
0.106009 0.106009 0.106009
0.106141 0.106141 0.106141
0.106272 0.106272 0.106272
0.106403 0.106403 0.106403
0.106535 0.106535 0.106535
0.106667 0.106667 0.106667
0.106798 0.106798 0.106798
0.106930 0.106930 0.106930
0.107062 0.107062 0.107062
0.107193 0.107193 0.107193
0.107325 0.107325 0.107325
0.107457 0.107457 0.107457
0.107589 0.107589 0.107589
0.107721 0.107721 0.107721
0.107853 0.107853 0.107853
0.107986 0.107986 0.107986
0.108118 0.108118 0.108118
0.108250 0.108250 0.108250
0.108383 0.108383 0.108383
0.108515 0.108515 0.108515
0.108648 0.108648 0.108648
0.108780 0.108780 0.108780
0.108913 0.108913 0.108913
0.109046 0.109046 0.109046
0.109179 0.109179 0.109179
0.109312 0.109312 0.109312
0.109445 0.109445 0.109445
0.109577 0.109577 0.109577
0.109711 0.109711 0.109711
0.109844 0.109844 0.109844
0.109977 0.109977 0.109977
0.110110 0.110110 0.110110
0.110243 0.110243 0.110243
0.110377 0.110377 0.110377
0.110510 0.110510 0.110510
0.110644 0.110644 0.110644
0.110777 0.110777 0.110777
0.110911 0.110911 0.110911
0.111045 0.111045 0.111045
0.111178 0.111178 0.111178
0.111312 0.111312 0.111312
0.111446 0.111446 0.111446
0.111580 0.111580 0.111580
0.111714 0.111714 0.111714
0.111848 0.111848 0.111848
0.111982 0.111982 0.111982
0.112116 0.112116 0.112116
0.112251 0.112251 0.112251
0.112385 0.112385 0.112385
0.112519 0.112519 0.112519
0.112654 0.112654 0.112654
0.112788 0.112788 0.112788
0.112923 0.112923 0.112923
0.113057 0.113057 0.113057
0.113192 0.113192 0.113192
0.113327 0.113327 0.113327
0.113462 0.113462 0.113462
0.113596 0.113596 0.113596
0.113731 0.113731 0.113731
0.113866 0.113866 0.113866
0.114001 0.114001 0.114001
0.114136 0.114136 0.114136
0.114271 0.114271 0.114271
0.114407 0.114407 0.114407
0.114542 0.114542 0.114542
0.114677 0.114677 0.114677
0.114813 0.114813 0.114813
0.114948 0.114948 0.114948
0.115083 0.115083 0.115083
0.115219 0.115219 0.115219
0.115355 0.115355 0.115355
0.115490 0.115490 0.115490
0.115626 0.115626 0.115626
0.115762 0.115762 0.115762
0.115897 0.115897 0.115897
0.116033 0.116033 0.116033
0.116169 0.116169 0.116169
0.116305 0.116305 0.116305
0.116441 0.116441 0.116441
0.116577 0.116577 0.116577
0.116713 0.116713 0.116713
0.116850 0.116850 0.116850
0.116986 0.116986 0.116986
0.117122 0.117122 0.117122
0.117258 0.117258 0.117258
0.117395 0.117395 0.117395
0.117531 0.117531 0.117531
0.117668 0.117668 0.117668
0.117804 0.117804 0.117804
0.117941 0.117941 0.117941
0.118078 0.118078 0.118078
0.118214 0.118214 0.118214
0.118351 0.118351 0.118351
0.118488 0.118488 0.118488
0.118625 0.118625 0.118625
0.118762 0.118762 0.118762
0.118899 0.118899 0.118899
0.119036 0.119036 0.119036
0.119173 0.119173 0.119173
0.119310 0.119310 0.119310
0.119447 0.119447 0.119447
0.119584 0.119584 0.119584
0.119722 0.119722 0.119722
0.119859 0.119859 0.119859
0.119996 0.119996 0.119996
0.120134 0.120134 0.120134
0.120271 0.120271 0.120271
0.120409 0.120409 0.120409
0.120546 0.120546 0.120546
0.120684 0.120684 0.120684
0.120822 0.120822 0.120822
0.120959 0.120959 0.120959
0.121097 0.121097 0.121097
0.121235 0.121235 0.121235
0.121373 0.121373 0.121373
0.121511 0.121511 0.121511
0.121649 0.121649 0.121649
0.121787 0.121787 0.121787
0.121925 0.121925 0.121925
0.122063 0.122063 0.122063
0.122201 0.122201 0.122201
0.122339 0.122339 0.122339
0.122478 0.122478 0.122478
0.122616 0.122616 0.122616
0.122754 0.122754 0.122754
0.122893 0.122893 0.122893
0.123031 0.123031 0.123031
0.123170 0.123170 0.123170
0.123308 0.123308 0.123308
0.123447 0.123447 0.123447
0.123585 0.123585 0.123585
0.123724 0.123724 0.123724
0.123863 0.123863 0.123863
0.124002 0.124002 0.124002
0.124140 0.124140 0.124140
0.124279 0.124279 0.124279
0.124418 0.124418 0.124418
0.124557 0.124557 0.124557
0.124696 0.124696 0.124696
0.124835 0.124835 0.124835
0.124974 0.124974 0.124974
0.125114 0.125114 0.125114
0.125253 0.125253 0.125253
0.125392 0.125392 0.125392
0.125531 0.125531 0.125531
0.125671 0.125671 0.125671
0.125810 0.125810 0.125810
0.125949 0.125949 0.125949
0.126089 0.126089 0.126089
0.126228 0.126228 0.126228
0.126368 0.126368 0.126368
0.126507 0.126507 0.126507
0.126647 0.126647 0.126647
0.126787 0.126787 0.126787
0.126926 0.126926 0.126926
0.127066 0.127066 0.127066
0.127206 0.127206 0.127206
0.127346 0.127346 0.127346
0.127486 0.127486 0.127486
0.127626 0.127626 0.127626
0.127766 0.127766 0.127766
0.127906 0.127906 0.127906
0.128046 0.128046 0.128046
0.128186 0.128186 0.128186
0.128326 0.128326 0.128326
0.128466 0.128466 0.128466
0.128606 0.128606 0.128606
0.128747 0.128747 0.128747
0.128887 0.128887 0.128887
0.129027 0.129027 0.129027
0.129168 0.129168 0.129168
0.129308 0.129308 0.129308
0.129449 0.129449 0.129449
0.129589 0.129589 0.129589
0.129730 0.129730 0.129730
0.129870 0.129870 0.129870
0.130011 0.130011 0.130011
0.130151 0.130151 0.130151
0.130292 0.130292 0.130292
0.130433 0.130433 0.130433
0.130574 0.130574 0.130574
0.130715 0.130715 0.130715
0.130855 0.130855 0.130855
0.130996 0.130996 0.130996
0.131137 0.131137 0.131137
0.131278 0.131278 0.131278
0.131419 0.131419 0.131419
0.131560 0.131560 0.131560
0.131702 0.131702 0.131702
0.131843 0.131843 0.131843
0.131984 0.131984 0.131984
0.132125 0.132125 0.132125
0.132266 0.132266 0.132266
0.132408 0.132408 0.132408
0.132549 0.132549 0.132549
0.132690 0.132690 0.132690
0.132832 0.132832 0.132832
0.132973 0.132973 0.132973
0.133115 0.133115 0.133115
0.133256 0.133256 0.133256
0.133398 0.133398 0.133398
0.133540 0.133540 0.133540
0.133681 0.133681 0.133681
0.133823 0.133823 0.133823
0.133965 0.133965 0.133965
0.134106 0.134106 0.134106
0.134248 0.134248 0.134248
0.134390 0.134390 0.134390
0.134532 0.134532 0.134532
0.134674 0.134674 0.134674
0.134816 0.134816 0.134816
0.134958 0.134958 0.134958
0.135100 0.135100 0.135100
0.135242 0.135242 0.135242
0.135384 0.135384 0.135384
0.135526 0.135526 0.135526
0.135668 0.135668 0.135668
0.135810 0.135810 0.135810
0.135952 0.135952 0.135952
0.136095 0.136095 0.136095
0.136237 0.136237 0.136237
0.136379 0.136379 0.136379
0.136522 0.136522 0.136522
0.136664 0.136664 0.136664
0.136807 0.136807 0.136807
0.136949 0.136949 0.136949
0.137092 0.137092 0.137092
0.137234 0.137234 0.137234
0.137377 0.137377 0.137377
0.137519 0.137519 0.137519
0.137662 0.137662 0.137662
0.137805 0.137805 0.137805
0.137947 0.137947 0.137947
0.138090 0.138090 0.138090
0.138233 0.138233 0.138233
0.138376 0.138376 0.138376
0.138519 0.138519 0.138519
0.138661 0.138661 0.138661
0.138804 0.138804 0.138804
0.138947 0.138947 0.138947
0.139090 0.139090 0.139090
0.139233 0.139233 0.139233
0.139376 0.139376 0.139376
0.139519 0.139519 0.139519
0.139663 0.139663 0.139663
0.139806 0.139806 0.139806
0.139949 0.139949 0.139949
0.140092 0.140092 0.140092
0.140235 0.140235 0.140235
0.140379 0.140379 0.140379
0.140522 0.140522 0.140522
0.140665 0.140665 0.140665
0.140809 0.140809 0.140809
0.140952 0.140952 0.140952
0.141096 0.141096 0.141096
0.141239 0.141239 0.141239
0.141383 0.141383 0.141383
0.141526 0.141526 0.141526
0.141670 0.141670 0.141670
0.141813 0.141813 0.141813
0.141957 0.141957 0.141957
0.142101 0.142101 0.142101
0.142244 0.142244 0.142244
0.142388 0.142388 0.142388
0.142532 0.142532 0.142532
0.142676 0.142676 0.142676
0.142819 0.142819 0.142819
0.142963 0.142963 0.142963
0.143107 0.143107 0.143107
0.143251 0.143251 0.143251
0.143395 0.143395 0.143395
0.143539 0.143539 0.143539
0.143683 0.143683 0.143683
0.143827 0.143827 0.143827
0.143971 0.143971 0.143971
0.144115 0.144115 0.144115
0.144259 0.144259 0.144259
0.144403 0.144403 0.144403
0.144547 0.144547 0.144547
0.144692 0.144692 0.144692
0.144836 0.144836 0.144836
0.144980 0.144980 0.144980
0.145124 0.145124 0.145124
0.145269 0.145269 0.145269
0.145413 0.145413 0.145413
0.145558 0.145558 0.145558
0.145702 0.145702 0.145702
0.145846 0.145846 0.145846
0.145991 0.145991 0.145991
0.146135 0.146135 0.146135
0.146280 0.146280 0.146280
0.146424 0.146424 0.146424
0.146569 0.146569 0.146569
0.146714 0.146714 0.146714
0.146858 0.146858 0.146858
0.147003 0.147003 0.147003
0.147148 0.147148 0.147148
0.147292 0.147292 0.147292
0.147437 0.147437 0.147437
0.147582 0.147582 0.147582
0.147727 0.147727 0.147727
0.147871 0.147871 0.147871
0.148016 0.148016 0.148016
0.148161 0.148161 0.148161
0.148306 0.148306 0.148306
0.148451 0.148451 0.148451
0.148596 0.148596 0.148596
0.148741 0.148741 0.148741
0.148886 0.148886 0.148886
0.149031 0.149031 0.149031
0.149176 0.149176 0.149176
0.149321 0.149321 0.149321
0.149466 0.149466 0.149466
0.149612 0.149612 0.149612
0.149757 0.149757 0.149757
0.149902 0.149902 0.149902
0.150047 0.150047 0.150047
0.150193 0.150193 0.150193
0.150338 0.150338 0.150338
0.150483 0.150483 0.150483
0.150628 0.150628 0.150628
0.150774 0.150774 0.150774
0.150919 0.150919 0.150919
0.151065 0.151065 0.151065
0.151210 0.151210 0.151210
0.151356 0.151356 0.151356
0.151501 0.151501 0.151501
0.151647 0.151647 0.151647
0.151792 0.151792 0.151792
0.151938 0.151938 0.151938
0.152083 0.152083 0.152083
0.152229 0.152229 0.152229
0.152375 0.152375 0.152375
0.152520 0.152520 0.152520
0.152666 0.152666 0.152666
0.152812 0.152812 0.152812
0.152957 0.152957 0.152957
0.153103 0.153103 0.153103
0.153249 0.153249 0.153249
0.153395 0.153395 0.153395
0.153541 0.153541 0.153541
0.153686 0.153686 0.153686
0.153832 0.153832 0.153832
0.153978 0.153978 0.153978
0.154124 0.154124 0.154124
0.154270 0.154270 0.154270
0.154416 0.154416 0.154416
0.154562 0.154562 0.154562
0.154708 0.154708 0.154708
0.154854 0.154854 0.154854
0.155000 0.155000 0.155000
0.155146 0.155146 0.155146
0.155292 0.155292 0.155292
0.155439 0.155439 0.155439
0.155585 0.155585 0.155585
0.155731 0.155731 0.155731
0.155877 0.155877 0.155877
0.156023 0.156023 0.156023
0.156170 0.156170 0.156170
0.156316 0.156316 0.156316
0.156462 0.156462 0.156462
0.156609 0.156609 0.156609
0.156755 0.156755 0.156755
0.156901 0.156901 0.156901
0.157048 0.157048 0.157048
0.157194 0.157194 0.157194
0.157341 0.157341 0.157341
0.157487 0.157487 0.157487
0.157634 0.157634 0.157634
0.157780 0.157780 0.157780
0.157927 0.157927 0.157927
0.158073 0.158073 0.158073
0.158220 0.158220 0.158220
0.158366 0.158366 0.158366
0.158513 0.158513 0.158513
0.158660 0.158660 0.158660
0.158806 0.158806 0.158806
0.158953 0.158953 0.158953
0.159100 0.159100 0.159100
0.159246 0.159246 0.159246
0.159393 0.159393 0.159393
0.159540 0.159540 0.159540
0.159687 0.159687 0.159687
0.159833 0.159833 0.159833
0.159980 0.159980 0.159980
0.160127 0.160127 0.160127
0.160274 0.160274 0.160274
0.160421 0.160421 0.160421
0.160568 0.160568 0.160568
0.160715 0.160715 0.160715
0.160862 0.160862 0.160862
0.161009 0.161009 0.161009
0.161156 0.161156 0.161156
0.161303 0.161303 0.161303
0.161450 0.161450 0.161450
0.161597 0.161597 0.161597
0.161744 0.161744 0.161744
0.161891 0.161891 0.161891
0.162038 0.162038 0.162038
0.162185 0.162185 0.162185
0.162332 0.162332 0.162332
0.162480 0.162480 0.162480
0.162627 0.162627 0.162627
0.162774 0.162774 0.162774
0.162921 0.162921 0.162921
0.163068 0.163068 0.163068
0.163216 0.163216 0.163216
0.163363 0.163363 0.163363
0.163510 0.163510 0.163510
0.163658 0.163658 0.163658
0.163805 0.163805 0.163805
0.163952 0.163952 0.163952
0.164100 0.164100 0.164100
0.164247 0.164247 0.164247
0.164395 0.164395 0.164395
0.164542 0.164542 0.164542
0.164689 0.164689 0.164689
0.164837 0.164837 0.164837
0.164984 0.164984 0.164984
0.165132 0.165132 0.165132
0.165279 0.165279 0.165279
0.165427 0.165427 0.165427
0.165575 0.165575 0.165575
0.165722 0.165722 0.165722
0.165870 0.165870 0.165870
0.166017 0.166017 0.166017
0.166165 0.166165 0.166165
0.166313 0.166313 0.166313
0.166460 0.166460 0.166460
0.166608 0.166608 0.166608
0.166756 0.166756 0.166756
0.166903 0.166903 0.166903
0.167051 0.167051 0.167051
0.167199 0.167199 0.167199
0.167347 0.167347 0.167347
0.167495 0.167495 0.167495
0.167642 0.167642 0.167642
0.167790 0.167790 0.167790
0.167938 0.167938 0.167938
0.168086 0.168086 0.168086
0.168234 0.168234 0.168234
0.168382 0.168382 0.168382
0.168530 0.168530 0.168530
0.168678 0.168678 0.168678
0.168826 0.168826 0.168826
0.168974 0.168974 0.168974
0.169122 0.169122 0.169122
0.169270 0.169270 0.169270
0.169418 0.169418 0.169418
0.169566 0.169566 0.169566
0.169714 0.169714 0.169714
0.169862 0.169862 0.169862
0.170010 0.170010 0.170010
0.170158 0.170158 0.170158
0.170306 0.170306 0.170306
0.170454 0.170454 0.170454
0.170602 0.170602 0.170602
0.170751 0.170751 0.170751
0.170899 0.170899 0.170899
0.171047 0.171047 0.171047
0.171195 0.171195 0.171195
0.171343 0.171343 0.171343
0.171492 0.171492 0.171492
0.171640 0.171640 0.171640
0.171788 0.171788 0.171788
0.171936 0.171936 0.171936
0.172085 0.172085 0.172085
0.172233 0.172233 0.172233
0.172381 0.172381 0.172381
0.172530 0.172530 0.172530
0.172678 0.172678 0.172678
0.172827 0.172827 0.172827
0.172975 0.172975 0.172975
0.173123 0.173123 0.173123
0.173272 0.173272 0.173272
0.173420 0.173420 0.173420
0.173569 0.173569 0.173569
0.173717 0.173717 0.173717
0.173866 0.173866 0.173866
0.174014 0.174014 0.174014
0.174163 0.174163 0.174163
0.174311 0.174311 0.174311
0.174460 0.174460 0.174460
0.174608 0.174608 0.174608
0.174757 0.174757 0.174757
0.174906 0.174906 0.174906
0.175054 0.175054 0.175054
0.175203 0.175203 0.175203
0.175351 0.175351 0.175351
0.175500 0.175500 0.175500
0.175649 0.175649 0.175649
0.175797 0.175797 0.175797
0.175946 0.175946 0.175946
0.176095 0.176095 0.176095
0.176243 0.176243 0.176243
0.176392 0.176392 0.176392
0.176541 0.176541 0.176541
0.176690 0.176690 0.176690
0.176839 0.176839 0.176839
0.176987 0.176987 0.176987
0.177136 0.177136 0.177136
0.177285 0.177285 0.177285
0.177434 0.177434 0.177434
0.177583 0.177583 0.177583
0.177731 0.177731 0.177731
0.177880 0.177880 0.177880
0.178029 0.178029 0.178029
0.178178 0.178178 0.178178
0.178327 0.178327 0.178327
0.178476 0.178476 0.178476
0.178625 0.178625 0.178625
0.178774 0.178774 0.178774
0.178923 0.178923 0.178923
0.179072 0.179072 0.179072
0.179221 0.179221 0.179221
0.179370 0.179370 0.179370
0.179519 0.179519 0.179519
0.179668 0.179668 0.179668
0.179817 0.179817 0.179817
0.179966 0.179966 0.179966
0.180115 0.180115 0.180115
0.180264 0.180264 0.180264
0.180413 0.180413 0.180413
0.180562 0.180562 0.180562
0.180711 0.180711 0.180711
0.180860 0.180860 0.180860
0.181009 0.181009 0.181009
0.181159 0.181159 0.181159
0.181308 0.181308 0.181308
0.181457 0.181457 0.181457
0.181606 0.181606 0.181606
0.181755 0.181755 0.181755
0.181904 0.181904 0.181904
0.182054 0.182054 0.182054
0.182203 0.182203 0.182203
0.182352 0.182352 0.182352
0.182501 0.182501 0.182501
0.182651 0.182651 0.182651
0.182800 0.182800 0.182800
0.182949 0.182949 0.182949
0.183098 0.183098 0.183098
0.183248 0.183248 0.183248
0.183397 0.183397 0.183397
0.183546 0.183546 0.183546
0.183696 0.183696 0.183696
0.183845 0.183845 0.183845
0.183994 0.183994 0.183994
0.184144 0.184144 0.184144
0.184293 0.184293 0.184293
0.184443 0.184443 0.184443
0.184592 0.184592 0.184592
0.184741 0.184741 0.184741
0.184891 0.184891 0.184891
0.185040 0.185040 0.185040
0.185190 0.185190 0.185190
0.185339 0.185339 0.185339
0.185489 0.185489 0.185489
0.185638 0.185638 0.185638
0.185788 0.185788 0.185788
0.185937 0.185937 0.185937
0.186087 0.186087 0.186087
0.186236 0.186236 0.186236
0.186386 0.186386 0.186386
0.186535 0.186535 0.186535
0.186685 0.186685 0.186685
0.186834 0.186834 0.186834
0.186984 0.186984 0.186984
0.187133 0.187133 0.187133
0.187283 0.187283 0.187283
0.187433 0.187433 0.187433
0.187582 0.187582 0.187582
0.187732 0.187732 0.187732
0.187881 0.187881 0.187881
0.188031 0.188031 0.188031
0.188181 0.188181 0.188181
0.188330 0.188330 0.188330
0.188480 0.188480 0.188480
0.188630 0.188630 0.188630
0.188779 0.188779 0.188779
0.188929 0.188929 0.188929
