Shapers/Gamma_1.6.cube
# Gamma_1.6 Shaper LUT
# Copyright (C) 2022 Jan Van Coppenolle

LUT_1D_SIZE 4096

DOMAIN_MIN 0.0 0.0 0.0
DOMAIN_MAX 1.0 1.0 1.0

0.000000 0.000000 0.000000
0.000002 0.000002 0.000002
0.000005 0.000005 0.000005
0.000010 0.000010 0.000010
0.000015 0.000015 0.000015
0.000022 0.000022 0.000022
0.000029 0.000029 0.000029
0.000037 0.000037 0.000037
0.000046 0.000046 0.000046
0.000056 0.000056 0.000056
0.000066 0.000066 0.000066
0.000077 0.000077 0.000077
0.000089 0.000089 0.000089
0.000101 0.000101 0.000101
0.000113 0.000113 0.000113
0.000127 0.000127 0.000127
0.000140 0.000140 0.000140
0.000155 0.000155 0.000155
0.000169 0.000169 0.000169
0.000185 0.000185 0.000185
0.000200 0.000200 0.000200
0.000217 0.000217 0.000217
0.000233 0.000233 0.000233
0.000251 0.000251 0.000251
0.000268 0.000268 0.000268
0.000286 0.000286 0.000286
0.000305 0.000305 0.000305
0.000324 0.000324 0.000324
0.000343 0.000343 0.000343
0.000363 0.000363 0.000363
0.000384 0.000384 0.000384
0.000404 0.000404 0.000404
0.000425 0.000425 0.000425
0.000447 0.000447 0.000447
0.000469 0.000469 0.000469
0.000491 0.000491 0.000491
0.000513 0.000513 0.000513
0.000536 0.000536 0.000536
0.000560 0.000560 0.000560
0.000584 0.000584 0.000584
0.000608 0.000608 0.000608
0.000632 0.000632 0.000632
0.000657 0.000657 0.000657
0.000682 0.000682 0.000682
0.000708 0.000708 0.000708
0.000734 0.000734 0.000734
0.000760 0.000760 0.000760
0.000787 0.000787 0.000787
0.000814 0.000814 0.000814
0.000841 0.000841 0.000841
0.000868 0.000868 0.000868
0.000896 0.000896 0.000896
0.000925 0.000925 0.000925
0.000953 0.000953 0.000953
0.000982 0.000982 0.000982
0.001012 0.001012 0.001012
0.001041 0.001041 0.001041
0.001071 0.001071 0.001071
0.001101 0.001101 0.001101
0.001132 0.001132 0.001132
0.001163 0.001163 0.001163
0.001194 0.001194 0.001194
0.001225 0.001225 0.001225
0.001257 0.001257 0.001257
0.001289 0.001289 0.001289
0.001321 0.001321 0.001321
0.001354 0.001354 0.001354
0.001387 0.001387 0.001387
0.001420 0.001420 0.001420
0.001454 0.001454 0.001454
0.001488 0.001488 0.001488
0.001522 0.001522 0.001522
0.001556 0.001556 0.001556
0.001591 0.001591 0.001591
0.001626 0.001626 0.001626
0.001661 0.001661 0.001661
0.001697 0.001697 0.001697
0.001733 0.001733 0.001733
0.001769 0.001769 0.001769
0.001805 0.001805 0.001805
0.001842 0.001842 0.001842
0.001879 0.001879 0.001879
0.001916 0.001916 0.001916
0.001954 0.001954 0.001954
0.001992 0.001992 0.001992
0.002030 0.002030 0.002030
0.002068 0.002068 0.002068
0.002107 0.002107 0.002107
0.002146 0.002146 0.002146
0.002185 0.002185 0.002185
0.002224 0.002224 0.002224
0.002264 0.002264 0.002264
0.002304 0.002304 0.002304
0.002344 0.002344 0.002344
0.002385 0.002385 0.002385
0.002425 0.002425 0.002425
0.002466 0.002466 0.002466
0.002507 0.002507 0.002507
0.002549 0.002549 0.002549
0.002591 0.002591 0.002591
0.002633 0.002633 0.002633
0.002675 0.002675 0.002675
0.002717 0.002717 0.002717
0.002760 0.002760 0.002760
0.002803 0.002803 0.002803
0.002846 0.002846 0.002846
0.002890 0.002890 0.002890
0.002934 0.002934 0.002934
0.002978 0.002978 0.002978
0.003022 0.003022 0.003022
0.003066 0.003066 0.003066
0.003111 0.003111 0.003111
0.003156 0.003156 0.003156
0.003201 0.003201 0.003201
0.003247 0.003247 0.003247
0.003292 0.003292 0.003292
0.003338 0.003338 0.003338
0.003384 0.003384 0.003384
0.003431 0.003431 0.003431
0.003478 0.003478 0.003478
0.003524 0.003524 0.003524
0.003571 0.003571 0.003571
0.003619 0.003619 0.003619
0.003666 0.003666 0.003666
0.003714 0.003714 0.003714
0.003762 0.003762 0.003762
0.003811 0.003811 0.003811
0.003859 0.003859 0.003859
0.003908 0.003908 0.003908
0.003957 0.003957 0.003957
0.004006 0.004006 0.004006
0.004055 0.004055 0.004055
0.004105 0.004105 0.004105
0.004155 0.004155 0.004155
0.004205 0.004205 0.004205
0.004255 0.004255 0.004255
0.004306 0.004306 0.004306
0.004357 0.004357 0.004357
0.004408 0.004408 0.004408
0.004459 0.004459 0.004459
0.004510 0.004510 0.004510
0.004562 0.004562 0.004562
0.004614 0.004614 0.004614
0.004666 0.004666 0.004666
0.004718 0.004718 0.004718
0.004771 0.004771 0.004771
0.004823 0.004823 0.004823
0.004876 0.004876 0.004876
0.004930 0.004930 0.004930
0.004983 0.004983 0.004983
0.005037 0.005037 0.005037
0.005090 0.005090 0.005090
0.005145 0.005145 0.005145
0.005199 0.005199 0.005199
0.005253 0.005253 0.005253
0.005308 0.005308 0.005308
0.005363 0.005363 0.005363
0.005418 0.005418 0.005418
0.005473 0.005473 0.005473
0.005529 0.005529 0.005529
0.005585 0.005585 0.005585
0.005640 0.005640 0.005640
0.005697 0.005697 0.005697
0.005753 0.005753 0.005753
0.005810 0.005810 0.005810
0.005866 0.005866 0.005866
0.005923 0.005923 0.005923
0.005981 0.005981 0.005981
0.006038 0.006038 0.006038
0.006096 0.006096 0.006096
0.006153 0.006153 0.006153
0.006211 0.006211 0.006211
0.006270 0.006270 0.006270
0.006328 0.006328 0.006328
0.006387 0.006387 0.006387
0.006445 0.006445 0.006445
0.006505 0.006505 0.006505
0.006564 0.006564 0.006564
0.006623 0.006623 0.006623
0.006683 0.006683 0.006683
0.006743 0.006743 0.006743
0.006803 0.006803 0.006803
0.006863 0.006863 0.006863
0.006923 0.006923 0.006923
0.006984 0.006984 0.006984
0.007045 0.007045 0.007045
0.007106 0.007106 0.007106
0.007167 0.007167 0.007167
0.007228 0.007228 0.007228
0.007290 0.007290 0.007290
0.007352 0.007352 0.007352
0.007414 0.007414 0.007414
0.007476 0.007476 0.007476
0.007539 0.007539 0.007539
0.007601 0.007601 0.007601
0.007664 0.007664 0.007664
0.007727 0.007727 0.007727
0.007790 0.007790 0.007790
0.007853 0.007853 0.007853
0.007917 0.007917 0.007917
0.007981 0.007981 0.007981
0.008045 0.008045 0.008045
0.008109 0.008109 0.008109
0.008173 0.008173 0.008173
0.008238 0.008238 0.008238
0.008302 0.008302 0.008302
0.008367 0.008367 0.008367
0.008432 0.008432 0.008432
0.008498 0.008498 0.008498
0.008563 0.008563 0.008563
0.008629 0.008629 0.008629
0.008695 0.008695 0.008695
0.008761 0.008761 0.008761
0.008827 0.008827 0.008827
0.008893 0.008893 0.008893
0.008960 0.008960 0.008960
0.009027 0.009027 0.009027
0.009093 0.009093 0.009093
0.009161 0.009161 0.009161
0.009228 0.009228 0.009228
0.009295 0.009295 0.009295
0.009363 0.009363 0.009363
0.009431 0.009431 0.009431
0.009499 0.009499 0.009499
0.009567 0.009567 0.009567
0.009636 0.009636 0.009636
0.009704 0.009704 0.009704
0.009773 0.009773 0.009773
0.009842 0.009842 0.009842
0.009911 0.009911 0.009911
0.009981 0.009981 0.009981
0.010050 0.010050 0.010050
0.010120 0.010120 0.010120
0.010190 0.010190 0.010190
0.010260 0.010260 0.010260
0.010330 0.010330 0.010330
0.010400 0.010400 0.010400
0.010471 0.010471 0.010471
0.010542 0.010542 0.010542
0.010613 0.010613 0.010613
0.010684 0.010684 0.010684
0.010755 0.010755 0.010755
0.010827 0.010827 0.010827
0.010898 0.010898 0.010898
0.010970 0.010970 0.010970
0.011042 0.011042 0.011042
0.011114 0.011114 0.011114
0.011187 0.011187 0.011187
0.011259 0.011259 0.011259
0.011332 0.011332 0.011332
0.011405 0.011405 0.011405
0.011478 0.011478 0.011478
0.011551 0.011551 0.011551
0.011625 0.011625 0.011625
0.011698 0.011698 0.011698
0.011772 0.011772 0.011772
0.011846 0.011846 0.011846
0.011920 0.011920 0.011920
0.011995 0.011995 0.011995
0.012069 0.012069 0.012069
0.012144 0.012144 0.012144
0.012219 0.012219 0.012219
0.012294 0.012294 0.012294
0.012369 0.012369 0.012369
0.012444 0.012444 0.012444
0.012520 0.012520 0.012520
0.012595 0.012595 0.012595
0.012671 0.012671 0.012671
0.012747 0.012747 0.012747
0.012823 0.012823 0.012823
0.012900 0.012900 0.012900
0.012976 0.012976 0.012976
0.013053 0.013053 0.013053
0.013130 0.013130 0.013130
0.013207 0.013207 0.013207
0.013284 0.013284 0.013284
0.013361 0.013361 0.013361
0.013439 0.013439 0.013439
0.013517 0.013517 0.013517
0.013594 0.013594 0.013594
0.013672 0.013672 0.013672
0.013751 0.013751 0.013751
0.013829 0.013829 0.013829
0.013908 0.013908 0.013908
0.013986 0.013986 0.013986
0.014065 0.014065 0.014065
0.014144 0.014144 0.014144
0.014223 0.014223 0.014223
0.014303 0.014303 0.014303
0.014382 0.014382 0.014382
0.014462 0.014462 0.014462
0.014542 0.014542 0.014542
0.014622 0.014622 0.014622
0.014702 0.014702 0.014702
0.014783 0.014783 0.014783
0.014863 0.014863 0.014863
0.014944 0.014944 0.014944
0.015025 0.015025 0.015025
0.015106 0.015106 0.015106
0.015187 0.015187 0.015187
0.015268 0.015268 0.015268
0.015350 0.015350 0.015350
0.015431 0.015431 0.015431
0.015513 0.015513 0.015513
0.015595 0.015595 0.015595
0.015677 0.015677 0.015677
0.015760 0.015760 0.015760
0.015842 0.015842 0.015842
0.015925 0.015925 0.015925
0.016008 0.016008 0.016008
0.016091 0.016091 0.016091
0.016174 0.016174 0.016174
0.016257 0.016257 0.016257
0.016340 0.016340 0.016340
0.016424 0.016424 0.016424
0.016508 0.016508 0.016508
0.016592 0.016592 0.016592
0.016676 0.016676 0.016676
0.016760 0.016760 0.016760
0.016845 0.016845 0.016845
0.016929 0.016929 0.016929
0.017014 0.017014 0.017014
0.017099 0.017099 0.017099
0.017184 0.017184 0.017184
0.017269 0.017269 0.017269
0.017354 0.017354 0.017354
0.017440 0.017440 0.017440
0.017525 0.017525 0.017525
0.017611 0.017611 0.017611
0.017697 0.017697 0.017697
0.017783 0.017783 0.017783
0.017870 0.017870 0.017870
0.017956 0.017956 0.017956
0.018043 0.018043 0.018043
0.018130 0.018130 0.018130
0.018217 0.018217 0.018217
0.018304 0.018304 0.018304
0.018391 0.018391 0.018391
0.018478 0.018478 0.018478
0.018566 0.018566 0.018566
0.018653 0.018653 0.018653
0.018741 0.018741 0.018741
0.018829 0.018829 0.018829
0.018918 0.018918 0.018918
0.019006 0.019006 0.019006
0.019094 0.019094 0.019094
0.019183 0.019183 0.019183
0.019272 0.019272 0.019272
0.019361 0.019361 0.019361
0.019450 0.019450 0.019450
0.019539 0.019539 0.019539
0.019628 0.019628 0.019628
0.019718 0.019718 0.019718
0.019808 0.019808 0.019808
0.019898 0.019898 0.019898
0.019988 0.019988 0.019988
0.020078 0.020078 0.020078
0.020168 0.020168 0.020168
0.020258 0.020258 0.020258
0.020349 0.020349 0.020349
0.020440 0.020440 0.020440
0.020531 0.020531 0.020531
0.020622 0.020622 0.020622
0.020713 0.020713 0.020713
0.020804 0.020804 0.020804
0.020896 0.020896 0.020896
0.020988 0.020988 0.020988
0.021079 0.021079 0.021079
0.021171 0.021171 0.021171
0.021264 0.021264 0.021264
0.021356 0.021356 0.021356
0.021448 0.021448 0.021448
0.021541 0.021541 0.021541
0.021634 0.021634 0.021634
0.021726 0.021726 0.021726
0.021819 0.021819 0.021819
0.021913 0.021913 0.021913
0.022006 0.022006 0.022006
0.022099 0.022099 0.022099
0.022193 0.022193 0.022193
0.022287 0.022287 0.022287
0.022381 0.022381 0.022381
0.022475 0.022475 0.022475
0.022569 0.022569 0.022569
0.022663 0.022663 0.022663
0.022758 0.022758 0.022758
0.022852 0.022852 0.022852
0.022947 0.022947 0.022947
0.023042 0.023042 0.023042
0.023137 0.023137 0.023137
0.023233 0.023233 0.023233
0.023328 0.023328 0.023328
0.023423 0.023423 0.023423
0.023519 0.023519 0.023519
0.023615 0.023615 0.023615
0.023711 0.023711 0.023711
0.023807 0.023807 0.023807
0.023903 0.023903 0.023903
0.024000 0.024000 0.024000
0.024096 0.024096 0.024096
0.024193 0.024193 0.024193
0.024290 0.024290 0.024290
0.024387 0.024387 0.024387
0.024484 0.024484 0.024484
0.024581 0.024581 0.024581
0.024679 0.024679 0.024679
0.024776 0.024776 0.024776
0.024874 0.024874 0.024874
0.024972 0.024972 0.024972
0.025070 0.025070 0.025070
0.025168 0.025168 0.025168
0.025266 0.025266 0.025266
0.025365 0.025365 0.025365
0.025463 0.025463 0.025463
0.025562 0.025562 0.025562
0.025661 0.025661 0.025661
0.025760 0.025760 0.025760
0.025859 0.025859 0.025859
0.025958 0.025958 0.025958
0.026058 0.026058 0.026058
0.026157 0.026157 0.026157
0.026257 0.026257 0.026257
0.026357 0.026357 0.026357
0.026457 0.026457 0.026457
0.026557 0.026557 0.026557
0.026657 0.026657 0.026657
0.026758 0.026758 0.026758
0.026858 0.026858 0.026858
0.026959 0.026959 0.026959
0.027060 0.027060 0.027060
0.027161 0.027161 0.027161
0.027262 0.027262 0.027262
0.027363 0.027363 0.027363
0.027465 0.027465 0.027465
0.027566 0.027566 0.027566
0.027668 0.027668 0.027668
0.027770 0.027770 0.027770
0.027872 0.027872 0.027872
0.027974 0.027974 0.027974
0.028076 0.028076 0.028076
0.028179 0.028179 0.028179
0.028281 0.028281 0.028281
0.028384 0.028384 0.028384
0.028487 0.028487 0.028487
0.028589 0.028589 0.028589
0.028693 0.028693 0.028693
0.028796 0.028796 0.028796
0.028899 0.028899 0.028899
0.029003 0.029003 0.029003
0.029106 0.029106 0.029106
0.029210 0.029210 0.029210
0.029314 0.029314 0.029314
0.029418 0.029418 0.029418
0.029522 0.029522 0.029522
0.029627 0.029627 0.029627
0.029731 0.029731 0.029731
0.029836 0.029836 0.029836
0.029941 0.029941 0.029941
0.030045 0.030045 0.030045
0.030150 0.030150 0.030150
0.030256 0.030256 0.030256
0.030361 0.030361 0.030361
0.030466 0.030466 0.030466
0.030572 0.030572 0.030572
0.030678 0.030678 0.030678
0.030784 0.030784 0.030784
0.030890 0.030890 0.030890
0.030996 0.030996 0.030996
0.031102 0.031102 0.031102
0.031208 0.031208 0.031208
0.031315 0.031315 0.031315
0.031422 0.031422 0.031422
0.031528 0.031528 0.031528
0.031635 0.031635 0.031635
0.031742 0.031742 0.031742
0.031850 0.031850 0.031850
0.031957 0.031957 0.031957
0.032064 0.032064 0.032064
0.032172 0.032172 0.032172
0.032280 0.032280 0.032280
0.032388 0.032388 0.032388
0.032496 0.032496 0.032496
0.032604 0.032604 0.032604
0.032712 0.032712 0.032712
0.032821 0.032821 0.032821
0.032929 0.032929 0.032929
0.033038 0.033038 0.033038
0.033147 0.033147 0.033147
0.033256 0.033256 0.033256
0.033365 0.033365 0.033365
0.033474 0.033474 0.033474
0.033583 0.033583 0.033583
0.033693 0.033693 0.033693
0.033802 0.033802 0.033802
0.033912 0.033912 0.033912
0.034022 0.034022 0.034022
0.034132 0.034132 0.034132
0.034242 0.034242 0.034242
0.034353 0.034353 0.034353
0.034463 0.034463 0.034463
0.034574 0.034574 0.034574
0.034684 0.034684 0.034684
0.034795 0.034795 0.034795
0.034906 0.034906 0.034906
0.035017 0.035017 0.035017
0.035129 0.035129 0.035129
0.035240 0.035240 0.035240
0.035351 0.035351 0.035351
0.035463 0.035463 0.035463
0.035575 0.035575 0.035575
0.035687 0.035687 0.035687
0.035799 0.035799 0.035799
0.035911 0.035911 0.035911
0.036023 0.036023 0.036023
0.036136 0.036136 0.036136
0.036248 0.036248 0.036248
0.036361 0.036361 0.036361
0.036474 0.036474 0.036474
0.036587 0.036587 0.036587
0.036700 0.036700 0.036700
0.036813 0.036813 0.036813
0.036926 0.036926 0.036926
0.037040 0.037040 0.037040
0.037153 0.037153 0.037153
0.037267 0.037267 0.037267
0.037381 0.037381 0.037381
0.037495 0.037495 0.037495
0.037609 0.037609 0.037609
0.037723 0.037723 0.037723
0.037838 0.037838 0.037838
0.037952 0.037952 0.037952
0.038067 0.038067 0.038067
0.038181 0.038181 0.038181
0.038296 0.038296 0.038296
0.038411 0.038411 0.038411
0.038527 0.038527 0.038527
0.038642 0.038642 0.038642
0.038757 0.038757 0.038757
0.038873 0.038873 0.038873
0.038988 0.038988 0.038988
0.039104 0.039104 0.039104
0.039220 0.039220 0.039220
0.039336 0.039336 0.039336
0.039452 0.039452 0.039452
0.039569 0.039569 0.039569
0.039685 0.039685 0.039685
0.039802 0.039802 0.039802
0.039918 0.039918 0.039918
0.040035 0.040035 0.040035
0.040152 0.040152 0.040152
0.040269 0.040269 0.040269
0.040387 0.040387 0.040387
0.040504 0.040504 0.040504
0.040621 0.040621 0.040621
0.040739 0.040739 0.040739
0.040857 0.040857 0.040857
0.040974 0.040974 0.040974
0.041092 0.041092 0.041092
0.041211 0.041211 0.041211
0.041329 0.041329 0.041329
0.041447 0.041447 0.041447
0.041566 0.041566 0.041566
0.041684 0.041684 0.041684
0.041803 0.041803 0.041803
0.041922 0.041922 0.041922
0.042041 0.042041 0.042041
0.042160 0.042160 0.042160
0.042279 0.042279 0.042279
0.042399 0.042399 0.042399
0.042518 0.042518 0.042518
0.042638 0.042638 0.042638
0.042757 0.042757 0.042757
0.042877 0.042877 0.042877
0.042997 0.042997 0.042997
0.043117 0.043117 0.043117
0.043238 0.043238 0.043238
0.043358 0.043358 0.043358
0.043479 0.043479 0.043479
0.043599 0.043599 0.043599
0.043720 0.043720 0.043720
0.043841 0.043841 0.043841
0.043962 0.043962 0.043962
0.044083 0.044083 0.044083
0.044204 0.044204 0.044204
0.044326 0.044326 0.044326
0.044447 0.044447 0.044447
0.044569 0.044569 0.044569
0.044690 0.044690 0.044690
0.044812 0.044812 0.044812
0.044934 0.044934 0.044934
0.045056 0.045056 0.045056
0.045179 0.045179 0.045179
0.045301 0.045301 0.045301
0.045424 0.045424 0.045424
0.045546 0.045546 0.045546
0.045669 0.045669 0.045669
0.045792 0.045792 0.045792
0.045915 0.045915 0.045915
0.046038 0.046038 0.046038
0.046161 0.046161 0.046161
0.046285 0.046285 0.046285
0.046408 0.046408 0.046408
0.046532 0.046532 0.046532
0.046655 0.046655 0.046655
0.046779 0.046779 0.046779
0.046903 0.046903 0.046903
0.047027 0.047027 0.047027
0.047152 0.047152 0.047152
0.047276 0.047276 0.047276
0.047400 0.047400 0.047400
0.047525 0.047525 0.047525
0.047650 0.047650 0.047650
0.047774 0.047774 0.047774
0.047899 0.047899 0.047899
0.048025 0.048025 0.048025
0.048150 0.048150 0.048150
0.048275 0.048275 0.048275
0.048401 0.048401 0.048401
0.048526 0.048526 0.048526
0.048652 0.048652 0.048652
0.048778 0.048778 0.048778
0.048904 0.048904 0.048904
0.049030 0.049030 0.049030
0.049156 0.049156 0.049156
0.049282 0.049282 0.049282
0.049409 0.049409 0.049409
0.049535 0.049535 0.049535
0.049662 0.049662 0.049662
0.049789 0.049789 0.049789
0.049915 0.049915 0.049915
0.050042 0.050042 0.050042
0.050170 0.050170 0.050170
0.050297 0.050297 0.050297
0.050424 0.050424 0.050424
0.050552 0.050552 0.050552
0.050679 0.050679 0.050679
0.050807 0.050807 0.050807
0.050935 0.050935 0.050935
0.051063 0.051063 0.051063
0.051191 0.051191 0.051191
0.051319 0.051319 0.051319
0.051448 0.051448 0.051448
0.051576 0.051576 0.051576
0.051705 0.051705 0.051705
0.051834 0.051834 0.051834
0.051962 0.051962 0.051962
0.052091 0.052091 0.052091
0.052220 0.052220 0.052220
0.052350 0.052350 0.052350
0.052479 0.052479 0.052479
0.052608 0.052608 0.052608
0.052738 0.052738 0.052738
0.052868 0.052868 0.052868
0.052997 0.052997 0.052997
0.053127 0.053127 0.053127
0.053257 0.053257 0.053257
0.053388 0.053388 0.053388
0.053518 0.053518 0.053518
0.053648 0.053648 0.053648
0.053779 0.053779 0.053779
0.053909 0.053909 0.053909
0.054040 0.054040 0.054040
0.054171 0.054171 0.054171
0.054302 0.054302 0.054302
0.054433 0.054433 0.054433
0.054564 0.054564 0.054564
0.054696 0.054696 0.054696
0.054827 0.054827 0.054827
0.054959 0.054959 0.054959
0.055090 0.055090 0.055090
0.055222 0.055222 0.055222
0.055354 0.055354 0.055354
0.055486 0.055486 0.055486
0.055618 0.055618 0.055618
0.055751 0.055751 0.055751
0.055883 0.055883 0.055883
0.056016 0.056016 0.056016
0.056148 0.056148 0.056148
0.056281 0.056281 0.056281
0.056414 0.056414 0.056414
0.056547 0.056547 0.056547
0.056680 0.056680 0.056680
0.056813 0.056813 0.056813
0.056946 0.056946 0.056946
0.057080 0.057080 0.057080
0.057214 0.057214 0.057214
0.057347 0.057347 0.057347
0.057481 0.057481 0.057481
0.057615 0.057615 0.057615
0.057749 0.057749 0.057749
0.057883 0.057883 0.057883
0.058017 0.058017 0.058017
0.058152 0.058152 0.058152
0.058286 0.058286 0.058286
0.058421 0.058421 0.058421
0.058556 0.058556 0.058556
0.058691 0.058691 0.058691
0.058826 0.058826 0.058826
0.058961 0.058961 0.058961
0.059096 0.059096 0.059096
0.059231 0.059231 0.059231
0.059367 0.059367 0.059367
0.059502 0.059502 0.059502
0.059638 0.059638 0.059638
0.059774 0.059774 0.059774
0.059910 0.059910 0.059910
0.060046 0.060046 0.060046
0.060182 0.060182 0.060182
0.060318 0.060318 0.060318
0.060454 0.060454 0.060454
0.060591 0.060591 0.060591
0.060727 0.060727 0.060727
0.060864 0.060864 0.060864
0.061001 0.061001 0.061001
0.061138 0.061138 0.061138
0.061275 0.061275 0.061275
0.061412 0.061412 0.061412
0.061549 0.061549 0.061549
0.061687 0.061687 0.061687
0.061824 0.061824 0.061824
0.061962 0.061962 0.061962
0.062100 0.062100 0.062100
0.062238 0.062238 0.062238
0.062376 0.062376 0.062376
0.062514 0.062514 0.062514
0.062652 0.062652 0.062652
0.062790 0.062790 0.062790
0.062929 0.062929 0.062929
0.063067 0.063067 0.063067
0.063206 0.063206 0.063206
0.063345 0.063345 0.063345
0.063484 0.063484 0.063484
0.063623 0.063623 0.063623
0.063762 0.063762 0.063762
0.063901 0.063901 0.063901
0.064040 0.064040 0.064040
0.064180 0.064180 0.064180
0.064319 0.064319 0.064319
0.064459 0.064459 0.064459
0.064599 0.064599 0.064599
0.064739 0.064739 0.064739
0.064879 0.064879 0.064879
0.065019 0.065019 0.065019
0.065159 0.065159 0.065159
0.065300 0.065300 0.065300
0.065440 0.065440 0.065440
0.065581 0.065581 0.065581
0.065721 0.065721 0.065721
0.065862 0.065862 0.065862
0.066003 0.066003 0.066003
0.066144 0.066144 0.066144
0.066285 0.066285 0.066285
0.066427 0.066427 0.066427
0.066568 0.066568 0.066568
0.066710 0.066710 0.066710
0.066851 0.066851 0.066851
0.066993 0.066993 0.066993
0.067135 0.067135 0.067135
0.067277 0.067277 0.067277
0.067419 0.067419 0.067419
0.067561 0.067561 0.067561
0.067703 0.067703 0.067703
0.067846 0.067846 0.067846
0.067988 0.067988 0.067988
0.068131 0.068131 0.068131
0.068273 0.068273 0.068273
0.068416 0.068416 0.068416
0.068559 0.068559 0.068559
0.068702 0.068702 0.068702
0.068846 0.068846 0.068846
0.068989 0.068989 0.068989
0.069132 0.069132 0.069132
0.069276 0.069276 0.069276
0.069419 0.069419 0.069419
0.069563 0.069563 0.069563
0.069707 0.069707 0.069707
0.069851 0.069851 0.069851
0.069995 0.069995 0.069995
0.070139 0.070139 0.070139
0.070284 0.070284 0.070284
0.070428 0.070428 0.070428
0.070572 0.070572 0.070572
0.070717 0.070717 0.070717
0.070862 0.070862 0.070862
0.071007 0.071007 0.071007
0.071152 0.071152 0.071152
0.071297 0.071297 0.071297
0.071442 0.071442 0.071442
0.071587 0.071587 0.071587
0.071733 0.071733 0.071733
0.071878 0.071878 0.071878
0.072024 0.072024 0.072024
0.072170 0.072170 0.072170
0.072315 0.072315 0.072315
0.072461 0.072461 0.072461
0.072607 0.072607 0.072607
0.072754 0.072754 0.072754
0.072900 0.072900 0.072900
0.073046 0.073046 0.073046
0.073193 0.073193 0.073193
0.073339 0.073339 0.073339
0.073486 0.073486 0.073486
0.073633 0.073633 0.073633
0.073780 0.073780 0.073780
0.073927 0.073927 0.073927
0.074074 0.074074 0.074074
0.074222 0.074222 0.074222
0.074369 0.074369 0.074369
0.074516 0.074516 0.074516
0.074664 0.074664 0.074664
0.074812 0.074812 0.074812
0.074960 0.074960 0.074960
0.075108 0.075108 0.075108
0.075256 0.075256 0.075256
0.075404 0.075404 0.075404
0.075552 0.075552 0.075552
0.075700 0.075700 0.075700
0.075849 0.075849 0.075849
0.075997 0.075997 0.075997
0.076146 0.076146 0.076146
0.076295 0.076295 0.076295
0.076444 0.076444 0.076444
0.076593 0.076593 0.076593
0.076742 0.076742 0.076742
0.076891 0.076891 0.076891
0.077041 0.077041 0.077041
0.077190 0.077190 0.077190
0.077340 0.077340 0.077340
0.077489 0.077489 0.077489
0.077639 0.077639 0.077639
0.077789 0.077789 0.077789
0.077939 0.077939 0.077939
0.078089 0.078089 0.078089
0.078239 0.078239 0.078239
0.078390 0.078390 0.078390
0.078540 0.078540 0.078540
0.078691 0.078691 0.078691
0.078841 0.078841 0.078841
0.078992 0.078992 0.078992
0.079143 0.079143 0.079143
0.079294 0.079294 0.079294
0.079445 0.079445 0.079445
0.079596 0.079596 0.079596
0.079748 0.079748 0.079748
0.079899 0.079899 0.079899
0.080051 0.080051 0.080051
0.080202 0.080202 0.080202
0.080354 0.080354 0.080354
0.080506 0.080506 0.080506
0.080658 0.080658 0.080658
0.080810 0.080810 0.080810
0.080962 0.080962 0.080962
0.081114 0.081114 0.081114
0.081267 0.081267 0.081267
0.081419 0.081419 0.081419
0.081572 0.081572 0.081572
0.081724 0.081724 0.081724
0.081877 0.081877 0.081877
0.082030 0.082030 0.082030
0.082183 0.082183 0.082183
0.082336 0.082336 0.082336
0.082490 0.082490 0.082490
0.082643 0.082643 0.082643
0.082796 0.082796 0.082796
0.082950 0.082950 0.082950
0.083104 0.083104 0.083104
0.083257 0.083257 0.083257
0.083411 0.083411 0.083411
0.083565 0.083565 0.083565
0.083719 0.083719 0.083719
0.083873 0.083873 0.083873
0.084028 0.084028 0.084028
0.084182 0.084182 0.084182
0.084337 0.084337 0.084337
0.084491 0.084491 0.084491
0.084646 0.084646 0.084646
0.084801 0.084801 0.084801
0.084956 0.084956 0.084956
0.085111 0.085111 0.085111
0.085266 0.085266 0.085266
0.085421 0.085421 0.085421
0.085577 0.085577 0.085577
0.085732 0.085732 0.085732
0.085888 0.085888 0.085888
