Shapers/Gamma_2.0.cube
# Gamma_2.0 Shaper LUT
# Copyright (C) 2022 Jan Van Coppenolle

LUT_1D_SIZE 4096

DOMAIN_MIN 0.0 0.0 0.0
DOMAIN_MAX 1.0 1.0 1.0

0.000000 0.000000 0.000000
0.000000 0.000000 0.000000
0.000000 0.000000 0.000000
0.000001 0.000001 0.000001
0.000001 0.000001 0.000001
0.000001 0.000001 0.000001
0.000002 0.000002 0.000002
0.000003 0.000003 0.000003
0.000004 0.000004 0.000004
0.000005 0.000005 0.000005
0.000006 0.000006 0.000006
0.000007 0.000007 0.000007
0.000009 0.000009 0.000009
0.000010 0.000010 0.000010
0.000012 0.000012 0.000012
0.000013 0.000013 0.000013
0.000015 0.000015 0.000015
0.000017 0.000017 0.000017
0.000019 0.000019 0.000019
0.000022 0.000022 0.000022
0.000024 0.000024 0.000024
0.000026 0.000026 0.000026
0.000029 0.000029 0.000029
0.000032 0.000032 0.000032
0.000034 0.000034 0.000034
0.000037 0.000037 0.000037
0.000040 0.000040 0.000040
0.000043 0.000043 0.000043
0.000047 0.000047 0.000047
0.000050 0.000050 0.000050
0.000054 0.000054 0.000054
0.000057 0.000057 0.000057
0.000061 0.000061 0.000061
0.000065 0.000065 0.000065
0.000069 0.000069 0.000069
0.000073 0.000073 0.000073
0.000077 0.000077 0.000077
0.000082 0.000082 0.000082
0.000086 0.000086 0.000086
0.000091 0.000091 0.000091
0.000095 0.000095 0.000095
0.000100 0.000100 0.000100
0.000105 0.000105 0.000105
0.000110 0.000110 0.000110
0.000115 0.000115 0.000115
0.000121 0.000121 0.000121
0.000126 0.000126 0.000126
0.000132 0.000132 0.000132
0.000137 0.000137 0.000137
0.000143 0.000143 0.000143
0.000149 0.000149 0.000149
0.000155 0.000155 0.000155
0.000161 0.000161 0.000161
0.000168 0.000168 0.000168
0.000174 0.000174 0.000174
0.000180 0.000180 0.000180
0.000187 0.000187 0.000187
0.000194 0.000194 0.000194
0.000201 0.000201 0.000201
0.000208 0.000208 0.000208
0.000215 0.000215 0.000215
0.000222 0.000222 0.000222
0.000229 0.000229 0.000229
0.000237 0.000237 0.000237
0.000244 0.000244 0.000244
0.000252 0.000252 0.000252
0.000260 0.000260 0.000260
0.000268 0.000268 0.000268
0.000276 0.000276 0.000276
0.000284 0.000284 0.000284
0.000292 0.000292 0.000292
0.000301 0.000301 0.000301
0.000309 0.000309 0.000309
0.000318 0.000318 0.000318
0.000327 0.000327 0.000327
0.000335 0.000335 0.000335
0.000344 0.000344 0.000344
0.000354 0.000354 0.000354
0.000363 0.000363 0.000363
0.000372 0.000372 0.000372
0.000382 0.000382 0.000382
0.000391 0.000391 0.000391
0.000401 0.000401 0.000401
0.000411 0.000411 0.000411
0.000421 0.000421 0.000421
0.000431 0.000431 0.000431
0.000441 0.000441 0.000441
0.000451 0.000451 0.000451
0.000462 0.000462 0.000462
0.000472 0.000472 0.000472
0.000483 0.000483 0.000483
0.000494 0.000494 0.000494
0.000505 0.000505 0.000505
0.000516 0.000516 0.000516
0.000527 0.000527 0.000527
0.000538 0.000538 0.000538
0.000550 0.000550 0.000550
0.000561 0.000561 0.000561
0.000573 0.000573 0.000573
0.000584 0.000584 0.000584
0.000596 0.000596 0.000596
0.000608 0.000608 0.000608
0.000620 0.000620 0.000620
0.000633 0.000633 0.000633
0.000645 0.000645 0.000645
0.000657 0.000657 0.000657
0.000670 0.000670 0.000670
0.000683 0.000683 0.000683
0.000696 0.000696 0.000696
0.000709 0.000709 0.000709
0.000722 0.000722 0.000722
0.000735 0.000735 0.000735
0.000748 0.000748 0.000748
0.000761 0.000761 0.000761
0.000775 0.000775 0.000775
0.000789 0.000789 0.000789
0.000802 0.000802 0.000802
0.000816 0.000816 0.000816
0.000830 0.000830 0.000830
0.000844 0.000844 0.000844
0.000859 0.000859 0.000859
0.000873 0.000873 0.000873
0.000888 0.000888 0.000888
0.000902 0.000902 0.000902
0.000917 0.000917 0.000917
0.000932 0.000932 0.000932
0.000947 0.000947 0.000947
0.000962 0.000962 0.000962
0.000977 0.000977 0.000977
0.000992 0.000992 0.000992
0.001008 0.001008 0.001008
0.001023 0.001023 0.001023
0.001039 0.001039 0.001039
0.001055 0.001055 0.001055
0.001071 0.001071 0.001071
0.001087 0.001087 0.001087
0.001103 0.001103 0.001103
0.001119 0.001119 0.001119
0.001136 0.001136 0.001136
0.001152 0.001152 0.001152
0.001169 0.001169 0.001169
0.001186 0.001186 0.001186
0.001202 0.001202 0.001202
0.001219 0.001219 0.001219
0.001237 0.001237 0.001237
0.001254 0.001254 0.001254
0.001271 0.001271 0.001271
0.001289 0.001289 0.001289
0.001306 0.001306 0.001306
0.001324 0.001324 0.001324
0.001342 0.001342 0.001342
0.001360 0.001360 0.001360
0.001378 0.001378 0.001378
0.001396 0.001396 0.001396
0.001414 0.001414 0.001414
0.001433 0.001433 0.001433
0.001451 0.001451 0.001451
0.001470 0.001470 0.001470
0.001489 0.001489 0.001489
0.001508 0.001508 0.001508
0.001527 0.001527 0.001527
0.001546 0.001546 0.001546
0.001565 0.001565 0.001565
0.001584 0.001584 0.001584
0.001604 0.001604 0.001604
0.001624 0.001624 0.001624
0.001643 0.001643 0.001643
0.001663 0.001663 0.001663
0.001683 0.001683 0.001683
0.001703 0.001703 0.001703
0.001723 0.001723 0.001723
0.001744 0.001744 0.001744
0.001764 0.001764 0.001764
0.001785 0.001785 0.001785
0.001805 0.001805 0.001805
0.001826 0.001826 0.001826
0.001847 0.001847 0.001847
0.001868 0.001868 0.001868
0.001889 0.001889 0.001889
0.001911 0.001911 0.001911
0.001932 0.001932 0.001932
0.001954 0.001954 0.001954
0.001975 0.001975 0.001975
0.001997 0.001997 0.001997
0.002019 0.002019 0.002019
0.002041 0.002041 0.002041
0.002063 0.002063 0.002063
0.002085 0.002085 0.002085
0.002108 0.002108 0.002108
0.002130 0.002130 0.002130
0.002153 0.002153 0.002153
0.002175 0.002175 0.002175
0.002198 0.002198 0.002198
0.002221 0.002221 0.002221
0.002244 0.002244 0.002244
0.002268 0.002268 0.002268
0.002291 0.002291 0.002291
0.002314 0.002314 0.002314
0.002338 0.002338 0.002338
0.002362 0.002362 0.002362
0.002385 0.002385 0.002385
0.002409 0.002409 0.002409
0.002433 0.002433 0.002433
0.002457 0.002457 0.002457
0.002482 0.002482 0.002482
0.002506 0.002506 0.002506
0.002531 0.002531 0.002531
0.002555 0.002555 0.002555
0.002580 0.002580 0.002580
0.002605 0.002605 0.002605
0.002630 0.002630 0.002630
0.002655 0.002655 0.002655
0.002680 0.002680 0.002680
0.002706 0.002706 0.002706
0.002731 0.002731 0.002731
0.002757 0.002757 0.002757
0.002782 0.002782 0.002782
0.002808 0.002808 0.002808
0.002834 0.002834 0.002834
0.002860 0.002860 0.002860
0.002886 0.002886 0.002886
0.002913 0.002913 0.002913
0.002939 0.002939 0.002939
0.002966 0.002966 0.002966
0.002992 0.002992 0.002992
0.003019 0.003019 0.003019
0.003046 0.003046 0.003046
0.003073 0.003073 0.003073
0.003100 0.003100 0.003100
0.003127 0.003127 0.003127
0.003155 0.003155 0.003155
0.003182 0.003182 0.003182
0.003210 0.003210 0.003210
0.003237 0.003237 0.003237
0.003265 0.003265 0.003265
0.003293 0.003293 0.003293
0.003321 0.003321 0.003321
0.003350 0.003350 0.003350
0.003378 0.003378 0.003378
0.003406 0.003406 0.003406
0.003435 0.003435 0.003435
0.003464 0.003464 0.003464
0.003492 0.003492 0.003492
0.003521 0.003521 0.003521
0.003550 0.003550 0.003550
0.003580 0.003580 0.003580
0.003609 0.003609 0.003609
0.003638 0.003638 0.003638
0.003668 0.003668 0.003668
0.003697 0.003697 0.003697
0.003727 0.003727 0.003727
0.003757 0.003757 0.003757
0.003787 0.003787 0.003787
0.003817 0.003817 0.003817
0.003847 0.003847 0.003847
0.003878 0.003878 0.003878
0.003908 0.003908 0.003908
0.003939 0.003939 0.003939
0.003969 0.003969 0.003969
0.004000 0.004000 0.004000
0.004031 0.004031 0.004031
0.004062 0.004062 0.004062
0.004094 0.004094 0.004094
0.004125 0.004125 0.004125
0.004156 0.004156 0.004156
0.004188 0.004188 0.004188
0.004219 0.004219 0.004219
0.004251 0.004251 0.004251
0.004283 0.004283 0.004283
0.004315 0.004315 0.004315
0.004347 0.004347 0.004347
0.004380 0.004380 0.004380
0.004412 0.004412 0.004412
0.004444 0.004444 0.004444
0.004477 0.004477 0.004477
0.004510 0.004510 0.004510
0.004543 0.004543 0.004543
0.004576 0.004576 0.004576
0.004609 0.004609 0.004609
0.004642 0.004642 0.004642
0.004675 0.004675 0.004675
0.004709 0.004709 0.004709
0.004742 0.004742 0.004742
0.004776 0.004776 0.004776
0.004810 0.004810 0.004810
0.004844 0.004844 0.004844
0.004878 0.004878 0.004878
0.004912 0.004912 0.004912
0.004946 0.004946 0.004946
0.004981 0.004981 0.004981
0.005015 0.005015 0.005015
0.005050 0.005050 0.005050
0.005085 0.005085 0.005085
0.005119 0.005119 0.005119
0.005155 0.005155 0.005155
0.005190 0.005190 0.005190
0.005225 0.005225 0.005225
0.005260 0.005260 0.005260
0.005296 0.005296 0.005296
0.005331 0.005331 0.005331
0.005367 0.005367 0.005367
0.005403 0.005403 0.005403
0.005439 0.005439 0.005439
0.005475 0.005475 0.005475
0.005511 0.005511 0.005511
0.005547 0.005547 0.005547
0.005584 0.005584 0.005584
0.005620 0.005620 0.005620
0.005657 0.005657 0.005657
0.005694 0.005694 0.005694
0.005731 0.005731 0.005731
0.005768 0.005768 0.005768
0.005805 0.005805 0.005805
0.005842 0.005842 0.005842
0.005880 0.005880 0.005880
0.005917 0.005917 0.005917
0.005955 0.005955 0.005955
0.005993 0.005993 0.005993
0.006030 0.006030 0.006030
0.006068 0.006068 0.006068
0.006106 0.006106 0.006106
0.006145 0.006145 0.006145
0.006183 0.006183 0.006183
0.006222 0.006222 0.006222
0.006260 0.006260 0.006260
0.006299 0.006299 0.006299
0.006338 0.006338 0.006338
0.006377 0.006377 0.006377
0.006416 0.006416 0.006416
0.006455 0.006455 0.006455
0.006494 0.006494 0.006494
0.006534 0.006534 0.006534
0.006573 0.006573 0.006573
0.006613 0.006613 0.006613
0.006653 0.006653 0.006653
0.006692 0.006692 0.006692
0.006732 0.006732 0.006732
0.006773 0.006773 0.006773
0.006813 0.006813 0.006813
0.006853 0.006853 0.006853
0.006894 0.006894 0.006894
0.006934 0.006934 0.006934
0.006975 0.006975 0.006975
0.007016 0.007016 0.007016
0.007057 0.007057 0.007057
0.007098 0.007098 0.007098
0.007139 0.007139 0.007139
0.007180 0.007180 0.007180
0.007222 0.007222 0.007222
0.007263 0.007263 0.007263
0.007305 0.007305 0.007305
0.007347 0.007347 0.007347
0.007389 0.007389 0.007389
0.007431 0.007431 0.007431
0.007473 0.007473 0.007473
0.007515 0.007515 0.007515
0.007558 0.007558 0.007558
0.007600 0.007600 0.007600
0.007643 0.007643 0.007643
0.007686 0.007686 0.007686
0.007729 0.007729 0.007729
0.007772 0.007772 0.007772
0.007815 0.007815 0.007815
0.007858 0.007858 0.007858
0.007901 0.007901 0.007901
0.007945 0.007945 0.007945
0.007988 0.007988 0.007988
0.008032 0.008032 0.008032
0.008076 0.008076 0.008076
0.008120 0.008120 0.008120
0.008164 0.008164 0.008164
0.008208 0.008208 0.008208
0.008252 0.008252 0.008252
0.008297 0.008297 0.008297
0.008341 0.008341 0.008341
0.008386 0.008386 0.008386
0.008431 0.008431 0.008431
0.008476 0.008476 0.008476
0.008521 0.008521 0.008521
0.008566 0.008566 0.008566
0.008611 0.008611 0.008611
0.008656 0.008656 0.008656
0.008702 0.008702 0.008702
0.008748 0.008748 0.008748
0.008793 0.008793 0.008793
0.008839 0.008839 0.008839
0.008885 0.008885 0.008885
0.008931 0.008931 0.008931
0.008978 0.008978 0.008978
0.009024 0.009024 0.009024
0.009070 0.009070 0.009070
0.009117 0.009117 0.009117
0.009164 0.009164 0.009164
0.009210 0.009210 0.009210
0.009257 0.009257 0.009257
0.009304 0.009304 0.009304
0.009352 0.009352 0.009352
0.009399 0.009399 0.009399
0.009446 0.009446 0.009446
0.009494 0.009494 0.009494
0.009541 0.009541 0.009541
0.009589 0.009589 0.009589
0.009637 0.009637 0.009637
0.009685 0.009685 0.009685
0.009733 0.009733 0.009733
0.009781 0.009781 0.009781
0.009830 0.009830 0.009830
0.009878 0.009878 0.009878
0.009927 0.009927 0.009927
0.009976 0.009976 0.009976
0.010024 0.010024 0.010024
0.010073 0.010073 0.010073
0.010122 0.010122 0.010122
0.010172 0.010172 0.010172
0.010221 0.010221 0.010221
0.010270 0.010270 0.010270
0.010320 0.010320 0.010320
0.010370 0.010370 0.010370
0.010419 0.010419 0.010419
0.010469 0.010469 0.010469
0.010519 0.010519 0.010519
0.010570 0.010570 0.010570
0.010620 0.010620 0.010620
0.010670 0.010670 0.010670
0.010721 0.010721 0.010721
0.010771 0.010771 0.010771
0.010822 0.010822 0.010822
0.010873 0.010873 0.010873
0.010924 0.010924 0.010924
0.010975 0.010975 0.010975
0.011026 0.011026 0.011026
0.011078 0.011078 0.011078
0.011129 0.011129 0.011129
0.011181 0.011181 0.011181
0.011232 0.011232 0.011232
0.011284 0.011284 0.011284
0.011336 0.011336 0.011336
0.011388 0.011388 0.011388
0.011440 0.011440 0.011440
0.011493 0.011493 0.011493
0.011545 0.011545 0.011545
0.011598 0.011598 0.011598
0.011650 0.011650 0.011650
0.011703 0.011703 0.011703
0.011756 0.011756 0.011756
0.011809 0.011809 0.011809
0.011862 0.011862 0.011862
0.011915 0.011915 0.011915
0.011969 0.011969 0.011969
0.012022 0.012022 0.012022
0.012076 0.012076 0.012076
0.012130 0.012130 0.012130
0.012183 0.012183 0.012183
0.012237 0.012237 0.012237
0.012291 0.012291 0.012291
0.012346 0.012346 0.012346
0.012400 0.012400 0.012400
0.012454 0.012454 0.012454
0.012509 0.012509 0.012509
0.012564 0.012564 0.012564
0.012619 0.012619 0.012619
0.012673 0.012673 0.012673
0.012728 0.012728 0.012728
0.012784 0.012784 0.012784
0.012839 0.012839 0.012839
0.012894 0.012894 0.012894
0.012950 0.012950 0.012950
0.013005 0.013005 0.013005
0.013061 0.013061 0.013061
0.013117 0.013117 0.013117
0.013173 0.013173 0.013173
0.013229 0.013229 0.013229
0.013285 0.013285 0.013285
0.013342 0.013342 0.013342
0.013398 0.013398 0.013398
0.013455 0.013455 0.013455
0.013512 0.013512 0.013512
0.013568 0.013568 0.013568
0.013625 0.013625 0.013625
0.013682 0.013682 0.013682
0.013740 0.013740 0.013740
0.013797 0.013797 0.013797
0.013854 0.013854 0.013854
0.013912 0.013912 0.013912
0.013970 0.013970 0.013970
0.014027 0.014027 0.014027
0.014085 0.014085 0.014085
0.014143 0.014143 0.014143
0.014201 0.014201 0.014201
0.014260 0.014260 0.014260
0.014318 0.014318 0.014318
0.014377 0.014377 0.014377
0.014435 0.014435 0.014435
0.014494 0.014494 0.014494
0.014553 0.014553 0.014553
0.014612 0.014612 0.014612
0.014671 0.014671 0.014671
0.014730 0.014730 0.014730
0.014789 0.014789 0.014789
0.014849 0.014849 0.014849
0.014908 0.014908 0.014908
0.014968 0.014968 0.014968
0.015028 0.015028 0.015028
0.015088 0.015088 0.015088
0.015148 0.015148 0.015148
0.015208 0.015208 0.015208
0.015268 0.015268 0.015268
0.015329 0.015329 0.015329
0.015389 0.015389 0.015389
0.015450 0.015450 0.015450
0.015511 0.015511 0.015511
0.015572 0.015572 0.015572
0.015633 0.015633 0.015633
0.015694 0.015694 0.015694
0.015755 0.015755 0.015755
0.015816 0.015816 0.015816
0.015878 0.015878 0.015878
0.015939 0.015939 0.015939
0.016001 0.016001 0.016001
0.016063 0.016063 0.016063
0.016125 0.016125 0.016125
0.016187 0.016187 0.016187
0.016249 0.016249 0.016249
0.016312 0.016312 0.016312
0.016374 0.016374 0.016374
0.016437 0.016437 0.016437
0.016499 0.016499 0.016499
0.016562 0.016562 0.016562
0.016625 0.016625 0.016625
0.016688 0.016688 0.016688
0.016751 0.016751 0.016751
0.016814 0.016814 0.016814
0.016878 0.016878 0.016878
0.016941 0.016941 0.016941
0.017005 0.017005 0.017005
0.017069 0.017069 0.017069
0.017133 0.017133 0.017133
0.017197 0.017197 0.017197
0.017261 0.017261 0.017261
0.017325 0.017325 0.017325
0.017389 0.017389 0.017389
0.017454 0.017454 0.017454
0.017518 0.017518 0.017518
0.017583 0.017583 0.017583
0.017648 0.017648 0.017648
0.017713 0.017713 0.017713
0.017778 0.017778 0.017778
0.017843 0.017843 0.017843
0.017908 0.017908 0.017908
0.017974 0.017974 0.017974
0.018039 0.018039 0.018039
0.018105 0.018105 0.018105
0.018171 0.018171 0.018171
0.018237 0.018237 0.018237
0.018303 0.018303 0.018303
0.018369 0.018369 0.018369
0.018435 0.018435 0.018435
0.018501 0.018501 0.018501
0.018568 0.018568 0.018568
0.018634 0.018634 0.018634
0.018701 0.018701 0.018701
0.018768 0.018768 0.018768
0.018835 0.018835 0.018835
0.018902 0.018902 0.018902
0.018969 0.018969 0.018969
0.019037 0.019037 0.019037
0.019104 0.019104 0.019104
0.019172 0.019172 0.019172
0.019239 0.019239 0.019239
0.019307 0.019307 0.019307
0.019375 0.019375 0.019375
0.019443 0.019443 0.019443
0.019511 0.019511 0.019511
0.019579 0.019579 0.019579
0.019648 0.019648 0.019648
0.019716 0.019716 0.019716
0.019785 0.019785 0.019785
0.019854 0.019854 0.019854
0.019923 0.019923 0.019923
0.019992 0.019992 0.019992
0.020061 0.020061 0.020061
0.020130 0.020130 0.020130
0.020199 0.020199 0.020199
0.020269 0.020269 0.020269
0.020338 0.020338 0.020338
0.020408 0.020408 0.020408
0.020478 0.020478 0.020478
0.020548 0.020548 0.020548
0.020618 0.020618 0.020618
0.020688 0.020688 0.020688
0.020759 0.020759 0.020759
0.020829 0.020829 0.020829
0.020899 0.020899 0.020899
0.020970 0.020970 0.020970
0.021041 0.021041 0.021041
0.021112 0.021112 0.021112
0.021183 0.021183 0.021183
0.021254 0.021254 0.021254
0.021325 0.021325 0.021325
0.021397 0.021397 0.021397
0.021468 0.021468 0.021468
0.021540 0.021540 0.021540
0.021612 0.021612 0.021612
0.021683 0.021683 0.021683
0.021755 0.021755 0.021755
0.021827 0.021827 0.021827
0.021900 0.021900 0.021900
0.021972 0.021972 0.021972
0.022044 0.022044 0.022044
0.022117 0.022117 0.022117
0.022190 0.022190 0.022190
0.022263 0.022263 0.022263
0.022335 0.022335 0.022335
0.022409 0.022409 0.022409
0.022482 0.022482 0.022482
0.022555 0.022555 0.022555
0.022628 0.022628 0.022628
0.022702 0.022702 0.022702
0.022776 0.022776 0.022776
0.022849 0.022849 0.022849
0.022923 0.022923 0.022923
0.022997 0.022997 0.022997
0.023071 0.023071 0.023071
0.023146 0.023146 0.023146
0.023220 0.023220 0.023220
0.023294 0.023294 0.023294
0.023369 0.023369 0.023369
0.023444 0.023444 0.023444
0.023519 0.023519 0.023519
0.023594 0.023594 0.023594
0.023669 0.023669 0.023669
0.023744 0.023744 0.023744
0.023819 0.023819 0.023819
0.023895 0.023895 0.023895
0.023970 0.023970 0.023970
0.024046 0.024046 0.024046
0.024122 0.024122 0.024122
0.024198 0.024198 0.024198
0.024274 0.024274 0.024274
0.024350 0.024350 0.024350
0.024426 0.024426 0.024426
0.024502 0.024502 0.024502
0.024579 0.024579 0.024579
0.024656 0.024656 0.024656
0.024732 0.024732 0.024732
0.024809 0.024809 0.024809
0.024886 0.024886 0.024886
0.024963 0.024963 0.024963
0.025040 0.025040 0.025040
0.025118 0.025118 0.025118
0.025195 0.025195 0.025195
0.025273 0.025273 0.025273
0.025351 0.025351 0.025351
0.025428 0.025428 0.025428
0.025506 0.025506 0.025506
0.025584 0.025584 0.025584
0.025663 0.025663 0.025663
0.025741 0.025741 0.025741
0.025819 0.025819 0.025819
0.025898 0.025898 0.025898
0.025976 0.025976 0.025976
0.026055 0.026055 0.026055
0.026134 0.026134 0.026134
0.026213 0.026213 0.026213
0.026292 0.026292 0.026292
0.026372 0.026372 0.026372
0.026451 0.026451 0.026451
0.026530 0.026530 0.026530
0.026610 0.026610 0.026610
0.026690 0.026690 0.026690
0.026770 0.026770 0.026770
0.026850 0.026850 0.026850
0.026930 0.026930 0.026930
0.027010 0.027010 0.027010
0.027090 0.027090 0.027090
0.027171 0.027171 0.027171
0.027251 0.027251 0.027251
0.027332 0.027332 0.027332
0.027413 0.027413 0.027413
0.027494 0.027494 0.027494
0.027575 0.027575 0.027575
0.027656 0.027656 0.027656
0.027737 0.027737 0.027737
0.027818 0.027818 0.027818
0.027900 0.027900 0.027900
0.027982 0.027982 0.027982
0.028063 0.028063 0.028063
0.028145 0.028145 0.028145
0.028227 0.028227 0.028227
0.028309 0.028309 0.028309
0.028392 0.028392 0.028392
0.028474 0.028474 0.028474
0.028556 0.028556 0.028556
0.028639 0.028639 0.028639
0.028722 0.028722 0.028722
0.028805 0.028805 0.028805
0.028888 0.028888 0.028888
0.028971 0.028971 0.028971
0.029054 0.029054 0.029054
0.029137 0.029137 0.029137
0.029221 0.029221 0.029221
0.029304 0.029304 0.029304
0.029388 0.029388 0.029388
0.029472 0.029472 0.029472
0.029555 0.029555 0.029555
0.029639 0.029639 0.029639
0.029724 0.029724 0.029724
0.029808 0.029808 0.029808
0.029892 0.029892 0.029892
0.029977 0.029977 0.029977
0.030061 0.030061 0.030061
0.030146 0.030146 0.030146
0.030231 0.030231 0.030231
0.030316 0.030316 0.030316
0.030401 0.030401 0.030401
0.030486 0.030486 0.030486
0.030572 0.030572 0.030572
0.030657 0.030657 0.030657
0.030743 0.030743 0.030743
0.030828 0.030828 0.030828
0.030914 0.030914 0.030914
0.031000 0.031000 0.031000
0.031086 0.031086 0.031086
0.031172 0.031172 0.031172
0.031259 0.031259 0.031259
0.031345 0.031345 0.031345
0.031432 0.031432 0.031432
0.031518 0.031518 0.031518
0.031605 0.031605 0.031605
0.031692 0.031692 0.031692
0.031779 0.031779 0.031779
0.031866 0.031866 0.031866
0.031953 0.031953 0.031953
0.032041 0.032041 0.032041
0.032128 0.032128 0.032128
0.032216 0.032216 0.032216
0.032303 0.032303 0.032303
0.032391 0.032391 0.032391
0.032479 0.032479 0.032479
0.032567 0.032567 0.032567
0.032655 0.032655 0.032655
0.032744 0.032744 0.032744
0.032832 0.032832 0.032832
0.032921 0.032921 0.032921
0.033009 0.033009 0.033009
0.033098 0.033098 0.033098
0.033187 0.033187 0.033187
0.033276 0.033276 0.033276
0.033365 0.033365 0.033365
0.033455 0.033455 0.033455
0.033544 0.033544 0.033544
0.033634 0.033634 0.033634
0.033723 0.033723 0.033723
0.033813 0.033813 0.033813
0.033903 0.033903 0.033903
0.033993 0.033993 0.033993
0.034083 0.034083 0.034083
0.034173 0.034173 0.034173
0.034263 0.034263 0.034263
0.034354 0.034354 0.034354
0.034444 0.034444 0.034444
0.034535 0.034535 0.034535
0.034626 0.034626 0.034626
0.034717 0.034717 0.034717
0.034808 0.034808 0.034808
0.034899 0.034899 0.034899
0.034990 0.034990 0.034990
0.035082 0.035082 0.035082
0.035173 0.035173 0.035173
0.035265 0.035265 0.035265
0.035357 0.035357 0.035357
0.035449 0.035449 0.035449
0.035541 0.035541 0.035541
0.035633 0.035633 0.035633
0.035725 0.035725 0.035725
0.035818 0.035818 0.035818
0.035910 0.035910 0.035910
0.036003 0.036003 0.036003
0.036095 0.036095 0.036095
0.036188 0.036188 0.036188
0.036281 0.036281 0.036281
0.036374 0.036374 0.036374
0.036467 0.036467 0.036467
0.036561 0.036561 0.036561
0.036654 0.036654 0.036654
0.036748 0.036748 0.036748
0.036842 0.036842 0.036842
0.036935 0.036935 0.036935
0.037029 0.037029 0.037029
0.037123 0.037123 0.037123
0.037217 0.037217 0.037217
0.037312 0.037312 0.037312
0.037406 0.037406 0.037406
0.037501 0.037501 0.037501
0.037595 0.037595 0.037595
0.037690 0.037690 0.037690
0.037785 0.037785 0.037785
0.037880 0.037880 0.037880
0.037975 0.037975 0.037975
0.038070 0.038070 0.038070
0.038166 0.038166 0.038166
0.038261 0.038261 0.038261
0.038357 0.038357 0.038357
0.038452 0.038452 0.038452
0.038548 0.038548 0.038548
0.038644 0.038644 0.038644
0.038740 0.038740 0.038740
0.038836 0.038836 0.038836
0.038933 0.038933 0.038933
0.039029 0.039029 0.039029
0.039126 0.039126 0.039126
0.039222 0.039222 0.039222
0.039319 0.039319 0.039319
0.039416 0.039416 0.039416
0.039513 0.039513 0.039513
0.039610 0.039610 0.039610
0.039707 0.039707 0.039707
0.039805 0.039805 0.039805
0.039902 0.039902 0.039902
0.040000 0.040000 0.040000
0.040098 0.040098 0.040098
0.040196 0.040196 0.040196
0.040294 0.040294 0.040294
0.040392 0.040392 0.040392
0.040490 0.040490 0.040490
0.040588 0.040588 0.040588
0.040687 0.040687 0.040687
0.040785 0.040785 0.040785
0.040884 0.040884 0.040884
0.040983 0.040983 0.040983
0.041082 0.041082 0.041082
0.041181 0.041181 0.041181
0.041280 0.041280 0.041280
0.041379 0.041379 0.041379
0.041479 0.041479 0.041479
0.041578 0.041578 0.041578
0.041678 0.041678 0.041678
0.041778 0.041778 0.041778
0.041877 0.041877 0.041877
0.041977 0.041977 0.041977
0.042078 0.042078 0.042078
0.042178 0.042178 0.042178
0.042278 0.042278 0.042278
0.042379 0.042379 0.042379
0.042479 0.042479 0.042479
0.042580 0.042580 0.042580
0.042681 0.042681 0.042681
0.042782 0.042782 0.042782
0.042883 0.042883 0.042883
0.042984 0.042984 0.042984
0.043085 0.043085 0.043085
0.043187 0.043187 0.043187
0.043288 0.043288 0.043288
0.043390 0.043390 0.043390
0.043492 0.043492 0.043492
0.043594 0.043594 0.043594
0.043696 0.043696 0.043696
0.043798 0.043798 0.043798
0.043900 0.043900 0.043900
0.044003 0.044003 0.044003
0.044105 0.044105 0.044105
0.044208 0.044208 0.044208
0.044311 0.044311 0.044311
0.044413 0.044413 0.044413
0.044516 0.044516 0.044516
0.044619 0.044619 0.044619
0.044723 0.044723 0.044723
0.044826 0.044826 0.044826
0.044930 0.044930 0.044930
0.045033 0.045033 0.045033
0.045137 0.045137 0.045137
0.045241 0.045241 0.045241
0.045345 0.045345 0.045345
0.045449 0.045449 0.045449
0.045553 0.045553 0.045553
0.045657 0.045657 0.045657
0.045762 0.045762 0.045762
0.045866 0.045866 0.045866
0.045971 0.045971 0.045971
0.046075 0.046075 0.046075
0.046180 0.046180 0.046180
0.046285 0.046285 0.046285
0.046391 0.046391 0.046391
0.046496 0.046496 0.046496
