Shapers/Gamma_1.8.cube
# Gamma_1.8 Shaper LUT
# Copyright (C) 2022 Jan Van Coppenolle

LUT_1D_SIZE 4096

DOMAIN_MIN 0.0 0.0 0.0
DOMAIN_MAX 1.0 1.0 1.0

0.000000 0.000000 0.000000
0.000000 0.000000 0.000000
0.000001 0.000001 0.000001
0.000002 0.000002 0.000002
0.000004 0.000004 0.000004
0.000006 0.000006 0.000006
0.000008 0.000008 0.000008
0.000010 0.000010 0.000010
0.000013 0.000013 0.000013
0.000016 0.000016 0.000016
0.000020 0.000020 0.000020
0.000024 0.000024 0.000024
0.000028 0.000028 0.000028
0.000032 0.000032 0.000032
0.000036 0.000036 0.000036
0.000041 0.000041 0.000041
0.000046 0.000046 0.000046
0.000052 0.000052 0.000052
0.000057 0.000057 0.000057
0.000063 0.000063 0.000063
0.000069 0.000069 0.000069
0.000075 0.000075 0.000075
0.000082 0.000082 0.000082
0.000089 0.000089 0.000089
0.000096 0.000096 0.000096
0.000103 0.000103 0.000103
0.000111 0.000111 0.000111
0.000119 0.000119 0.000119
0.000127 0.000127 0.000127
0.000135 0.000135 0.000135
0.000143 0.000143 0.000143
0.000152 0.000152 0.000152
0.000161 0.000161 0.000161
0.000170 0.000170 0.000170
0.000180 0.000180 0.000180
0.000189 0.000189 0.000189
0.000199 0.000199 0.000199
0.000209 0.000209 0.000209
0.000220 0.000220 0.000220
0.000230 0.000230 0.000230
0.000241 0.000241 0.000241
0.000252 0.000252 0.000252
0.000263 0.000263 0.000263
0.000274 0.000274 0.000274
0.000286 0.000286 0.000286
0.000298 0.000298 0.000298
0.000310 0.000310 0.000310
0.000322 0.000322 0.000322
0.000334 0.000334 0.000334
0.000347 0.000347 0.000347
0.000360 0.000360 0.000360
0.000373 0.000373 0.000373
0.000386 0.000386 0.000386
0.000400 0.000400 0.000400
0.000413 0.000413 0.000413
0.000427 0.000427 0.000427
0.000441 0.000441 0.000441
0.000456 0.000456 0.000456
0.000470 0.000470 0.000470
0.000485 0.000485 0.000485
0.000500 0.000500 0.000500
0.000515 0.000515 0.000515
0.000530 0.000530 0.000530
0.000545 0.000545 0.000545
0.000561 0.000561 0.000561
0.000577 0.000577 0.000577
0.000593 0.000593 0.000593
0.000609 0.000609 0.000609
0.000626 0.000626 0.000626
0.000642 0.000642 0.000642
0.000659 0.000659 0.000659
0.000676 0.000676 0.000676
0.000694 0.000694 0.000694
0.000711 0.000711 0.000711
0.000729 0.000729 0.000729
0.000747 0.000747 0.000747
0.000765 0.000765 0.000765
0.000783 0.000783 0.000783
0.000801 0.000801 0.000801
0.000820 0.000820 0.000820
0.000839 0.000839 0.000839
0.000857 0.000857 0.000857
0.000877 0.000877 0.000877
0.000896 0.000896 0.000896
0.000915 0.000915 0.000915
0.000935 0.000935 0.000935
0.000955 0.000955 0.000955
0.000975 0.000975 0.000975
0.000995 0.000995 0.000995
0.001016 0.001016 0.001016
0.001037 0.001037 0.001037
0.001057 0.001057 0.001057
0.001078 0.001078 0.001078
0.001100 0.001100 0.001100
0.001121 0.001121 0.001121
0.001142 0.001142 0.001142
0.001164 0.001164 0.001164
0.001186 0.001186 0.001186
0.001208 0.001208 0.001208
0.001231 0.001231 0.001231
0.001253 0.001253 0.001253
0.001276 0.001276 0.001276
0.001298 0.001298 0.001298
0.001321 0.001321 0.001321
0.001345 0.001345 0.001345
0.001368 0.001368 0.001368
0.001392 0.001392 0.001392
0.001415 0.001415 0.001415
0.001439 0.001439 0.001439
0.001463 0.001463 0.001463
0.001487 0.001487 0.001487
0.001512 0.001512 0.001512
0.001537 0.001537 0.001537
0.001561 0.001561 0.001561
0.001586 0.001586 0.001586
0.001611 0.001611 0.001611
0.001637 0.001637 0.001637
0.001662 0.001662 0.001662
0.001688 0.001688 0.001688
0.001714 0.001714 0.001714
0.001740 0.001740 0.001740
0.001766 0.001766 0.001766
0.001792 0.001792 0.001792
0.001819 0.001819 0.001819
0.001845 0.001845 0.001845
0.001872 0.001872 0.001872
0.001899 0.001899 0.001899
0.001927 0.001927 0.001927
0.001954 0.001954 0.001954
0.001982 0.001982 0.001982
0.002009 0.002009 0.002009
0.002037 0.002037 0.002037
0.002065 0.002065 0.002065
0.002094 0.002094 0.002094
0.002122 0.002122 0.002122
0.002151 0.002151 0.002151
0.002179 0.002179 0.002179
0.002208 0.002208 0.002208
0.002237 0.002237 0.002237
0.002267 0.002267 0.002267
0.002296 0.002296 0.002296
0.002326 0.002326 0.002326
0.002355 0.002355 0.002355
0.002385 0.002385 0.002385
0.002415 0.002415 0.002415
0.002446 0.002446 0.002446
0.002476 0.002476 0.002476
0.002507 0.002507 0.002507
0.002538 0.002538 0.002538
0.002568 0.002568 0.002568
0.002600 0.002600 0.002600
0.002631 0.002631 0.002631
0.002662 0.002662 0.002662
0.002694 0.002694 0.002694
0.002726 0.002726 0.002726
0.002758 0.002758 0.002758
0.002790 0.002790 0.002790
0.002822 0.002822 0.002822
0.002854 0.002854 0.002854
0.002887 0.002887 0.002887
0.002920 0.002920 0.002920
0.002953 0.002953 0.002953
0.002986 0.002986 0.002986
0.003019 0.003019 0.003019
0.003053 0.003053 0.003053
0.003086 0.003086 0.003086
0.003120 0.003120 0.003120
0.003154 0.003154 0.003154
0.003188 0.003188 0.003188
0.003222 0.003222 0.003222
0.003257 0.003257 0.003257
0.003291 0.003291 0.003291
0.003326 0.003326 0.003326
0.003361 0.003361 0.003361
0.003396 0.003396 0.003396
0.003431 0.003431 0.003431
0.003466 0.003466 0.003466
0.003502 0.003502 0.003502
0.003538 0.003538 0.003538
0.003573 0.003573 0.003573
0.003609 0.003609 0.003609
0.003646 0.003646 0.003646
0.003682 0.003682 0.003682
0.003718 0.003718 0.003718
0.003755 0.003755 0.003755
0.003792 0.003792 0.003792
0.003829 0.003829 0.003829
0.003866 0.003866 0.003866
0.003903 0.003903 0.003903
0.003941 0.003941 0.003941
0.003978 0.003978 0.003978
0.004016 0.004016 0.004016
0.004054 0.004054 0.004054
0.004092 0.004092 0.004092
0.004130 0.004130 0.004130
0.004169 0.004169 0.004169
0.004207 0.004207 0.004207
0.004246 0.004246 0.004246
0.004285 0.004285 0.004285
0.004324 0.004324 0.004324
0.004363 0.004363 0.004363
0.004402 0.004402 0.004402
0.004442 0.004442 0.004442
0.004482 0.004482 0.004482
0.004521 0.004521 0.004521
0.004561 0.004561 0.004561
0.004602 0.004602 0.004602
0.004642 0.004642 0.004642
0.004682 0.004682 0.004682
0.004723 0.004723 0.004723
0.004764 0.004764 0.004764
0.004805 0.004805 0.004805
0.004846 0.004846 0.004846
0.004887 0.004887 0.004887
0.004928 0.004928 0.004928
0.004970 0.004970 0.004970
0.005011 0.005011 0.005011
0.005053 0.005053 0.005053
0.005095 0.005095 0.005095
0.005137 0.005137 0.005137
0.005180 0.005180 0.005180
0.005222 0.005222 0.005222
0.005265 0.005265 0.005265
0.005308 0.005308 0.005308
0.005350 0.005350 0.005350
0.005394 0.005394 0.005394
0.005437 0.005437 0.005437
0.005480 0.005480 0.005480
0.005524 0.005524 0.005524
0.005567 0.005567 0.005567
0.005611 0.005611 0.005611
0.005655 0.005655 0.005655
0.005699 0.005699 0.005699
0.005744 0.005744 0.005744
0.005788 0.005788 0.005788
0.005833 0.005833 0.005833
0.005877 0.005877 0.005877
0.005922 0.005922 0.005922
0.005967 0.005967 0.005967
0.006013 0.006013 0.006013
0.006058 0.006058 0.006058
0.006103 0.006103 0.006103
0.006149 0.006149 0.006149
0.006195 0.006195 0.006195
0.006241 0.006241 0.006241
0.006287 0.006287 0.006287
0.006333 0.006333 0.006333
0.006380 0.006380 0.006380
0.006426 0.006426 0.006426
0.006473 0.006473 0.006473
0.006520 0.006520 0.006520
0.006567 0.006567 0.006567
0.006614 0.006614 0.006614
0.006661 0.006661 0.006661
0.006709 0.006709 0.006709
0.006756 0.006756 0.006756
0.006804 0.006804 0.006804
0.006852 0.006852 0.006852
0.006900 0.006900 0.006900
0.006948 0.006948 0.006948
0.006997 0.006997 0.006997
0.007045 0.007045 0.007045
0.007094 0.007094 0.007094
0.007143 0.007143 0.007143
0.007192 0.007192 0.007192
0.007241 0.007241 0.007241
0.007290 0.007290 0.007290
0.007339 0.007339 0.007339
0.007389 0.007389 0.007389
0.007439 0.007439 0.007439
0.007489 0.007489 0.007489
0.007539 0.007539 0.007539
0.007589 0.007589 0.007589
0.007639 0.007639 0.007639
0.007689 0.007689 0.007689
0.007740 0.007740 0.007740
0.007791 0.007791 0.007791
0.007842 0.007842 0.007842
0.007893 0.007893 0.007893
0.007944 0.007944 0.007944
0.007995 0.007995 0.007995
0.008047 0.008047 0.008047
0.008098 0.008098 0.008098
0.008150 0.008150 0.008150
0.008202 0.008202 0.008202
0.008254 0.008254 0.008254
0.008306 0.008306 0.008306
0.008359 0.008359 0.008359
0.008411 0.008411 0.008411
0.008464 0.008464 0.008464
0.008516 0.008516 0.008516
0.008569 0.008569 0.008569
0.008622 0.008622 0.008622
0.008676 0.008676 0.008676
0.008729 0.008729 0.008729
0.008783 0.008783 0.008783
0.008836 0.008836 0.008836
0.008890 0.008890 0.008890
0.008944 0.008944 0.008944
0.008998 0.008998 0.008998
0.009052 0.009052 0.009052
0.009107 0.009107 0.009107
0.009161 0.009161 0.009161
0.009216 0.009216 0.009216
0.009271 0.009271 0.009271
0.009326 0.009326 0.009326
0.009381 0.009381 0.009381
0.009436 0.009436 0.009436
0.009491 0.009491 0.009491
0.009547 0.009547 0.009547
0.009603 0.009603 0.009603
0.009659 0.009659 0.009659
0.009715 0.009715 0.009715
0.009771 0.009771 0.009771
0.009827 0.009827 0.009827
0.009883 0.009883 0.009883
0.009940 0.009940 0.009940
0.009997 0.009997 0.009997
0.010053 0.010053 0.010053
0.010110 0.010110 0.010110
0.010167 0.010167 0.010167
0.010225 0.010225 0.010225
0.010282 0.010282 0.010282
0.010340 0.010340 0.010340
0.010397 0.010397 0.010397
0.010455 0.010455 0.010455
0.010513 0.010513 0.010513
0.010571 0.010571 0.010571
0.010630 0.010630 0.010630
0.010688 0.010688 0.010688
0.010747 0.010747 0.010747
0.010805 0.010805 0.010805
0.010864 0.010864 0.010864
0.010923 0.010923 0.010923
0.010982 0.010982 0.010982
0.011041 0.011041 0.011041
0.011101 0.011101 0.011101
0.011160 0.011160 0.011160
0.011220 0.011220 0.011220
0.011280 0.011280 0.011280
0.011340 0.011340 0.011340
0.011400 0.011400 0.011400
0.011460 0.011460 0.011460
0.011521 0.011521 0.011521
0.011581 0.011581 0.011581
0.011642 0.011642 0.011642
0.011703 0.011703 0.011703
0.011763 0.011763 0.011763
0.011825 0.011825 0.011825
0.011886 0.011886 0.011886
0.011947 0.011947 0.011947
0.012009 0.012009 0.012009
0.012070 0.012070 0.012070
0.012132 0.012132 0.012132
0.012194 0.012194 0.012194
0.012256 0.012256 0.012256
0.012318 0.012318 0.012318
0.012381 0.012381 0.012381
0.012443 0.012443 0.012443
0.012506 0.012506 0.012506
0.012569 0.012569 0.012569
0.012632 0.012632 0.012632
0.012695 0.012695 0.012695
0.012758 0.012758 0.012758
0.012821 0.012821 0.012821
0.012885 0.012885 0.012885
0.012948 0.012948 0.012948
0.013012 0.013012 0.013012
0.013076 0.013076 0.013076
0.013140 0.013140 0.013140
0.013204 0.013204 0.013204
0.013268 0.013268 0.013268
0.013333 0.013333 0.013333
0.013397 0.013397 0.013397
0.013462 0.013462 0.013462
0.013527 0.013527 0.013527
0.013592 0.013592 0.013592
0.013657 0.013657 0.013657
0.013722 0.013722 0.013722
0.013788 0.013788 0.013788
0.013853 0.013853 0.013853
0.013919 0.013919 0.013919
0.013985 0.013985 0.013985
0.014051 0.014051 0.014051
0.014117 0.014117 0.014117
0.014183 0.014183 0.014183
0.014250 0.014250 0.014250
0.014316 0.014316 0.014316
0.014383 0.014383 0.014383
0.014449 0.014449 0.014449
0.014516 0.014516 0.014516
0.014583 0.014583 0.014583
0.014651 0.014651 0.014651
0.014718 0.014718 0.014718
0.014786 0.014786 0.014786
0.014853 0.014853 0.014853
0.014921 0.014921 0.014921
0.014989 0.014989 0.014989
0.015057 0.015057 0.015057
0.015125 0.015125 0.015125
0.015193 0.015193 0.015193
0.015262 0.015262 0.015262
0.015330 0.015330 0.015330
0.015399 0.015399 0.015399
0.015468 0.015468 0.015468
0.015537 0.015537 0.015537
0.015606 0.015606 0.015606
0.015675 0.015675 0.015675
0.015745 0.015745 0.015745
0.015814 0.015814 0.015814
0.015884 0.015884 0.015884
0.015954 0.015954 0.015954
0.016024 0.016024 0.016024
0.016094 0.016094 0.016094
0.016164 0.016164 0.016164
0.016234 0.016234 0.016234
0.016305 0.016305 0.016305
0.016375 0.016375 0.016375
0.016446 0.016446 0.016446
0.016517 0.016517 0.016517
0.016588 0.016588 0.016588
0.016659 0.016659 0.016659
0.016730 0.016730 0.016730
0.016802 0.016802 0.016802
0.016873 0.016873 0.016873
0.016945 0.016945 0.016945
0.017017 0.017017 0.017017
0.017089 0.017089 0.017089
0.017161 0.017161 0.017161
0.017233 0.017233 0.017233
0.017306 0.017306 0.017306
0.017378 0.017378 0.017378
0.017451 0.017451 0.017451
0.017524 0.017524 0.017524
0.017596 0.017596 0.017596
0.017669 0.017669 0.017669
0.017743 0.017743 0.017743
0.017816 0.017816 0.017816
0.017889 0.017889 0.017889
0.017963 0.017963 0.017963
0.018037 0.018037 0.018037
0.018111 0.018111 0.018111
0.018185 0.018185 0.018185
0.018259 0.018259 0.018259
0.018333 0.018333 0.018333
0.018407 0.018407 0.018407
0.018482 0.018482 0.018482
0.018557 0.018557 0.018557
0.018631 0.018631 0.018631
0.018706 0.018706 0.018706
0.018781 0.018781 0.018781
0.018856 0.018856 0.018856
0.018932 0.018932 0.018932
0.019007 0.019007 0.019007
0.019083 0.019083 0.019083
0.019159 0.019159 0.019159
0.019234 0.019234 0.019234
0.019310 0.019310 0.019310
0.019387 0.019387 0.019387
0.019463 0.019463 0.019463
0.019539 0.019539 0.019539
0.019616 0.019616 0.019616
0.019692 0.019692 0.019692
0.019769 0.019769 0.019769
0.019846 0.019846 0.019846
0.019923 0.019923 0.019923
0.020000 0.020000 0.020000
0.020078 0.020078 0.020078
0.020155 0.020155 0.020155
0.020233 0.020233 0.020233
0.020310 0.020310 0.020310
0.020388 0.020388 0.020388
0.020466 0.020466 0.020466
0.020544 0.020544 0.020544
0.020623 0.020623 0.020623
0.020701 0.020701 0.020701
0.020780 0.020780 0.020780
0.020858 0.020858 0.020858
0.020937 0.020937 0.020937
0.021016 0.021016 0.021016
0.021095 0.021095 0.021095
0.021174 0.021174 0.021174
0.021253 0.021253 0.021253
0.021333 0.021333 0.021333
0.021412 0.021412 0.021412
0.021492 0.021492 0.021492
0.021572 0.021572 0.021572
0.021652 0.021652 0.021652
0.021732 0.021732 0.021732
0.021812 0.021812 0.021812
0.021893 0.021893 0.021893
0.021973 0.021973 0.021973
0.022054 0.022054 0.022054
0.022134 0.022134 0.022134
0.022215 0.022215 0.022215
0.022296 0.022296 0.022296
0.022377 0.022377 0.022377
0.022459 0.022459 0.022459
0.022540 0.022540 0.022540
0.022622 0.022622 0.022622
0.022703 0.022703 0.022703
0.022785 0.022785 0.022785
0.022867 0.022867 0.022867
0.022949 0.022949 0.022949
0.023031 0.023031 0.023031
0.023114 0.023114 0.023114
0.023196 0.023196 0.023196
0.023279 0.023279 0.023279
0.023361 0.023361 0.023361
0.023444 0.023444 0.023444
0.023527 0.023527 0.023527
0.023610 0.023610 0.023610
0.023693 0.023693 0.023693
0.023777 0.023777 0.023777
0.023860 0.023860 0.023860
0.023944 0.023944 0.023944
0.024028 0.024028 0.024028
0.024112 0.024112 0.024112
0.024196 0.024196 0.024196
0.024280 0.024280 0.024280
0.024364 0.024364 0.024364
0.024448 0.024448 0.024448
0.024533 0.024533 0.024533
0.024618 0.024618 0.024618
0.024702 0.024702 0.024702
0.024787 0.024787 0.024787
0.024872 0.024872 0.024872
0.024958 0.024958 0.024958
0.025043 0.025043 0.025043
0.025128 0.025128 0.025128
0.025214 0.025214 0.025214
0.025300 0.025300 0.025300
0.025385 0.025385 0.025385
0.025471 0.025471 0.025471
0.025557 0.025557 0.025557
0.025644 0.025644 0.025644
0.025730 0.025730 0.025730
0.025816 0.025816 0.025816
0.025903 0.025903 0.025903
0.025990 0.025990 0.025990
0.026077 0.026077 0.026077
0.026164 0.026164 0.026164
0.026251 0.026251 0.026251
0.026338 0.026338 0.026338
0.026425 0.026425 0.026425
0.026513 0.026513 0.026513
0.026601 0.026601 0.026601
0.026688 0.026688 0.026688
0.026776 0.026776 0.026776
0.026864 0.026864 0.026864
0.026952 0.026952 0.026952
0.027041 0.027041 0.027041
0.027129 0.027129 0.027129
0.027218 0.027218 0.027218
0.027306 0.027306 0.027306
0.027395 0.027395 0.027395
0.027484 0.027484 0.027484
0.027573 0.027573 0.027573
0.027662 0.027662 0.027662
0.027751 0.027751 0.027751
0.027841 0.027841 0.027841
0.027930 0.027930 0.027930
0.028020 0.028020 0.028020
0.028110 0.028110 0.028110
0.028200 0.028200 0.028200
0.028290 0.028290 0.028290
0.028380 0.028380 0.028380
0.028470 0.028470 0.028470
0.028561 0.028561 0.028561
0.028651 0.028651 0.028651
0.028742 0.028742 0.028742
0.028833 0.028833 0.028833
0.028924 0.028924 0.028924
0.029015 0.029015 0.029015
0.029106 0.029106 0.029106
0.029197 0.029197 0.029197
0.029289 0.029289 0.029289
0.029381 0.029381 0.029381
0.029472 0.029472 0.029472
0.029564 0.029564 0.029564
0.029656 0.029656 0.029656
0.029748 0.029748 0.029748
0.029840 0.029840 0.029840
0.029933 0.029933 0.029933
0.030025 0.030025 0.030025
0.030118 0.030118 0.030118
0.030211 0.030211 0.030211
0.030303 0.030303 0.030303
0.030396 0.030396 0.030396
0.030490 0.030490 0.030490
0.030583 0.030583 0.030583
0.030676 0.030676 0.030676
0.030770 0.030770 0.030770
0.030863 0.030863 0.030863
0.030957 0.030957 0.030957
0.031051 0.031051 0.031051
0.031145 0.031145 0.031145
0.031239 0.031239 0.031239
0.031333 0.031333 0.031333
0.031428 0.031428 0.031428
0.031522 0.031522 0.031522
0.031617 0.031617 0.031617
0.031711 0.031711 0.031711
0.031806 0.031806 0.031806
0.031901 0.031901 0.031901
0.031997 0.031997 0.031997
0.032092 0.032092 0.032092
0.032187 0.032187 0.032187
0.032283 0.032283 0.032283
0.032378 0.032378 0.032378
0.032474 0.032474 0.032474
0.032570 0.032570 0.032570
0.032666 0.032666 0.032666
0.032762 0.032762 0.032762
0.032858 0.032858 0.032858
0.032955 0.032955 0.032955
0.033051 0.033051 0.033051
0.033148 0.033148 0.033148
0.033245 0.033245 0.033245
0.033342 0.033342 0.033342
0.033439 0.033439 0.033439
0.033536 0.033536 0.033536
0.033633 0.033633 0.033633
0.033730 0.033730 0.033730
0.033828 0.033828 0.033828
0.033926 0.033926 0.033926
0.034023 0.034023 0.034023
0.034121 0.034121 0.034121
0.034219 0.034219 0.034219
0.034317 0.034317 0.034317
0.034416 0.034416 0.034416
0.034514 0.034514 0.034514
0.034613 0.034613 0.034613
0.034711 0.034711 0.034711
0.034810 0.034810 0.034810
0.034909 0.034909 0.034909
0.035008 0.035008 0.035008
0.035107 0.035107 0.035107
0.035206 0.035206 0.035206
0.035306 0.035306 0.035306
0.035405 0.035405 0.035405
0.035505 0.035505 0.035505
0.035605 0.035605 0.035605
0.035704 0.035704 0.035704
0.035804 0.035804 0.035804
0.035905 0.035905 0.035905
0.036005 0.036005 0.036005
0.036105 0.036105 0.036105
0.036206 0.036206 0.036206
0.036306 0.036306 0.036306
0.036407 0.036407 0.036407
0.036508 0.036508 0.036508
0.036609 0.036609 0.036609
0.036710 0.036710 0.036710
0.036811 0.036811 0.036811
0.036913 0.036913 0.036913
0.037014 0.037014 0.037014
0.037116 0.037116 0.037116
0.037218 0.037218 0.037218
0.037320 0.037320 0.037320
0.037422 0.037422 0.037422
0.037524 0.037524 0.037524
0.037626 0.037626 0.037626
0.037728 0.037728 0.037728
0.037831 0.037831 0.037831
0.037933 0.037933 0.037933
0.038036 0.038036 0.038036
0.038139 0.038139 0.038139
0.038242 0.038242 0.038242
0.038345 0.038345 0.038345
0.038448 0.038448 0.038448
0.038552 0.038552 0.038552
0.038655 0.038655 0.038655
0.038759 0.038759 0.038759
0.038863 0.038863 0.038863
0.038966 0.038966 0.038966
0.039070 0.039070 0.039070
0.039174 0.039174 0.039174
0.039279 0.039279 0.039279
0.039383 0.039383 0.039383
0.039487 0.039487 0.039487
0.039592 0.039592 0.039592
0.039697 0.039697 0.039697
0.039802 0.039802 0.039802
0.039907 0.039907 0.039907
0.040012 0.040012 0.040012
0.040117 0.040117 0.040117
0.040222 0.040222 0.040222
0.040328 0.040328 0.040328
0.040433 0.040433 0.040433
0.040539 0.040539 0.040539
0.040645 0.040645 0.040645
0.040751 0.040751 0.040751
0.040857 0.040857 0.040857
0.040963 0.040963 0.040963
0.041069 0.041069 0.041069
0.041176 0.041176 0.041176
0.041282 0.041282 0.041282
0.041389 0.041389 0.041389
0.041496 0.041496 0.041496
0.041603 0.041603 0.041603
0.041710 0.041710 0.041710
0.041817 0.041817 0.041817
0.041924 0.041924 0.041924
0.042031 0.042031 0.042031
0.042139 0.042139 0.042139
0.042247 0.042247 0.042247
0.042354 0.042354 0.042354
0.042462 0.042462 0.042462
0.042570 0.042570 0.042570
0.042678 0.042678 0.042678
0.042787 0.042787 0.042787
0.042895 0.042895 0.042895
0.043004 0.043004 0.043004
0.043112 0.043112 0.043112
0.043221 0.043221 0.043221
0.043330 0.043330 0.043330
0.043439 0.043439 0.043439
0.043548 0.043548 0.043548
0.043657 0.043657 0.043657
0.043766 0.043766 0.043766
0.043876 0.043876 0.043876
0.043986 0.043986 0.043986
0.044095 0.044095 0.044095
0.044205 0.044205 0.044205
0.044315 0.044315 0.044315
0.044425 0.044425 0.044425
0.044535 0.044535 0.044535
0.044646 0.044646 0.044646
0.044756 0.044756 0.044756
0.044867 0.044867 0.044867
0.044977 0.044977 0.044977
0.045088 0.045088 0.045088
0.045199 0.045199 0.045199
0.045310 0.045310 0.045310
0.045421 0.045421 0.045421
0.045533 0.045533 0.045533
0.045644 0.045644 0.045644
0.045756 0.045756 0.045756
0.045867 0.045867 0.045867
0.045979 0.045979 0.045979
0.046091 0.046091 0.046091
0.046203 0.046203 0.046203
0.046315 0.046315 0.046315
0.046427 0.046427 0.046427
0.046540 0.046540 0.046540
0.046652 0.046652 0.046652
0.046765 0.046765 0.046765
0.046878 0.046878 0.046878
0.046991 0.046991 0.046991
0.047104 0.047104 0.047104
0.047217 0.047217 0.047217
0.047330 0.047330 0.047330
0.047443 0.047443 0.047443
0.047557 0.047557 0.047557
0.047670 0.047670 0.047670
0.047784 0.047784 0.047784
0.047898 0.047898 0.047898
0.048012 0.048012 0.048012
0.048126 0.048126 0.048126
0.048240 0.048240 0.048240
0.048354 0.048354 0.048354
0.048469 0.048469 0.048469
0.048583 0.048583 0.048583
0.048698 0.048698 0.048698
0.048813 0.048813 0.048813
0.048928 0.048928 0.048928
0.049043 0.049043 0.049043
0.049158 0.049158 0.049158
0.049273 0.049273 0.049273
0.049389 0.049389 0.049389
0.049504 0.049504 0.049504
0.049620 0.049620 0.049620
0.049735 0.049735 0.049735
0.049851 0.049851 0.049851
0.049967 0.049967 0.049967
0.050083 0.050083 0.050083
0.050200 0.050200 0.050200
0.050316 0.050316 0.050316
0.050432 0.050432 0.050432
0.050549 0.050549 0.050549
0.050666 0.050666 0.050666
0.050783 0.050783 0.050783
0.050900 0.050900 0.050900
0.051017 0.051017 0.051017
0.051134 0.051134 0.051134
0.051251 0.051251 0.051251
0.051369 0.051369 0.051369
0.051486 0.051486 0.051486
0.051604 0.051604 0.051604
0.051722 0.051722 0.051722
0.051839 0.051839 0.051839
0.051958 0.051958 0.051958
0.052076 0.052076 0.052076
0.052194 0.052194 0.052194
0.052312 0.052312 0.052312
0.052431 0.052431 0.052431
0.052549 0.052549 0.052549
0.052668 0.052668 0.052668
0.052787 0.052787 0.052787
0.052906 0.052906 0.052906
0.053025 0.053025 0.053025
0.053144 0.053144 0.053144
0.053264 0.053264 0.053264
0.053383 0.053383 0.053383
0.053503 0.053503 0.053503
0.053622 0.053622 0.053622
0.053742 0.053742 0.053742
0.053862 0.053862 0.053862
0.053982 0.053982 0.053982
0.054102 0.054102 0.054102
0.054223 0.054223 0.054223
0.054343 0.054343 0.054343
0.054464 0.054464 0.054464
0.054584 0.054584 0.054584
0.054705 0.054705 0.054705
0.054826 0.054826 0.054826
0.054947 0.054947 0.054947
0.055068 0.055068 0.055068
0.055189 0.055189 0.055189
0.055311 0.055311 0.055311
0.055432 0.055432 0.055432
0.055554 0.055554 0.055554
0.055675 0.055675 0.055675
0.055797 0.055797 0.055797
0.055919 0.055919 0.055919
0.056041 0.056041 0.056041
0.056163 0.056163 0.056163
0.056286 0.056286 0.056286
0.056408 0.056408 0.056408
0.056531 0.056531 0.056531
0.056653 0.056653 0.056653
0.056776 0.056776 0.056776
0.056899 0.056899 0.056899
0.057022 0.057022 0.057022
0.057145 0.057145 0.057145
0.057268 0.057268 0.057268
0.057392 0.057392 0.057392
0.057515 0.057515 0.057515
0.057639 0.057639 0.057639
0.057762 0.057762 0.057762
0.057886 0.057886 0.057886
0.058010 0.058010 0.058010
0.058134 0.058134 0.058134
0.058259 0.058259 0.058259
0.058383 0.058383 0.058383
0.058507 0.058507 0.058507
0.058632 0.058632 0.058632
0.058756 0.058756 0.058756
0.058881 0.058881 0.058881
0.059006 0.059006 0.059006
0.059131 0.059131 0.059131
0.059256 0.059256 0.059256
0.059382 0.059382 0.059382
0.059507 0.059507 0.059507
0.059632 0.059632 0.059632
0.059758 0.059758 0.059758
0.059884 0.059884 0.059884
0.060010 0.060010 0.060010
0.060135 0.060135 0.060135
0.060262 0.060262 0.060262
0.060388 0.060388 0.060388
0.060514 0.060514 0.060514
0.060640 0.060640 0.060640
0.060767 0.060767 0.060767
0.060894 0.060894 0.060894
0.061020 0.061020 0.061020
0.061147 0.061147 0.061147
0.061274 0.061274 0.061274
0.061401 0.061401 0.061401
0.061529 0.061529 0.061529
0.061656 0.061656 0.061656
0.061784 0.061784 0.061784
0.061911 0.061911 0.061911
0.062039 0.062039 0.062039
0.062167 0.062167 0.062167
0.062295 0.062295 0.062295
0.062423 0.062423 0.062423
0.062551 0.062551 0.062551
0.062679 0.062679 0.062679
0.062808 0.062808 0.062808
0.062936 0.062936 0.062936
0.063065 0.063065 0.063065
0.063193 0.063193 0.063193
