Shapers/Gamma_2.2.cube
# Gamma_2.2 Shaper LUT
# Copyright (C) 2022 Jan Van Coppenolle

LUT_1D_SIZE 4096

DOMAIN_MIN 0.0 0.0 0.0
DOMAIN_MAX 1.0 1.0 1.0

0.000000 0.000000 0.000000
0.000000 0.000000 0.000000
0.000000 0.000000 0.000000
0.000000 0.000000 0.000000
0.000000 0.000000 0.000000
0.000000 0.000000 0.000000
0.000001 0.000001 0.000001
0.000001 0.000001 0.000001
0.000001 0.000001 0.000001
0.000001 0.000001 0.000001
0.000002 0.000002 0.000002
0.000002 0.000002 0.000002
0.000003 0.000003 0.000003
0.000003 0.000003 0.000003
0.000004 0.000004 0.000004
0.000004 0.000004 0.000004
0.000005 0.000005 0.000005
0.000006 0.000006 0.000006
0.000007 0.000007 0.000007
0.000007 0.000007 0.000007
0.000008 0.000008 0.000008
0.000009 0.000009 0.000009
0.000010 0.000010 0.000010
0.000011 0.000011 0.000011
0.000012 0.000012 0.000012
0.000013 0.000013 0.000013
0.000015 0.000015 0.000015
0.000016 0.000016 0.000016
0.000017 0.000017 0.000017
0.000019 0.000019 0.000019
0.000020 0.000020 0.000020
0.000022 0.000022 0.000022
0.000023 0.000023 0.000023
0.000025 0.000025 0.000025
0.000026 0.000026 0.000026
0.000028 0.000028 0.000028
0.000030 0.000030 0.000030
0.000032 0.000032 0.000032
0.000034 0.000034 0.000034
0.000036 0.000036 0.000036
0.000038 0.000038 0.000038
0.000040 0.000040 0.000040
0.000042 0.000042 0.000042
0.000044 0.000044 0.000044
0.000047 0.000047 0.000047
0.000049 0.000049 0.000049
0.000051 0.000051 0.000051
0.000054 0.000054 0.000054
0.000056 0.000056 0.000056
0.000059 0.000059 0.000059
0.000062 0.000062 0.000062
0.000065 0.000065 0.000065
0.000067 0.000067 0.000067
0.000070 0.000070 0.000070
0.000073 0.000073 0.000073
0.000076 0.000076 0.000076
0.000079 0.000079 0.000079
0.000082 0.000082 0.000082
0.000086 0.000086 0.000086
0.000089 0.000089 0.000089
0.000092 0.000092 0.000092
0.000096 0.000096 0.000096
0.000099 0.000099 0.000099
0.000103 0.000103 0.000103
0.000106 0.000106 0.000106
0.000110 0.000110 0.000110
0.000114 0.000114 0.000114
0.000118 0.000118 0.000118
0.000121 0.000121 0.000121
0.000125 0.000125 0.000125
0.000129 0.000129 0.000129
0.000134 0.000134 0.000134
0.000138 0.000138 0.000138
0.000142 0.000142 0.000142
0.000146 0.000146 0.000146
0.000151 0.000151 0.000151
0.000155 0.000155 0.000155
0.000160 0.000160 0.000160
0.000164 0.000164 0.000164
0.000169 0.000169 0.000169
0.000174 0.000174 0.000174
0.000179 0.000179 0.000179
0.000183 0.000183 0.000183
0.000188 0.000188 0.000188
0.000193 0.000193 0.000193
0.000199 0.000199 0.000199
0.000204 0.000204 0.000204
0.000209 0.000209 0.000209
0.000214 0.000214 0.000214
0.000220 0.000220 0.000220
0.000225 0.000225 0.000225
0.000231 0.000231 0.000231
0.000236 0.000236 0.000236
0.000242 0.000242 0.000242
0.000248 0.000248 0.000248
0.000254 0.000254 0.000254
0.000259 0.000259 0.000259
0.000265 0.000265 0.000265
0.000271 0.000271 0.000271
0.000278 0.000278 0.000278
0.000284 0.000284 0.000284
0.000290 0.000290 0.000290
0.000296 0.000296 0.000296
0.000303 0.000303 0.000303
0.000309 0.000309 0.000309
0.000316 0.000316 0.000316
0.000323 0.000323 0.000323
0.000329 0.000329 0.000329
0.000336 0.000336 0.000336
0.000343 0.000343 0.000343
0.000350 0.000350 0.000350
0.000357 0.000357 0.000357
0.000364 0.000364 0.000364
0.000371 0.000371 0.000371
0.000379 0.000379 0.000379
0.000386 0.000386 0.000386
0.000393 0.000393 0.000393
0.000401 0.000401 0.000401
0.000408 0.000408 0.000408
0.000416 0.000416 0.000416
0.000424 0.000424 0.000424
0.000432 0.000432 0.000432
0.000440 0.000440 0.000440
0.000448 0.000448 0.000448
0.000456 0.000456 0.000456
0.000464 0.000464 0.000464
0.000472 0.000472 0.000472
0.000480 0.000480 0.000480
0.000489 0.000489 0.000489
0.000497 0.000497 0.000497
0.000505 0.000505 0.000505
0.000514 0.000514 0.000514
0.000523 0.000523 0.000523
0.000532 0.000532 0.000532
0.000540 0.000540 0.000540
0.000549 0.000549 0.000549
0.000558 0.000558 0.000558
0.000567 0.000567 0.000567
0.000576 0.000576 0.000576
0.000586 0.000586 0.000586
0.000595 0.000595 0.000595
0.000604 0.000604 0.000604
0.000614 0.000614 0.000614
0.000623 0.000623 0.000623
0.000633 0.000633 0.000633
0.000643 0.000643 0.000643
0.000653 0.000653 0.000653
0.000662 0.000662 0.000662
0.000672 0.000672 0.000672
0.000682 0.000682 0.000682
0.000693 0.000693 0.000693
0.000703 0.000703 0.000703
0.000713 0.000713 0.000713
0.000723 0.000723 0.000723
0.000734 0.000734 0.000734
0.000744 0.000744 0.000744
0.000755 0.000755 0.000755
0.000766 0.000766 0.000766
0.000776 0.000776 0.000776
0.000787 0.000787 0.000787
0.000798 0.000798 0.000798
0.000809 0.000809 0.000809
0.000820 0.000820 0.000820
0.000831 0.000831 0.000831
0.000843 0.000843 0.000843
0.000854 0.000854 0.000854
0.000866 0.000866 0.000866
0.000877 0.000877 0.000877
0.000889 0.000889 0.000889
0.000900 0.000900 0.000900
0.000912 0.000912 0.000912
0.000924 0.000924 0.000924
0.000936 0.000936 0.000936
0.000948 0.000948 0.000948
0.000960 0.000960 0.000960
0.000972 0.000972 0.000972
0.000984 0.000984 0.000984
0.000997 0.000997 0.000997
0.001009 0.001009 0.001009
0.001022 0.001022 0.001022
0.001034 0.001034 0.001034
0.001047 0.001047 0.001047
0.001060 0.001060 0.001060
0.001073 0.001073 0.001073
0.001086 0.001086 0.001086
0.001099 0.001099 0.001099
0.001112 0.001112 0.001112
0.001125 0.001125 0.001125
0.001138 0.001138 0.001138
0.001151 0.001151 0.001151
0.001165 0.001165 0.001165
0.001178 0.001178 0.001178
0.001192 0.001192 0.001192
0.001206 0.001206 0.001206
0.001220 0.001220 0.001220
0.001233 0.001233 0.001233
0.001247 0.001247 0.001247
0.001261 0.001261 0.001261
0.001276 0.001276 0.001276
0.001290 0.001290 0.001290
0.001304 0.001304 0.001304
0.001318 0.001318 0.001318
0.001333 0.001333 0.001333
0.001348 0.001348 0.001348
0.001362 0.001362 0.001362
0.001377 0.001377 0.001377
0.001392 0.001392 0.001392
0.001407 0.001407 0.001407
0.001422 0.001422 0.001422
0.001437 0.001437 0.001437
0.001452 0.001452 0.001452
0.001467 0.001467 0.001467
0.001482 0.001482 0.001482
0.001498 0.001498 0.001498
0.001513 0.001513 0.001513
0.001529 0.001529 0.001529
0.001545 0.001545 0.001545
0.001560 0.001560 0.001560
0.001576 0.001576 0.001576
0.001592 0.001592 0.001592
0.001608 0.001608 0.001608
0.001624 0.001624 0.001624
0.001641 0.001641 0.001641
0.001657 0.001657 0.001657
0.001673 0.001673 0.001673
0.001690 0.001690 0.001690
0.001706 0.001706 0.001706
0.001723 0.001723 0.001723
0.001740 0.001740 0.001740
0.001757 0.001757 0.001757
0.001774 0.001774 0.001774
0.001791 0.001791 0.001791
0.001808 0.001808 0.001808
0.001825 0.001825 0.001825
0.001842 0.001842 0.001842
0.001859 0.001859 0.001859
0.001877 0.001877 0.001877
0.001894 0.001894 0.001894
0.001912 0.001912 0.001912
0.001930 0.001930 0.001930
0.001948 0.001948 0.001948
0.001966 0.001966 0.001966
0.001984 0.001984 0.001984
0.002002 0.002002 0.002002
0.002020 0.002020 0.002020
0.002038 0.002038 0.002038
0.002056 0.002056 0.002056
0.002075 0.002075 0.002075
0.002093 0.002093 0.002093
0.002112 0.002112 0.002112
0.002131 0.002131 0.002131
0.002149 0.002149 0.002149
0.002168 0.002168 0.002168
0.002187 0.002187 0.002187
0.002206 0.002206 0.002206
0.002226 0.002226 0.002226
0.002245 0.002245 0.002245
0.002264 0.002264 0.002264
0.002284 0.002284 0.002284
0.002303 0.002303 0.002303
0.002323 0.002323 0.002323
0.002342 0.002342 0.002342
0.002362 0.002362 0.002362
0.002382 0.002382 0.002382
0.002402 0.002402 0.002402
0.002422 0.002422 0.002422
0.002442 0.002442 0.002442
0.002462 0.002462 0.002462
0.002483 0.002483 0.002483
0.002503 0.002503 0.002503
0.002524 0.002524 0.002524
0.002544 0.002544 0.002544
0.002565 0.002565 0.002565
0.002586 0.002586 0.002586
0.002607 0.002607 0.002607
0.002628 0.002628 0.002628
0.002649 0.002649 0.002649
0.002670 0.002670 0.002670
0.002691 0.002691 0.002691
0.002713 0.002713 0.002713
0.002734 0.002734 0.002734
0.002755 0.002755 0.002755
0.002777 0.002777 0.002777
0.002799 0.002799 0.002799
0.002821 0.002821 0.002821
0.002842 0.002842 0.002842
0.002864 0.002864 0.002864
0.002887 0.002887 0.002887
0.002909 0.002909 0.002909
0.002931 0.002931 0.002931
0.002953 0.002953 0.002953
0.002976 0.002976 0.002976
0.002998 0.002998 0.002998
0.003021 0.003021 0.003021
0.003044 0.003044 0.003044
0.003067 0.003067 0.003067
0.003089 0.003089 0.003089
0.003112 0.003112 0.003112
0.003136 0.003136 0.003136
0.003159 0.003159 0.003159
0.003182 0.003182 0.003182
0.003205 0.003205 0.003205
0.003229 0.003229 0.003229
0.003252 0.003252 0.003252
0.003276 0.003276 0.003276
0.003300 0.003300 0.003300
0.003324 0.003324 0.003324
0.003348 0.003348 0.003348
0.003372 0.003372 0.003372
0.003396 0.003396 0.003396
0.003420 0.003420 0.003420
0.003444 0.003444 0.003444
0.003469 0.003469 0.003469
0.003493 0.003493 0.003493
0.003518 0.003518 0.003518
0.003543 0.003543 0.003543
0.003567 0.003567 0.003567
0.003592 0.003592 0.003592
0.003617 0.003617 0.003617
0.003642 0.003642 0.003642
0.003668 0.003668 0.003668
0.003693 0.003693 0.003693
0.003718 0.003718 0.003718
0.003744 0.003744 0.003744
0.003769 0.003769 0.003769
0.003795 0.003795 0.003795
0.003820 0.003820 0.003820
0.003846 0.003846 0.003846
0.003872 0.003872 0.003872
0.003898 0.003898 0.003898
0.003924 0.003924 0.003924
0.003951 0.003951 0.003951
0.003977 0.003977 0.003977
0.004003 0.004003 0.004003
0.004030 0.004030 0.004030
0.004056 0.004056 0.004056
0.004083 0.004083 0.004083
0.004110 0.004110 0.004110
0.004137 0.004137 0.004137
0.004164 0.004164 0.004164
0.004191 0.004191 0.004191
0.004218 0.004218 0.004218
0.004245 0.004245 0.004245
0.004273 0.004273 0.004273
0.004300 0.004300 0.004300
0.004328 0.004328 0.004328
0.004355 0.004355 0.004355
0.004383 0.004383 0.004383
0.004411 0.004411 0.004411
0.004439 0.004439 0.004439
0.004467 0.004467 0.004467
0.004495 0.004495 0.004495
0.004523 0.004523 0.004523
0.004551 0.004551 0.004551
0.004580 0.004580 0.004580
0.004608 0.004608 0.004608
0.004637 0.004637 0.004637
0.004666 0.004666 0.004666
0.004694 0.004694 0.004694
0.004723 0.004723 0.004723
0.004752 0.004752 0.004752
0.004781 0.004781 0.004781
0.004811 0.004811 0.004811
0.004840 0.004840 0.004840
0.004869 0.004869 0.004869
0.004899 0.004899 0.004899
0.004928 0.004928 0.004928
0.004958 0.004958 0.004958
0.004988 0.004988 0.004988
0.005018 0.005018 0.005018
0.005048 0.005048 0.005048
0.005078 0.005078 0.005078
0.005108 0.005108 0.005108
0.005138 0.005138 0.005138
0.005168 0.005168 0.005168
0.005199 0.005199 0.005199
0.005229 0.005229 0.005229
0.005260 0.005260 0.005260
0.005291 0.005291 0.005291
0.005322 0.005322 0.005322
0.005353 0.005353 0.005353
0.005384 0.005384 0.005384
0.005415 0.005415 0.005415
0.005446 0.005446 0.005446
0.005477 0.005477 0.005477
0.005509 0.005509 0.005509
0.005540 0.005540 0.005540
0.005572 0.005572 0.005572
0.005604 0.005604 0.005604
0.005635 0.005635 0.005635
0.005667 0.005667 0.005667
0.005699 0.005699 0.005699
0.005732 0.005732 0.005732
0.005764 0.005764 0.005764
0.005796 0.005796 0.005796
0.005828 0.005828 0.005828
0.005861 0.005861 0.005861
0.005894 0.005894 0.005894
0.005926 0.005926 0.005926
0.005959 0.005959 0.005959
0.005992 0.005992 0.005992
0.006025 0.006025 0.006025
0.006058 0.006058 0.006058
0.006091 0.006091 0.006091
0.006125 0.006125 0.006125
0.006158 0.006158 0.006158
0.006192 0.006192 0.006192
0.006225 0.006225 0.006225
0.006259 0.006259 0.006259
0.006293 0.006293 0.006293
0.006327 0.006327 0.006327
0.006361 0.006361 0.006361
0.006395 0.006395 0.006395
0.006429 0.006429 0.006429
0.006463 0.006463 0.006463
0.006498 0.006498 0.006498
0.006532 0.006532 0.006532
0.006567 0.006567 0.006567
0.006601 0.006601 0.006601
0.006636 0.006636 0.006636
0.006671 0.006671 0.006671
0.006706 0.006706 0.006706
0.006741 0.006741 0.006741
0.006776 0.006776 0.006776
0.006812 0.006812 0.006812
0.006847 0.006847 0.006847
0.006882 0.006882 0.006882
0.006918 0.006918 0.006918
0.006954 0.006954 0.006954
0.006990 0.006990 0.006990
0.007025 0.007025 0.007025
0.007061 0.007061 0.007061
0.007098 0.007098 0.007098
0.007134 0.007134 0.007134
0.007170 0.007170 0.007170
0.007206 0.007206 0.007206
0.007243 0.007243 0.007243
0.007279 0.007279 0.007279
0.007316 0.007316 0.007316
0.007353 0.007353 0.007353
0.007390 0.007390 0.007390
0.007427 0.007427 0.007427
0.007464 0.007464 0.007464
0.007501 0.007501 0.007501
0.007538 0.007538 0.007538
0.007576 0.007576 0.007576
0.007613 0.007613 0.007613
0.007651 0.007651 0.007651
0.007689 0.007689 0.007689
0.007727 0.007727 0.007727
0.007764 0.007764 0.007764
0.007802 0.007802 0.007802
0.007841 0.007841 0.007841
0.007879 0.007879 0.007879
0.007917 0.007917 0.007917
0.007955 0.007955 0.007955
0.007994 0.007994 0.007994
0.008033 0.008033 0.008033
0.008071 0.008071 0.008071
0.008110 0.008110 0.008110
0.008149 0.008149 0.008149
0.008188 0.008188 0.008188
0.008227 0.008227 0.008227
0.008266 0.008266 0.008266
0.008306 0.008306 0.008306
0.008345 0.008345 0.008345
0.008385 0.008385 0.008385
0.008424 0.008424 0.008424
0.008464 0.008464 0.008464
0.008504 0.008504 0.008504
0.008544 0.008544 0.008544
0.008584 0.008584 0.008584
0.008624 0.008624 0.008624
0.008664 0.008664 0.008664
0.008705 0.008705 0.008705
0.008745 0.008745 0.008745
0.008786 0.008786 0.008786
0.008826 0.008826 0.008826
0.008867 0.008867 0.008867
0.008908 0.008908 0.008908
0.008949 0.008949 0.008949
0.008990 0.008990 0.008990
0.009031 0.009031 0.009031
0.009072 0.009072 0.009072
0.009114 0.009114 0.009114
0.009155 0.009155 0.009155
0.009197 0.009197 0.009197
0.009239 0.009239 0.009239
0.009280 0.009280 0.009280
0.009322 0.009322 0.009322
0.009364 0.009364 0.009364
0.009406 0.009406 0.009406
0.009449 0.009449 0.009449
0.009491 0.009491 0.009491
0.009533 0.009533 0.009533
0.009576 0.009576 0.009576
0.009618 0.009618 0.009618
0.009661 0.009661 0.009661
0.009704 0.009704 0.009704
0.009747 0.009747 0.009747
0.009790 0.009790 0.009790
0.009833 0.009833 0.009833
0.009876 0.009876 0.009876
0.009920 0.009920 0.009920
0.009963 0.009963 0.009963
0.010007 0.010007 0.010007
0.010050 0.010050 0.010050
0.010094 0.010094 0.010094
0.010138 0.010138 0.010138
0.010182 0.010182 0.010182
0.010226 0.010226 0.010226
0.010270 0.010270 0.010270
0.010314 0.010314 0.010314
0.010359 0.010359 0.010359
0.010403 0.010403 0.010403
0.010448 0.010448 0.010448
0.010492 0.010492 0.010492
0.010537 0.010537 0.010537
0.010582 0.010582 0.010582
0.010627 0.010627 0.010627
0.010672 0.010672 0.010672
0.010717 0.010717 0.010717
0.010763 0.010763 0.010763
0.010808 0.010808 0.010808
0.010854 0.010854 0.010854
0.010899 0.010899 0.010899
0.010945 0.010945 0.010945
0.010991 0.010991 0.010991
0.011037 0.011037 0.011037
0.011083 0.011083 0.011083
0.011129 0.011129 0.011129
0.011175 0.011175 0.011175
0.011221 0.011221 0.011221
0.011268 0.011268 0.011268
0.011314 0.011314 0.011314
0.011361 0.011361 0.011361
0.011408 0.011408 0.011408
0.011455 0.011455 0.011455
0.011502 0.011502 0.011502
0.011549 0.011549 0.011549
0.011596 0.011596 0.011596
0.011643 0.011643 0.011643
0.011691 0.011691 0.011691
0.011738 0.011738 0.011738
0.011786 0.011786 0.011786
0.011834 0.011834 0.011834
0.011881 0.011881 0.011881
0.011929 0.011929 0.011929
0.011977 0.011977 0.011977
0.012025 0.012025 0.012025
0.012074 0.012074 0.012074
0.012122 0.012122 0.012122
0.012170 0.012170 0.012170
0.012219 0.012219 0.012219
0.012268 0.012268 0.012268
0.012316 0.012316 0.012316
0.012365 0.012365 0.012365
0.012414 0.012414 0.012414
0.012463 0.012463 0.012463
0.012513 0.012513 0.012513
0.012562 0.012562 0.012562
0.012611 0.012611 0.012611
0.012661 0.012661 0.012661
0.012710 0.012710 0.012710
0.012760 0.012760 0.012760
0.012810 0.012810 0.012810
0.012860 0.012860 0.012860
0.012910 0.012910 0.012910
0.012960 0.012960 0.012960
0.013010 0.013010 0.013010
0.013061 0.013061 0.013061
0.013111 0.013111 0.013111
0.013162 0.013162 0.013162
0.013212 0.013212 0.013212
0.013263 0.013263 0.013263
0.013314 0.013314 0.013314
0.013365 0.013365 0.013365
0.013416 0.013416 0.013416
0.013467 0.013467 0.013467
0.013519 0.013519 0.013519
0.013570 0.013570 0.013570
0.013622 0.013622 0.013622
0.013673 0.013673 0.013673
0.013725 0.013725 0.013725
0.013777 0.013777 0.013777
0.013829 0.013829 0.013829
0.013881 0.013881 0.013881
0.013933 0.013933 0.013933
0.013985 0.013985 0.013985
0.014038 0.014038 0.014038
0.014090 0.014090 0.014090
0.014143 0.014143 0.014143
0.014195 0.014195 0.014195
0.014248 0.014248 0.014248
0.014301 0.014301 0.014301
0.014354 0.014354 0.014354
0.014407 0.014407 0.014407
0.014461 0.014461 0.014461
0.014514 0.014514 0.014514
0.014567 0.014567 0.014567
0.014621 0.014621 0.014621
0.014675 0.014675 0.014675
0.014728 0.014728 0.014728
0.014782 0.014782 0.014782
0.014836 0.014836 0.014836
0.014890 0.014890 0.014890
0.014944 0.014944 0.014944
0.014999 0.014999 0.014999
0.015053 0.015053 0.015053
0.015108 0.015108 0.015108
0.015162 0.015162 0.015162
0.015217 0.015217 0.015217
0.015272 0.015272 0.015272
0.015327 0.015327 0.015327
0.015382 0.015382 0.015382
0.015437 0.015437 0.015437
0.015492 0.015492 0.015492
0.015548 0.015548 0.015548
0.015603 0.015603 0.015603
0.015659 0.015659 0.015659
0.015715 0.015715 0.015715
0.015770 0.015770 0.015770
0.015826 0.015826 0.015826
0.015882 0.015882 0.015882
0.015939 0.015939 0.015939
0.015995 0.015995 0.015995
0.016051 0.016051 0.016051
0.016108 0.016108 0.016108
0.016164 0.016164 0.016164
0.016221 0.016221 0.016221
0.016278 0.016278 0.016278
0.016335 0.016335 0.016335
0.016392 0.016392 0.016392
0.016449 0.016449 0.016449
0.016506 0.016506 0.016506
0.016563 0.016563 0.016563
0.016621 0.016621 0.016621
0.016678 0.016678 0.016678
0.016736 0.016736 0.016736
0.016794 0.016794 0.016794
0.016851 0.016851 0.016851
0.016909 0.016909 0.016909
0.016968 0.016968 0.016968
0.017026 0.017026 0.017026
0.017084 0.017084 0.017084
0.017142 0.017142 0.017142
0.017201 0.017201 0.017201
0.017260 0.017260 0.017260
0.017318 0.017318 0.017318
0.017377 0.017377 0.017377
0.017436 0.017436 0.017436
0.017495 0.017495 0.017495
0.017554 0.017554 0.017554
0.017614 0.017614 0.017614
0.017673 0.017673 0.017673
0.017733 0.017733 0.017733
0.017792 0.017792 0.017792
0.017852 0.017852 0.017852
0.017912 0.017912 0.017912
0.017972 0.017972 0.017972
0.018032 0.018032 0.018032
0.018092 0.018092 0.018092
0.018152 0.018152 0.018152
0.018213 0.018213 0.018213
0.018273 0.018273 0.018273
0.018334 0.018334 0.018334
0.018394 0.018394 0.018394
0.018455 0.018455 0.018455
0.018516 0.018516 0.018516
0.018577 0.018577 0.018577
0.018638 0.018638 0.018638
0.018700 0.018700 0.018700
0.018761 0.018761 0.018761
0.018822 0.018822 0.018822
0.018884 0.018884 0.018884
0.018946 0.018946 0.018946
0.019007 0.019007 0.019007
0.019069 0.019069 0.019069
0.019131 0.019131 0.019131
0.019194 0.019194 0.019194
0.019256 0.019256 0.019256
0.019318 0.019318 0.019318
0.019381 0.019381 0.019381
0.019443 0.019443 0.019443
0.019506 0.019506 0.019506
0.019569 0.019569 0.019569
0.019632 0.019632 0.019632
0.019695 0.019695 0.019695
0.019758 0.019758 0.019758
0.019821 0.019821 0.019821
0.019884 0.019884 0.019884
0.019948 0.019948 0.019948
0.020011 0.020011 0.020011
0.020075 0.020075 0.020075
0.020139 0.020139 0.020139
0.020203 0.020203 0.020203
0.020267 0.020267 0.020267
0.020331 0.020331 0.020331
0.020395 0.020395 0.020395
0.020459 0.020459 0.020459
0.020524 0.020524 0.020524
0.020588 0.020588 0.020588
0.020653 0.020653 0.020653
0.020718 0.020718 0.020718
0.020783 0.020783 0.020783
0.020848 0.020848 0.020848
0.020913 0.020913 0.020913
0.020978 0.020978 0.020978
0.021043 0.021043 0.021043
0.021109 0.021109 0.021109
0.021174 0.021174 0.021174
0.021240 0.021240 0.021240
0.021306 0.021306 0.021306
0.021372 0.021372 0.021372
0.021438 0.021438 0.021438
0.021504 0.021504 0.021504
0.021570 0.021570 0.021570
0.021636 0.021636 0.021636
0.021703 0.021703 0.021703
0.021769 0.021769 0.021769
0.021836 0.021836 0.021836
0.021903 0.021903 0.021903
0.021970 0.021970 0.021970
0.022037 0.022037 0.022037
0.022104 0.022104 0.022104
0.022171 0.022171 0.022171
0.022238 0.022238 0.022238
0.022306 0.022306 0.022306
0.022373 0.022373 0.022373
0.022441 0.022441 0.022441
0.022509 0.022509 0.022509
0.022577 0.022577 0.022577
0.022645 0.022645 0.022645
0.022713 0.022713 0.022713
0.022781 0.022781 0.022781
0.022849 0.022849 0.022849
0.022918 0.022918 0.022918
0.022986 0.022986 0.022986
0.023055 0.023055 0.023055
0.023124 0.023124 0.023124
0.023193 0.023193 0.023193
0.023262 0.023262 0.023262
0.023331 0.023331 0.023331
0.023400 0.023400 0.023400
0.023469 0.023469 0.023469
0.023539 0.023539 0.023539
0.023608 0.023608 0.023608
0.023678 0.023678 0.023678
0.023748 0.023748 0.023748
0.023818 0.023818 0.023818
0.023888 0.023888 0.023888
0.023958 0.023958 0.023958
0.024028 0.024028 0.024028
0.024099 0.024099 0.024099
0.024169 0.024169 0.024169
0.024240 0.024240 0.024240
0.024310 0.024310 0.024310
0.024381 0.024381 0.024381
0.024452 0.024452 0.024452
0.024523 0.024523 0.024523
0.024594 0.024594 0.024594
0.024665 0.024665 0.024665
0.024737 0.024737 0.024737
0.024808 0.024808 0.024808
0.024880 0.024880 0.024880
0.024951 0.024951 0.024951
0.025023 0.025023 0.025023
0.025095 0.025095 0.025095
0.025167 0.025167 0.025167
0.025239 0.025239 0.025239
0.025312 0.025312 0.025312
0.025384 0.025384 0.025384
0.025457 0.025457 0.025457
0.025529 0.025529 0.025529
0.025602 0.025602 0.025602
0.025675 0.025675 0.025675
0.025748 0.025748 0.025748
0.025821 0.025821 0.025821
0.025894 0.025894 0.025894
0.025967 0.025967 0.025967
0.026041 0.026041 0.026041
0.026114 0.026114 0.026114
0.026188 0.026188 0.026188
0.026261 0.026261 0.026261
0.026335 0.026335 0.026335
0.026409 0.026409 0.026409
0.026483 0.026483 0.026483
0.026557 0.026557 0.026557
0.026632 0.026632 0.026632
0.026706 0.026706 0.026706
0.026781 0.026781 0.026781
0.026855 0.026855 0.026855
0.026930 0.026930 0.026930
0.027005 0.027005 0.027005
0.027080 0.027080 0.027080
0.027155 0.027155 0.027155
0.027230 0.027230 0.027230
0.027305 0.027305 0.027305
0.027381 0.027381 0.027381
0.027456 0.027456 0.027456
0.027532 0.027532 0.027532
0.027608 0.027608 0.027608
0.027684 0.027684 0.027684
0.027760 0.027760 0.027760
0.027836 0.027836 0.027836
0.027912 0.027912 0.027912
0.027988 0.027988 0.027988
0.028065 0.028065 0.028065
0.028141 0.028141 0.028141
0.028218 0.028218 0.028218
0.028295 0.028295 0.028295
0.028372 0.028372 0.028372
0.028449 0.028449 0.028449
0.028526 0.028526 0.028526
0.028603 0.028603 0.028603
0.028681 0.028681 0.028681
0.028758 0.028758 0.028758
0.028836 0.028836 0.028836
0.028913 0.028913 0.028913
0.028991 0.028991 0.028991
0.029069 0.029069 0.029069
0.029147 0.029147 0.029147
0.029225 0.029225 0.029225
0.029304 0.029304 0.029304
0.029382 0.029382 0.029382
0.029460 0.029460 0.029460
0.029539 0.029539 0.029539
0.029618 0.029618 0.029618
0.029697 0.029697 0.029697
0.029776 0.029776 0.029776
0.029855 0.029855 0.029855
0.029934 0.029934 0.029934
0.030013 0.030013 0.030013
0.030093 0.030093 0.030093
0.030172 0.030172 0.030172
0.030252 0.030252 0.030252
0.030332 0.030332 0.030332
0.030411 0.030411 0.030411
0.030491 0.030491 0.030491
0.030572 0.030572 0.030572
0.030652 0.030652 0.030652
0.030732 0.030732 0.030732
0.030813 0.030813 0.030813
0.030893 0.030893 0.030893
0.030974 0.030974 0.030974
0.031055 0.031055 0.031055
0.031136 0.031136 0.031136
0.031217 0.031217 0.031217
0.031298 0.031298 0.031298
0.031379 0.031379 0.031379
0.031460 0.031460 0.031460
0.031542 0.031542 0.031542
0.031623 0.031623 0.031623
0.031705 0.031705 0.031705
0.031787 0.031787 0.031787
0.031869 0.031869 0.031869
0.031951 0.031951 0.031951
0.032033 0.032033 0.032033
0.032115 0.032115 0.032115
0.032198 0.032198 0.032198
0.032280 0.032280 0.032280
0.032363 0.032363 0.032363
0.032446 0.032446 0.032446
0.032529 0.032529 0.032529
0.032612 0.032612 0.032612
0.032695 0.032695 0.032695
0.032778 0.032778 0.032778
0.032861 0.032861 0.032861
0.032945 0.032945 0.032945
0.033028 0.033028 0.033028
0.033112 0.033112 0.033112
0.033196 0.033196 0.033196
0.033280 0.033280 0.033280
0.033364 0.033364 0.033364
0.033448 0.033448 0.033448
0.033532 0.033532 0.033532
0.033616 0.033616 0.033616
0.033701 0.033701 0.033701
0.033785 0.033785 0.033785
0.033870 0.033870 0.033870
0.033955 0.033955 0.033955
0.034040 0.034040 0.034040
0.034125 0.034125 0.034125
0.034210 0.034210 0.034210
