Shapers/Shadows+1.cube
# Shadows+1 Shaper LUT
# Copyright (C) 2022 Jan Van Coppenolle

LUT_1D_SIZE 4096

DOMAIN_MIN 0.0 0.0 0.0
DOMAIN_MAX 1.0 1.0 1.0

0.000000 0.000000 0.000000
0.000488 0.000488 0.000488
0.000976 0.000976 0.000976
0.001463 0.001463 0.001463
0.001950 0.001950 0.001950
0.002436 0.002436 0.002436
0.002922 0.002922 0.002922
0.003407 0.003407 0.003407
0.003892 0.003892 0.003892
0.004376 0.004376 0.004376
0.004860 0.004860 0.004860
0.005344 0.005344 0.005344
0.005827 0.005827 0.005827
0.006309 0.006309 0.006309
0.006791 0.006791 0.006791
0.007273 0.007273 0.007273
0.007754 0.007754 0.007754
0.008234 0.008234 0.008234
0.008714 0.008714 0.008714
0.009194 0.009194 0.009194
0.009673 0.009673 0.009673
0.010152 0.010152 0.010152
0.010630 0.010630 0.010630
0.011108 0.011108 0.011108
0.011585 0.011585 0.011585
0.012062 0.012062 0.012062
0.012538 0.012538 0.012538
0.013014 0.013014 0.013014
0.013489 0.013489 0.013489
0.013964 0.013964 0.013964
0.014439 0.014439 0.014439
0.014913 0.014913 0.014913
0.015386 0.015386 0.015386
0.015860 0.015860 0.015860
0.016332 0.016332 0.016332
0.016804 0.016804 0.016804
0.017276 0.017276 0.017276
0.017747 0.017747 0.017747
0.018218 0.018218 0.018218
0.018688 0.018688 0.018688
0.019158 0.019158 0.019158
0.019627 0.019627 0.019627
0.020096 0.020096 0.020096
0.020565 0.020565 0.020565
0.021033 0.021033 0.021033
0.021500 0.021500 0.021500
0.021967 0.021967 0.021967
0.022434 0.022434 0.022434
0.022900 0.022900 0.022900
0.023366 0.023366 0.023366
0.023831 0.023831 0.023831
0.024296 0.024296 0.024296
0.024760 0.024760 0.024760
0.025224 0.025224 0.025224
0.025687 0.025687 0.025687
0.026150 0.026150 0.026150
0.026613 0.026613 0.026613
0.027075 0.027075 0.027075
0.027536 0.027536 0.027536
0.027997 0.027997 0.027997
0.028458 0.028458 0.028458
0.028918 0.028918 0.028918
0.029378 0.029378 0.029378
0.029837 0.029837 0.029837
0.030296 0.030296 0.030296
0.030754 0.030754 0.030754
0.031212 0.031212 0.031212
0.031670 0.031670 0.031670
0.032127 0.032127 0.032127
0.032583 0.032583 0.032583
0.033039 0.033039 0.033039
0.033495 0.033495 0.033495
0.033950 0.033950 0.033950
0.034405 0.034405 0.034405
0.034859 0.034859 0.034859
0.035313 0.035313 0.035313
0.035766 0.035766 0.035766
0.036219 0.036219 0.036219
0.036672 0.036672 0.036672
0.037124 0.037124 0.037124
0.037575 0.037575 0.037575
0.038026 0.038026 0.038026
0.038477 0.038477 0.038477
0.038927 0.038927 0.038927
0.039377 0.039377 0.039377
0.039826 0.039826 0.039826
0.040275 0.040275 0.040275
0.040724 0.040724 0.040724
0.041172 0.041172 0.041172
0.041619 0.041619 0.041619
0.042066 0.042066 0.042066
0.042513 0.042513 0.042513
0.042959 0.042959 0.042959
0.043405 0.043405 0.043405
0.043850 0.043850 0.043850
0.044295 0.044295 0.044295
0.044740 0.044740 0.044740
0.045184 0.045184 0.045184
0.045627 0.045627 0.045627
0.046070 0.046070 0.046070
0.046513 0.046513 0.046513
0.046955 0.046955 0.046955
0.047397 0.047397 0.047397
0.047838 0.047838 0.047838
0.048279 0.048279 0.048279
0.048720 0.048720 0.048720
0.049160 0.049160 0.049160
0.049599 0.049599 0.049599
0.050038 0.050038 0.050038
0.050477 0.050477 0.050477
0.050915 0.050915 0.050915
0.051353 0.051353 0.051353
0.051791 0.051791 0.051791
0.052227 0.052227 0.052227
0.052664 0.052664 0.052664
0.053100 0.053100 0.053100
0.053536 0.053536 0.053536
0.053971 0.053971 0.053971
0.054406 0.054406 0.054406
0.054840 0.054840 0.054840
0.055274 0.055274 0.055274
0.055707 0.055707 0.055707
0.056140 0.056140 0.056140
0.056573 0.056573 0.056573
0.057005 0.057005 0.057005
0.057437 0.057437 0.057437
0.057868 0.057868 0.057868
0.058299 0.058299 0.058299
0.058729 0.058729 0.058729
0.059159 0.059159 0.059159
0.059589 0.059589 0.059589
0.060018 0.060018 0.060018
0.060447 0.060447 0.060447
0.060875 0.060875 0.060875
0.061303 0.061303 0.061303
0.061730 0.061730 0.061730
0.062157 0.062157 0.062157
0.062584 0.062584 0.062584
0.063010 0.063010 0.063010
0.063435 0.063435 0.063435
0.063861 0.063861 0.063861
0.064285 0.064285 0.064285
0.064710 0.064710 0.064710
0.065134 0.065134 0.065134
0.065557 0.065557 0.065557
0.065980 0.065980 0.065980
0.066403 0.066403 0.066403
0.066825 0.066825 0.066825
0.067247 0.067247 0.067247
0.067669 0.067669 0.067669
0.068090 0.068090 0.068090
0.068510 0.068510 0.068510
0.068930 0.068930 0.068930
0.069350 0.069350 0.069350
0.069769 0.069769 0.069769
0.070188 0.070188 0.070188
0.070607 0.070607 0.070607
0.071025 0.071025 0.071025
0.071442 0.071442 0.071442
0.071859 0.071859 0.071859
0.072276 0.072276 0.072276
0.072693 0.072693 0.072693
0.073108 0.073108 0.073108
0.073524 0.073524 0.073524
0.073939 0.073939 0.073939
0.074354 0.074354 0.074354
0.074768 0.074768 0.074768
0.075182 0.075182 0.075182
0.075595 0.075595 0.075595
0.076008 0.076008 0.076008
0.076421 0.076421 0.076421
0.076833 0.076833 0.076833
0.077244 0.077244 0.077244
0.077656 0.077656 0.077656
0.078067 0.078067 0.078067
0.078477 0.078477 0.078477
0.078887 0.078887 0.078887
0.079297 0.079297 0.079297
0.079706 0.079706 0.079706
0.080115 0.080115 0.080115
0.080523 0.080523 0.080523
0.080931 0.080931 0.080931
0.081339 0.081339 0.081339
0.081746 0.081746 0.081746
0.082153 0.082153 0.082153
0.082559 0.082559 0.082559
0.082965 0.082965 0.082965
0.083370 0.083370 0.083370
0.083776 0.083776 0.083776
0.084180 0.084180 0.084180
0.084585 0.084585 0.084585
0.084988 0.084988 0.084988
0.085392 0.085392 0.085392
0.085795 0.085795 0.085795
0.086198 0.086198 0.086198
0.086600 0.086600 0.086600
0.087002 0.087002 0.087002
0.087403 0.087403 0.087403
0.087804 0.087804 0.087804
0.088205 0.088205 0.088205
0.088605 0.088605 0.088605
0.089004 0.089004 0.089004
0.089404 0.089404 0.089404
0.089803 0.089803 0.089803
0.090201 0.090201 0.090201
0.090599 0.090599 0.090599
0.090997 0.090997 0.090997
0.091395 0.091395 0.091395
0.091792 0.091792 0.091792
0.092188 0.092188 0.092188
0.092584 0.092584 0.092584
0.092980 0.092980 0.092980
0.093375 0.093375 0.093375
0.093770 0.093770 0.093770
0.094165 0.094165 0.094165
0.094559 0.094559 0.094559
0.094952 0.094952 0.094952
0.095346 0.095346 0.095346
0.095739 0.095739 0.095739
0.096131 0.096131 0.096131
0.096523 0.096523 0.096523
0.096915 0.096915 0.096915
0.097306 0.097306 0.097306
0.097697 0.097697 0.097697
0.098088 0.098088 0.098088
0.098478 0.098478 0.098478
0.098867 0.098867 0.098867
0.099257 0.099257 0.099257
0.099646 0.099646 0.099646
0.100034 0.100034 0.100034
0.100422 0.100422 0.100422
0.100810 0.100810 0.100810
0.101197 0.101197 0.101197
0.101584 0.101584 0.101584
0.101971 0.101971 0.101971
0.102357 0.102357 0.102357
0.102743 0.102743 0.102743
0.103128 0.103128 0.103128
0.103513 0.103513 0.103513
0.103898 0.103898 0.103898
0.104282 0.104282 0.104282
0.104666 0.104666 0.104666
0.105049 0.105049 0.105049
0.105432 0.105432 0.105432
0.105814 0.105814 0.105814
0.106197 0.106197 0.106197
0.106578 0.106578 0.106578
0.106960 0.106960 0.106960
0.107341 0.107341 0.107341
0.107722 0.107722 0.107722
0.108102 0.108102 0.108102
0.108482 0.108482 0.108482
0.108861 0.108861 0.108861
0.109240 0.109240 0.109240
0.109619 0.109619 0.109619
0.109997 0.109997 0.109997
0.110375 0.110375 0.110375
0.110753 0.110753 0.110753
0.111130 0.111130 0.111130
0.111507 0.111507 0.111507
0.111883 0.111883 0.111883
0.112259 0.112259 0.112259
0.112635 0.112635 0.112635
0.113010 0.113010 0.113010
0.113385 0.113385 0.113385
0.113759 0.113759 0.113759
0.114133 0.114133 0.114133
0.114507 0.114507 0.114507
0.114880 0.114880 0.114880
0.115253 0.115253 0.115253
0.115625 0.115625 0.115625
0.115998 0.115998 0.115998
0.116369 0.116369 0.116369
0.116741 0.116741 0.116741
0.117112 0.117112 0.117112
0.117482 0.117482 0.117482
0.117853 0.117853 0.117853
0.118222 0.118222 0.118222
0.118592 0.118592 0.118592
0.118961 0.118961 0.118961
0.119330 0.119330 0.119330
0.119698 0.119698 0.119698
0.120066 0.120066 0.120066
0.120434 0.120434 0.120434
0.120801 0.120801 0.120801
0.121168 0.121168 0.121168
0.121534 0.121534 0.121534
0.121900 0.121900 0.121900
0.122266 0.122266 0.122266
0.122631 0.122631 0.122631
0.122996 0.122996 0.122996
0.123361 0.123361 0.123361
0.123725 0.123725 0.123725
0.124089 0.124089 0.124089
0.124452 0.124452 0.124452
0.124815 0.124815 0.124815
0.125178 0.125178 0.125178
0.125540 0.125540 0.125540
0.125902 0.125902 0.125902
0.126264 0.126264 0.126264
0.126625 0.126625 0.126625
0.126986 0.126986 0.126986
0.127346 0.127346 0.127346
0.127706 0.127706 0.127706
0.128066 0.128066 0.128066
0.128425 0.128425 0.128425
0.128784 0.128784 0.128784
0.129143 0.129143 0.129143
0.129501 0.129501 0.129501
0.129859 0.129859 0.129859
0.130216 0.130216 0.130216
0.130573 0.130573 0.130573
0.130930 0.130930 0.130930
0.131287 0.131287 0.131287
0.131643 0.131643 0.131643
0.131998 0.131998 0.131998
0.132353 0.132353 0.132353
0.132708 0.132708 0.132708
0.133063 0.133063 0.133063
0.133417 0.133417 0.133417
0.133771 0.133771 0.133771
0.134124 0.134124 0.134124
0.134477 0.134477 0.134477
0.134830 0.134830 0.134830
0.135183 0.135183 0.135183
0.135535 0.135535 0.135535
0.135886 0.135886 0.135886
0.136237 0.136237 0.136237
0.136588 0.136588 0.136588
0.136939 0.136939 0.136939
0.137289 0.137289 0.137289
0.137639 0.137639 0.137639
0.137988 0.137988 0.137988
0.138337 0.138337 0.138337
0.138686 0.138686 0.138686
0.139035 0.139035 0.139035
0.139383 0.139383 0.139383
0.139730 0.139730 0.139730
0.140077 0.140077 0.140077
0.140424 0.140424 0.140424
0.140771 0.140771 0.140771
0.141117 0.141117 0.141117
0.141463 0.141463 0.141463
0.141809 0.141809 0.141809
0.142154 0.142154 0.142154
0.142499 0.142499 0.142499
0.142843 0.142843 0.142843
0.143187 0.143187 0.143187
0.143531 0.143531 0.143531
0.143874 0.143874 0.143874
0.144217 0.144217 0.144217
0.144560 0.144560 0.144560
0.144902 0.144902 0.144902
0.145244 0.145244 0.145244
0.145586 0.145586 0.145586
0.145927 0.145927 0.145927
0.146268 0.146268 0.146268
0.146608 0.146608 0.146608
0.146948 0.146948 0.146948
0.147288 0.147288 0.147288
0.147628 0.147628 0.147628
0.147967 0.147967 0.147967
0.148306 0.148306 0.148306
0.148644 0.148644 0.148644
0.148982 0.148982 0.148982
0.149320 0.149320 0.149320
0.149657 0.149657 0.149657
0.149994 0.149994 0.149994
0.150331 0.150331 0.150331
0.150667 0.150667 0.150667
0.151003 0.151003 0.151003
0.151339 0.151339 0.151339
0.151674 0.151674 0.151674
0.152009 0.152009 0.152009
0.152344 0.152344 0.152344
0.152678 0.152678 0.152678
0.153012 0.153012 0.153012
0.153345 0.153345 0.153345
0.153679 0.153679 0.153679
0.154012 0.154012 0.154012
0.154344 0.154344 0.154344
0.154676 0.154676 0.154676
0.155008 0.155008 0.155008
0.155340 0.155340 0.155340
0.155671 0.155671 0.155671
0.156001 0.156001 0.156001
0.156332 0.156332 0.156332
0.156662 0.156662 0.156662
0.156992 0.156992 0.156992
0.157321 0.157321 0.157321
0.157650 0.157650 0.157650
0.157979 0.157979 0.157979
0.158308 0.158308 0.158308
0.158636 0.158636 0.158636
0.158963 0.158963 0.158963
0.159291 0.159291 0.159291
0.159618 0.159618 0.159618
0.159944 0.159944 0.159944
0.160271 0.160271 0.160271
0.160597 0.160597 0.160597
0.160923 0.160923 0.160923
0.161248 0.161248 0.161248
0.161573 0.161573 0.161573
0.161898 0.161898 0.161898
0.162222 0.162222 0.162222
0.162546 0.162546 0.162546
0.162870 0.162870 0.162870
0.163193 0.163193 0.163193
0.163516 0.163516 0.163516
0.163839 0.163839 0.163839
0.164161 0.164161 0.164161
0.164483 0.164483 0.164483
0.164805 0.164805 0.164805
0.165126 0.165126 0.165126
0.165447 0.165447 0.165447
0.165768 0.165768 0.165768
0.166088 0.166088 0.166088
0.166408 0.166408 0.166408
0.166728 0.166728 0.166728
0.167047 0.167047 0.167047
0.167366 0.167366 0.167366
0.167685 0.167685 0.167685
0.168003 0.168003 0.168003
0.168321 0.168321 0.168321
0.168639 0.168639 0.168639
0.168956 0.168956 0.168956
0.169273 0.169273 0.169273
0.169590 0.169590 0.169590
0.169907 0.169907 0.169907
0.170223 0.170223 0.170223
0.170538 0.170538 0.170538
0.170854 0.170854 0.170854
0.171169 0.171169 0.171169
0.171484 0.171484 0.171484
0.171798 0.171798 0.171798
0.172112 0.172112 0.172112
0.172426 0.172426 0.172426
0.172739 0.172739 0.172739
0.173053 0.173053 0.173053
0.173365 0.173365 0.173365
0.173678 0.173678 0.173678
0.173990 0.173990 0.173990
0.174302 0.174302 0.174302
0.174613 0.174613 0.174613
0.174925 0.174925 0.174925
0.175235 0.175235 0.175235
0.175546 0.175546 0.175546
0.175856 0.175856 0.175856
0.176166 0.176166 0.176166
0.176476 0.176476 0.176476
0.176785 0.176785 0.176785
0.177094 0.177094 0.177094
0.177403 0.177403 0.177403
0.177711 0.177711 0.177711
0.178019 0.178019 0.178019
0.178326 0.178326 0.178326
0.178634 0.178634 0.178634
0.178941 0.178941 0.178941
0.179248 0.179248 0.179248
0.179554 0.179554 0.179554
0.179860 0.179860 0.179860
0.180166 0.180166 0.180166
0.180471 0.180471 0.180471
0.180776 0.180776 0.180776
0.181081 0.181081 0.181081
0.181386 0.181386 0.181386
0.181690 0.181690 0.181690
0.181994 0.181994 0.181994
0.182297 0.182297 0.182297
0.182601 0.182601 0.182601
0.182904 0.182904 0.182904
0.183206 0.183206 0.183206
0.183509 0.183509 0.183509
0.183810 0.183810 0.183810
0.184112 0.184112 0.184112
0.184414 0.184414 0.184414
0.184715 0.184715 0.184715
0.185015 0.185015 0.185015
0.185316 0.185316 0.185316
0.185616 0.185616 0.185616
0.185916 0.185916 0.185916
0.186215 0.186215 0.186215
0.186514 0.186514 0.186514
0.186813 0.186813 0.186813
0.187112 0.187112 0.187112
0.187410 0.187410 0.187410
0.187708 0.187708 0.187708
0.188006 0.188006 0.188006
0.188303 0.188303 0.188303
0.188600 0.188600 0.188600
0.188897 0.188897 0.188897
0.189194 0.189194 0.189194
0.189490 0.189490 0.189490
0.189785 0.189785 0.189785
0.190081 0.190081 0.190081
0.190376 0.190376 0.190376
0.190671 0.190671 0.190671
0.190966 0.190966 0.190966
0.191260 0.191260 0.191260
0.191554 0.191554 0.191554
0.191848 0.191848 0.191848
0.192141 0.192141 0.192141
0.192434 0.192434 0.192434
0.192727 0.192727 0.192727
0.193020 0.193020 0.193020
0.193312 0.193312 0.193312
0.193604 0.193604 0.193604
0.193895 0.193895 0.193895
0.194187 0.194187 0.194187
0.194478 0.194478 0.194478
0.194768 0.194768 0.194768
0.195059 0.195059 0.195059
0.195349 0.195349 0.195349
0.195639 0.195639 0.195639
0.195928 0.195928 0.195928
0.196217 0.196217 0.196217
0.196506 0.196506 0.196506
0.196795 0.196795 0.196795
0.197083 0.197083 0.197083
0.197371 0.197371 0.197371
0.197659 0.197659 0.197659
0.197946 0.197946 0.197946
0.198233 0.198233 0.198233
0.198520 0.198520 0.198520
0.198807 0.198807 0.198807
0.199093 0.199093 0.199093
0.199379 0.199379 0.199379
0.199665 0.199665 0.199665
0.199950 0.199950 0.199950
0.200235 0.200235 0.200235
0.200520 0.200520 0.200520
0.200804 0.200804 0.200804
0.201089 0.201089 0.201089
0.201373 0.201373 0.201373
0.201656 0.201656 0.201656
0.201939 0.201939 0.201939
0.202223 0.202223 0.202223
0.202505 0.202505 0.202505
0.202788 0.202788 0.202788
0.203070 0.203070 0.203070
0.203352 0.203352 0.203352
0.203633 0.203633 0.203633
0.203915 0.203915 0.203915
0.204196 0.204196 0.204196
0.204476 0.204476 0.204476
0.204757 0.204757 0.204757
0.205037 0.205037 0.205037
0.205317 0.205317 0.205317
0.205596 0.205596 0.205596
0.205876 0.205876 0.205876
0.206155 0.206155 0.206155
0.206434 0.206434 0.206434
0.206712 0.206712 0.206712
0.206990 0.206990 0.206990
0.207268 0.207268 0.207268
0.207546 0.207546 0.207546
0.207823 0.207823 0.207823
0.208100 0.208100 0.208100
0.208377 0.208377 0.208377
0.208653 0.208653 0.208653
0.208929 0.208929 0.208929
0.209205 0.209205 0.209205
0.209481 0.209481 0.209481
0.209756 0.209756 0.209756
0.210031 0.210031 0.210031
0.210306 0.210306 0.210306
0.210581 0.210581 0.210581
0.210855 0.210855 0.210855
0.211129 0.211129 0.211129
0.211402 0.211402 0.211402
0.211676 0.211676 0.211676
0.211949 0.211949 0.211949
0.212222 0.212222 0.212222
0.212494 0.212494 0.212494
0.212767 0.212767 0.212767
0.213039 0.213039 0.213039
0.213310 0.213310 0.213310
0.213582 0.213582 0.213582
0.213853 0.213853 0.213853
0.214124 0.214124 0.214124
0.214394 0.214394 0.214394
0.214665 0.214665 0.214665
0.214935 0.214935 0.214935
0.215205 0.215205 0.215205
0.215474 0.215474 0.215474
0.215743 0.215743 0.215743
0.216012 0.216012 0.216012
0.216281 0.216281 0.216281
0.216550 0.216550 0.216550
0.216818 0.216818 0.216818
0.217086 0.217086 0.217086
0.217353 0.217353 0.217353
0.217621 0.217621 0.217621
0.217888 0.217888 0.217888
0.218155 0.218155 0.218155
0.218421 0.218421 0.218421
0.218687 0.218687 0.218687
0.218953 0.218953 0.218953
0.219219 0.219219 0.219219
0.219485 0.219485 0.219485
0.219750 0.219750 0.219750
0.220015 0.220015 0.220015
0.220279 0.220279 0.220279
0.220544 0.220544 0.220544
0.220808 0.220808 0.220808
0.221072 0.221072 0.221072
0.221335 0.221335 0.221335
0.221599 0.221599 0.221599
0.221862 0.221862 0.221862
0.222125 0.222125 0.222125
0.222387 0.222387 0.222387
0.222649 0.222649 0.222649
0.222911 0.222911 0.222911
0.223173 0.223173 0.223173
0.223435 0.223435 0.223435
0.223696 0.223696 0.223696
0.223957 0.223957 0.223957
0.224218 0.224218 0.224218
0.224478 0.224478 0.224478
0.224738 0.224738 0.224738
0.224998 0.224998 0.224998
0.225258 0.225258 0.225258
0.225517 0.225517 0.225517
0.225776 0.225776 0.225776
0.226035 0.226035 0.226035
0.226294 0.226294 0.226294
0.226552 0.226552 0.226552
0.226810 0.226810 0.226810
0.227068 0.227068 0.227068
0.227326 0.227326 0.227326
0.227583 0.227583 0.227583
0.227840 0.227840 0.227840
0.228097 0.228097 0.228097
0.228354 0.228354 0.228354
0.228610 0.228610 0.228610
0.228866 0.228866 0.228866
0.229122 0.229122 0.229122
0.229377 0.229377 0.229377
0.229633 0.229633 0.229633
0.229888 0.229888 0.229888
0.230142 0.230142 0.230142
0.230397 0.230397 0.230397
0.230651 0.230651 0.230651
0.230905 0.230905 0.230905
0.231159 0.231159 0.231159
0.231412 0.231412 0.231412
0.231666 0.231666 0.231666
0.231919 0.231919 0.231919
0.232171 0.232171 0.232171
0.232424 0.232424 0.232424
0.232676 0.232676 0.232676
0.232928 0.232928 0.232928
0.233180 0.233180 0.233180
0.233432 0.233432 0.233432
0.233683 0.233683 0.233683
0.233934 0.233934 0.233934
0.234185 0.234185 0.234185
0.234435 0.234435 0.234435
0.234685 0.234685 0.234685
0.234935 0.234935 0.234935
0.235185 0.235185 0.235185
0.235435 0.235435 0.235435
0.235684 0.235684 0.235684
0.235933 0.235933 0.235933
0.236182 0.236182 0.236182
0.236430 0.236430 0.236430
0.236679 0.236679 0.236679
0.236927 0.236927 0.236927
0.237175 0.237175 0.237175
0.237422 0.237422 0.237422
0.237669 0.237669 0.237669
0.237917 0.237917 0.237917
0.238163 0.238163 0.238163
0.238410 0.238410 0.238410
0.238656 0.238656 0.238656
0.238902 0.238902 0.238902
0.239148 0.239148 0.239148
0.239394 0.239394 0.239394
0.239639 0.239639 0.239639
0.239885 0.239885 0.239885
0.240130 0.240130 0.240130
0.240374 0.240374 0.240374
0.240619 0.240619 0.240619
0.240863 0.240863 0.240863
0.241107 0.241107 0.241107
0.241351 0.241351 0.241351
0.241594 0.241594 0.241594
0.241837 0.241837 0.241837
0.242080 0.242080 0.242080
0.242323 0.242323 0.242323
0.242566 0.242566 0.242566
0.242808 0.242808 0.242808
0.243050 0.243050 0.243050
0.243292 0.243292 0.243292
0.243533 0.243533 0.243533
0.243775 0.243775 0.243775
0.244016 0.244016 0.244016
0.244257 0.244257 0.244257
0.244497 0.244497 0.244497
0.244738 0.244738 0.244738
0.244978 0.244978 0.244978
0.245218 0.245218 0.245218
0.245458 0.245458 0.245458
0.245697 0.245697 0.245697
0.245936 0.245936 0.245936
0.246176 0.246176 0.246176
0.246414 0.246414 0.246414
0.246653 0.246653 0.246653
0.246891 0.246891 0.246891
0.247129 0.247129 0.247129
0.247367 0.247367 0.247367
0.247605 0.247605 0.247605
0.247842 0.247842 0.247842
0.248080 0.248080 0.248080
0.248317 0.248317 0.248317
0.248553 0.248553 0.248553
0.248790 0.248790 0.248790
0.249026 0.249026 0.249026
0.249262 0.249262 0.249262
0.249498 0.249498 0.249498
0.249734 0.249734 0.249734
0.249969 0.249969 0.249969
0.250204 0.250204 0.250204
0.250439 0.250439 0.250439
0.250674 0.250674 0.250674
0.250908 0.250908 0.250908
0.251143 0.251143 0.251143
0.251377 0.251377 0.251377
0.251610 0.251610 0.251610
0.251844 0.251844 0.251844
0.252077 0.252077 0.252077
0.252311 0.252311 0.252311
0.252543 0.252543 0.252543
0.252776 0.252776 0.252776
0.253009 0.253009 0.253009
0.253241 0.253241 0.253241
0.253473 0.253473 0.253473
0.253705 0.253705 0.253705
0.253936 0.253936 0.253936
0.254168 0.254168 0.254168
0.254399 0.254399 0.254399
0.254630 0.254630 0.254630
0.254861 0.254861 0.254861
0.255091 0.255091 0.255091
0.255322 0.255322 0.255322
0.255552 0.255552 0.255552
0.255781 0.255781 0.255781
0.256011 0.256011 0.256011
0.256241 0.256241 0.256241
0.256470 0.256470 0.256470
0.256699 0.256699 0.256699
0.256928 0.256928 0.256928
0.257156 0.257156 0.257156
0.257384 0.257384 0.257384
0.257613 0.257613 0.257613
0.257841 0.257841 0.257841
0.258068 0.258068 0.258068
0.258296 0.258296 0.258296
0.258523 0.258523 0.258523
0.258750 0.258750 0.258750
0.258977 0.258977 0.258977
0.259204 0.259204 0.259204
0.259430 0.259430 0.259430
0.259656 0.259656 0.259656
0.259882 0.259882 0.259882
0.260108 0.260108 0.260108
0.260334 0.260334 0.260334
0.260559 0.260559 0.260559
0.260784 0.260784 0.260784
0.261009 0.261009 0.261009
0.261234 0.261234 0.261234
0.261459 0.261459 0.261459
0.261683 0.261683 0.261683
0.261907 0.261907 0.261907
0.262131 0.262131 0.262131
0.262355 0.262355 0.262355
0.262578 0.262578 0.262578
0.262802 0.262802 0.262802
0.263025 0.263025 0.263025
0.263248 0.263248 0.263248
0.263470 0.263470 0.263470
0.263693 0.263693 0.263693
0.263915 0.263915 0.263915
0.264137 0.264137 0.264137
0.264359 0.264359 0.264359
0.264581 0.264581 0.264581
0.264802 0.264802 0.264802
0.265024 0.265024 0.265024
0.265245 0.265245 0.265245
0.265466 0.265466 0.265466
0.265686 0.265686 0.265686
0.265907 0.265907 0.265907
0.266127 0.266127 0.266127
0.266347 0.266347 0.266347
0.266567 0.266567 0.266567
0.266787 0.266787 0.266787
0.267006 0.267006 0.267006
0.267225 0.267225 0.267225
0.267445 0.267445 0.267445
0.267663 0.267663 0.267663
0.267882 0.267882 0.267882
0.268101 0.268101 0.268101
0.268319 0.268319 0.268319
0.268537 0.268537 0.268537
0.268755 0.268755 0.268755
0.268973 0.268973 0.268973
0.269190 0.269190 0.269190
0.269407 0.269407 0.269407
0.269625 0.269625 0.269625
0.269841 0.269841 0.269841
0.270058 0.270058 0.270058
0.270275 0.270275 0.270275
0.270491 0.270491 0.270491
0.270707 0.270707 0.270707
0.270923 0.270923 0.270923
0.271139 0.271139 0.271139
0.271354 0.271354 0.271354
0.271570 0.271570 0.271570
0.271785 0.271785 0.271785
0.272000 0.272000 0.272000
0.272215 0.272215 0.272215
0.272429 0.272429 0.272429
0.272644 0.272644 0.272644
0.272858 0.272858 0.272858
0.273072 0.273072 0.273072
0.273286 0.273286 0.273286
0.273500 0.273500 0.273500
0.273713 0.273713 0.273713
0.273926 0.273926 0.273926
0.274139 0.274139 0.274139
0.274352 0.274352 0.274352
0.274565 0.274565 0.274565
0.274778 0.274778 0.274778
0.274990 0.274990 0.274990
0.275202 0.275202 0.275202
0.275414 0.275414 0.275414
0.275626 0.275626 0.275626
0.275838 0.275838 0.275838
0.276049 0.276049 0.276049
0.276260 0.276260 0.276260
0.276471 0.276471 0.276471
0.276682 0.276682 0.276682
0.276893 0.276893 0.276893
0.277103 0.277103 0.277103
0.277314 0.277314 0.277314
0.277524 0.277524 0.277524
0.277734 0.277734 0.277734
0.277944 0.277944 0.277944
0.278153 0.278153 0.278153
0.278363 0.278363 0.278363
0.278572 0.278572 0.278572
0.278781 0.278781 0.278781
0.278990 0.278990 0.278990
0.279198 0.279198 0.279198
0.279407 0.279407 0.279407
0.279615 0.279615 0.279615
0.279823 0.279823 0.279823
0.280031 0.280031 0.280031
0.280239 0.280239 0.280239
0.280447 0.280447 0.280447
0.280654 0.280654 0.280654
0.280862 0.280862 0.280862
0.281069 0.281069 0.281069
0.281276 0.281276 0.281276
0.281482 0.281482 0.281482
0.281689 0.281689 0.281689
0.281895 0.281895 0.281895
0.282102 0.282102 0.282102
0.282308 0.282308 0.282308
0.282514 0.282514 0.282514
0.282719 0.282719 0.282719
0.282925 0.282925 0.282925
0.283130 0.283130 0.283130
0.283335 0.283335 0.283335
0.283540 0.283540 0.283540
0.283745 0.283745 0.283745
0.283950 0.283950 0.283950
0.284154 0.284154 0.284154
0.284359 0.284359 0.284359
0.284563 0.284563 0.284563
0.284767 0.284767 0.284767
0.284971 0.284971 0.284971
0.285174 0.285174 0.285174
0.285378 0.285378 0.285378
