Shapers/Shadows-1.cube
# Shadows-1 Shaper LUT
# Copyright (C) 2022 Jan Van Coppenolle

LUT_1D_SIZE 4096

DOMAIN_MIN 0.0 0.0 0.0
DOMAIN_MAX 1.0 1.0 1.0

0.000000 0.000000 0.000000
0.000000 0.000000 0.000000
0.000001 0.000001 0.000001
0.000002 0.000002 0.000002
0.000004 0.000004 0.000004
0.000006 0.000006 0.000006
0.000009 0.000009 0.000009
0.000012 0.000012 0.000012
0.000015 0.000015 0.000015
0.000019 0.000019 0.000019
0.000024 0.000024 0.000024
0.000029 0.000029 0.000029
0.000034 0.000034 0.000034
0.000040 0.000040 0.000040
0.000047 0.000047 0.000047
0.000053 0.000053 0.000053
0.000061 0.000061 0.000061
0.000069 0.000069 0.000069
0.000077 0.000077 0.000077
0.000086 0.000086 0.000086
0.000095 0.000095 0.000095
0.000105 0.000105 0.000105
0.000115 0.000115 0.000115
0.000125 0.000125 0.000125
0.000137 0.000137 0.000137
0.000148 0.000148 0.000148
0.000160 0.000160 0.000160
0.000173 0.000173 0.000173
0.000186 0.000186 0.000186
0.000199 0.000199 0.000199
0.000213 0.000213 0.000213
0.000227 0.000227 0.000227
0.000242 0.000242 0.000242
0.000258 0.000258 0.000258
0.000273 0.000273 0.000273
0.000290 0.000290 0.000290
0.000306 0.000306 0.000306
0.000324 0.000324 0.000324
0.000341 0.000341 0.000341
0.000359 0.000359 0.000359
0.000378 0.000378 0.000378
0.000397 0.000397 0.000397
0.000416 0.000416 0.000416
0.000436 0.000436 0.000436
0.000457 0.000457 0.000457
0.000478 0.000478 0.000478
0.000499 0.000499 0.000499
0.000521 0.000521 0.000521
0.000543 0.000543 0.000543
0.000566 0.000566 0.000566
0.000589 0.000589 0.000589
0.000613 0.000613 0.000613
0.000637 0.000637 0.000637
0.000661 0.000661 0.000661
0.000686 0.000686 0.000686
0.000712 0.000712 0.000712
0.000738 0.000738 0.000738
0.000764 0.000764 0.000764
0.000791 0.000791 0.000791
0.000818 0.000818 0.000818
0.000846 0.000846 0.000846
0.000874 0.000874 0.000874
0.000903 0.000903 0.000903
0.000932 0.000932 0.000932
0.000962 0.000962 0.000962
0.000992 0.000992 0.000992
0.001022 0.001022 0.001022
0.001053 0.001053 0.001053
0.001085 0.001085 0.001085
0.001117 0.001117 0.001117
0.001149 0.001149 0.001149
0.001182 0.001182 0.001182
0.001215 0.001215 0.001215
0.001248 0.001248 0.001248
0.001283 0.001283 0.001283
0.001317 0.001317 0.001317
0.001352 0.001352 0.001352
0.001388 0.001388 0.001388
0.001424 0.001424 0.001424
0.001460 0.001460 0.001460
0.001497 0.001497 0.001497
0.001534 0.001534 0.001534
0.001572 0.001572 0.001572
0.001610 0.001610 0.001610
0.001649 0.001649 0.001649
0.001688 0.001688 0.001688
0.001727 0.001727 0.001727
0.001767 0.001767 0.001767
0.001808 0.001808 0.001808
0.001848 0.001848 0.001848
0.001890 0.001890 0.001890
0.001931 0.001931 0.001931
0.001974 0.001974 0.001974
0.002016 0.002016 0.002016
0.002059 0.002059 0.002059
0.002103 0.002103 0.002103
0.002147 0.002147 0.002147
0.002191 0.002191 0.002191
0.002236 0.002236 0.002236
0.002281 0.002281 0.002281
0.002327 0.002327 0.002327
0.002373 0.002373 0.002373
0.002420 0.002420 0.002420
0.002467 0.002467 0.002467
0.002514 0.002514 0.002514
0.002562 0.002562 0.002562
0.002611 0.002611 0.002611
0.002660 0.002660 0.002660
0.002709 0.002709 0.002709
0.002759 0.002759 0.002759
0.002809 0.002809 0.002809
0.002859 0.002859 0.002859
0.002910 0.002910 0.002910
0.002962 0.002962 0.002962
0.003014 0.003014 0.003014
0.003066 0.003066 0.003066
0.003119 0.003119 0.003119
0.003172 0.003172 0.003172
0.003226 0.003226 0.003226
0.003280 0.003280 0.003280
0.003334 0.003334 0.003334
0.003389 0.003389 0.003389
0.003445 0.003445 0.003445
0.003500 0.003500 0.003500
0.003557 0.003557 0.003557
0.003613 0.003613 0.003613
0.003670 0.003670 0.003670
0.003728 0.003728 0.003728
0.003786 0.003786 0.003786
0.003844 0.003844 0.003844
0.003903 0.003903 0.003903
0.003963 0.003963 0.003963
0.004022 0.004022 0.004022
0.004082 0.004082 0.004082
0.004143 0.004143 0.004143
0.004204 0.004204 0.004204
0.004265 0.004265 0.004265
0.004327 0.004327 0.004327
0.004390 0.004390 0.004390
0.004452 0.004452 0.004452
0.004515 0.004515 0.004515
0.004579 0.004579 0.004579
0.004643 0.004643 0.004643
0.004707 0.004707 0.004707
0.004772 0.004772 0.004772
0.004838 0.004838 0.004838
0.004903 0.004903 0.004903
0.004969 0.004969 0.004969
0.005036 0.005036 0.005036
0.005103 0.005103 0.005103
0.005170 0.005170 0.005170
0.005238 0.005238 0.005238
0.005307 0.005307 0.005307
0.005375 0.005375 0.005375
0.005444 0.005444 0.005444
0.005514 0.005514 0.005514
0.005584 0.005584 0.005584
0.005654 0.005654 0.005654
0.005725 0.005725 0.005725
0.005796 0.005796 0.005796
0.005868 0.005868 0.005868
0.005940 0.005940 0.005940
0.006012 0.006012 0.006012
0.006085 0.006085 0.006085
0.006159 0.006159 0.006159
0.006232 0.006232 0.006232
0.006307 0.006307 0.006307
0.006381 0.006381 0.006381
0.006456 0.006456 0.006456
0.006532 0.006532 0.006532
0.006607 0.006607 0.006607
0.006684 0.006684 0.006684
0.006760 0.006760 0.006760
0.006838 0.006838 0.006838
0.006915 0.006915 0.006915
0.006993 0.006993 0.006993
0.007071 0.007071 0.007071
0.007150 0.007150 0.007150
0.007229 0.007229 0.007229
0.007309 0.007309 0.007309
0.007389 0.007389 0.007389
0.007469 0.007469 0.007469
0.007550 0.007550 0.007550
0.007631 0.007631 0.007631
0.007713 0.007713 0.007713
0.007795 0.007795 0.007795
0.007878 0.007878 0.007878
0.007960 0.007960 0.007960
0.008044 0.008044 0.008044
0.008127 0.008127 0.008127
0.008212 0.008212 0.008212
0.008296 0.008296 0.008296
0.008381 0.008381 0.008381
0.008466 0.008466 0.008466
0.008552 0.008552 0.008552
0.008638 0.008638 0.008638
0.008725 0.008725 0.008725
0.008812 0.008812 0.008812
0.008899 0.008899 0.008899
0.008987 0.008987 0.008987
0.009075 0.009075 0.009075
0.009164 0.009164 0.009164
0.009253 0.009253 0.009253
0.009342 0.009342 0.009342
0.009432 0.009432 0.009432
0.009523 0.009523 0.009523
0.009613 0.009613 0.009613
0.009704 0.009704 0.009704
0.009796 0.009796 0.009796
0.009888 0.009888 0.009888
0.009980 0.009980 0.009980
0.010073 0.010073 0.010073
0.010166 0.010166 0.010166
0.010259 0.010259 0.010259
0.010353 0.010353 0.010353
0.010447 0.010447 0.010447
0.010542 0.010542 0.010542
0.010637 0.010637 0.010637
0.010733 0.010733 0.010733
0.010829 0.010829 0.010829
0.010925 0.010925 0.010925
0.011022 0.011022 0.011022
0.011119 0.011119 0.011119
0.011216 0.011216 0.011216
0.011314 0.011314 0.011314
0.011412 0.011412 0.011412
0.011511 0.011511 0.011511
0.011610 0.011610 0.011610
0.011710 0.011710 0.011710
0.011809 0.011809 0.011809
0.011910 0.011910 0.011910
0.012010 0.012010 0.012010
0.012112 0.012112 0.012112
0.012213 0.012213 0.012213
0.012315 0.012315 0.012315
0.012417 0.012417 0.012417
0.012520 0.012520 0.012520
0.012623 0.012623 0.012623
0.012726 0.012726 0.012726
0.012830 0.012830 0.012830
0.012934 0.012934 0.012934
0.013039 0.013039 0.013039
0.013144 0.013144 0.013144
0.013249 0.013249 0.013249
0.013355 0.013355 0.013355
0.013461 0.013461 0.013461
0.013568 0.013568 0.013568
0.013675 0.013675 0.013675
0.013782 0.013782 0.013782
0.013890 0.013890 0.013890
0.013998 0.013998 0.013998
0.014107 0.014107 0.014107
0.014216 0.014216 0.014216
0.014325 0.014325 0.014325
0.014435 0.014435 0.014435
0.014545 0.014545 0.014545
0.014655 0.014655 0.014655
0.014766 0.014766 0.014766
0.014877 0.014877 0.014877
0.014989 0.014989 0.014989
0.015101 0.015101 0.015101
0.015214 0.015214 0.015214
0.015326 0.015326 0.015326
0.015440 0.015440 0.015440
0.015553 0.015553 0.015553
0.015667 0.015667 0.015667
0.015781 0.015781 0.015781
0.015896 0.015896 0.015896
0.016011 0.016011 0.016011
0.016127 0.016127 0.016127
0.016243 0.016243 0.016243
0.016359 0.016359 0.016359
0.016476 0.016476 0.016476
0.016593 0.016593 0.016593
0.016710 0.016710 0.016710
0.016828 0.016828 0.016828
0.016946 0.016946 0.016946
0.017065 0.017065 0.017065
0.017183 0.017183 0.017183
0.017303 0.017303 0.017303
0.017422 0.017422 0.017422
0.017543 0.017543 0.017543
0.017663 0.017663 0.017663
0.017784 0.017784 0.017784
0.017905 0.017905 0.017905
0.018027 0.018027 0.018027
0.018149 0.018149 0.018149
0.018271 0.018271 0.018271
0.018394 0.018394 0.018394
0.018517 0.018517 0.018517
0.018640 0.018640 0.018640
0.018764 0.018764 0.018764
0.018888 0.018888 0.018888
0.019013 0.019013 0.019013
0.019138 0.019138 0.019138
0.019263 0.019263 0.019263
0.019389 0.019389 0.019389
0.019515 0.019515 0.019515
0.019641 0.019641 0.019641
0.019768 0.019768 0.019768
0.019895 0.019895 0.019895
0.020023 0.020023 0.020023
0.020151 0.020151 0.020151
0.020279 0.020279 0.020279
0.020408 0.020408 0.020408
0.020537 0.020537 0.020537
0.020666 0.020666 0.020666
0.020796 0.020796 0.020796
0.020926 0.020926 0.020926
0.021057 0.021057 0.021057
0.021188 0.021188 0.021188
0.021319 0.021319 0.021319
0.021451 0.021451 0.021451
0.021583 0.021583 0.021583
0.021715 0.021715 0.021715
0.021848 0.021848 0.021848
0.021981 0.021981 0.021981
0.022115 0.022115 0.022115
0.022248 0.022248 0.022248
0.022383 0.022383 0.022383
0.022517 0.022517 0.022517
0.022652 0.022652 0.022652
0.022788 0.022788 0.022788
0.022923 0.022923 0.022923
0.023059 0.023059 0.023059
0.023196 0.023196 0.023196
0.023332 0.023332 0.023332
0.023470 0.023470 0.023470
0.023607 0.023607 0.023607
0.023745 0.023745 0.023745
0.023883 0.023883 0.023883
0.024022 0.024022 0.024022
0.024161 0.024161 0.024161
0.024300 0.024300 0.024300
0.024440 0.024440 0.024440
0.024580 0.024580 0.024580
0.024720 0.024720 0.024720
0.024861 0.024861 0.024861
0.025002 0.025002 0.025002
0.025143 0.025143 0.025143
0.025285 0.025285 0.025285
0.025427 0.025427 0.025427
0.025570 0.025570 0.025570
0.025713 0.025713 0.025713
0.025856 0.025856 0.025856
0.026000 0.026000 0.026000
0.026144 0.026144 0.026144
0.026288 0.026288 0.026288
0.026433 0.026433 0.026433
0.026578 0.026578 0.026578
0.026723 0.026723 0.026723
0.026869 0.026869 0.026869
0.027015 0.027015 0.027015
0.027161 0.027161 0.027161
0.027308 0.027308 0.027308
0.027455 0.027455 0.027455
0.027603 0.027603 0.027603
0.027751 0.027751 0.027751
0.027899 0.027899 0.027899
0.028047 0.028047 0.028047
0.028196 0.028196 0.028196
0.028346 0.028346 0.028346
0.028495 0.028495 0.028495
0.028645 0.028645 0.028645
0.028796 0.028796 0.028796
0.028946 0.028946 0.028946
0.029097 0.029097 0.029097
0.029249 0.029249 0.029249
0.029400 0.029400 0.029400
0.029552 0.029552 0.029552
0.029705 0.029705 0.029705
0.029858 0.029858 0.029858
0.030011 0.030011 0.030011
0.030164 0.030164 0.030164
0.030318 0.030318 0.030318
0.030472 0.030472 0.030472
0.030627 0.030627 0.030627
0.030782 0.030782 0.030782
0.030937 0.030937 0.030937
0.031092 0.031092 0.031092
0.031248 0.031248 0.031248
0.031404 0.031404 0.031404
0.031561 0.031561 0.031561
0.031718 0.031718 0.031718
0.031875 0.031875 0.031875
0.032033 0.032033 0.032033
0.032191 0.032191 0.032191
0.032349 0.032349 0.032349
0.032508 0.032508 0.032508
0.032667 0.032667 0.032667
0.032826 0.032826 0.032826
0.032985 0.032985 0.032985
0.033145 0.033145 0.033145
0.033306 0.033306 0.033306
0.033466 0.033466 0.033466
0.033627 0.033627 0.033627
0.033789 0.033789 0.033789
0.033951 0.033951 0.033951
0.034113 0.034113 0.034113
0.034275 0.034275 0.034275
0.034438 0.034438 0.034438
0.034601 0.034601 0.034601
0.034764 0.034764 0.034764
0.034928 0.034928 0.034928
0.035092 0.035092 0.035092
0.035256 0.035256 0.035256
0.035421 0.035421 0.035421
0.035586 0.035586 0.035586
0.035751 0.035751 0.035751
0.035917 0.035917 0.035917
0.036083 0.036083 0.036083
0.036249 0.036249 0.036249
0.036416 0.036416 0.036416
0.036583 0.036583 0.036583
0.036751 0.036751 0.036751
0.036918 0.036918 0.036918
0.037086 0.037086 0.037086
0.037255 0.037255 0.037255
0.037423 0.037423 0.037423
0.037593 0.037593 0.037593
0.037762 0.037762 0.037762
0.037932 0.037932 0.037932
0.038102 0.038102 0.038102
0.038272 0.038272 0.038272
0.038443 0.038443 0.038443
0.038614 0.038614 0.038614
0.038785 0.038785 0.038785
0.038957 0.038957 0.038957
0.039129 0.039129 0.039129
0.039301 0.039301 0.039301
0.039474 0.039474 0.039474
0.039647 0.039647 0.039647
0.039820 0.039820 0.039820
0.039994 0.039994 0.039994
0.040168 0.040168 0.040168
0.040342 0.040342 0.040342
0.040517 0.040517 0.040517
0.040692 0.040692 0.040692
0.040867 0.040867 0.040867
0.041042 0.041042 0.041042
0.041218 0.041218 0.041218
0.041395 0.041395 0.041395
0.041571 0.041571 0.041571
0.041748 0.041748 0.041748
0.041925 0.041925 0.041925
0.042103 0.042103 0.042103
0.042281 0.042281 0.042281
0.042459 0.042459 0.042459
0.042637 0.042637 0.042637
0.042816 0.042816 0.042816
0.042995 0.042995 0.042995
0.043175 0.043175 0.043175
0.043355 0.043355 0.043355
0.043535 0.043535 0.043535
0.043715 0.043715 0.043715
0.043896 0.043896 0.043896
0.044077 0.044077 0.044077
0.044258 0.044258 0.044258
0.044440 0.044440 0.044440
0.044622 0.044622 0.044622
0.044804 0.044804 0.044804
0.044987 0.044987 0.044987
0.045170 0.045170 0.045170
0.045353 0.045353 0.045353
0.045537 0.045537 0.045537
0.045720 0.045720 0.045720
0.045905 0.045905 0.045905
0.046089 0.046089 0.046089
0.046274 0.046274 0.046274
0.046459 0.046459 0.046459
0.046645 0.046645 0.046645
0.046830 0.046830 0.046830
0.047017 0.047017 0.047017
0.047203 0.047203 0.047203
0.047390 0.047390 0.047390
0.047577 0.047577 0.047577
0.047764 0.047764 0.047764
0.047952 0.047952 0.047952
0.048140 0.048140 0.048140
0.048328 0.048328 0.048328
0.048516 0.048516 0.048516
0.048705 0.048705 0.048705
0.048895 0.048895 0.048895
0.049084 0.049084 0.049084
0.049274 0.049274 0.049274
0.049464 0.049464 0.049464
0.049654 0.049654 0.049654
0.049845 0.049845 0.049845
0.050036 0.050036 0.050036
0.050228 0.050228 0.050228
0.050419 0.050419 0.050419
0.050611 0.050611 0.050611
0.050803 0.050803 0.050803
0.050996 0.050996 0.050996
0.051189 0.051189 0.051189
0.051382 0.051382 0.051382
0.051576 0.051576 0.051576
0.051769 0.051769 0.051769
0.051963 0.051963 0.051963
0.052158 0.052158 0.052158
0.052352 0.052352 0.052352
0.052547 0.052547 0.052547
0.052743 0.052743 0.052743
0.052938 0.052938 0.052938
0.053134 0.053134 0.053134
0.053330 0.053330 0.053330
0.053527 0.053527 0.053527
0.053724 0.053724 0.053724
0.053921 0.053921 0.053921
0.054118 0.054118 0.054118
0.054316 0.054316 0.054316
0.054514 0.054514 0.054514
0.054712 0.054712 0.054712
0.054911 0.054911 0.054911
0.055110 0.055110 0.055110
0.055309 0.055309 0.055309
0.055508 0.055508 0.055508
0.055708 0.055708 0.055708
0.055908 0.055908 0.055908
0.056109 0.056109 0.056109
0.056309 0.056309 0.056309
0.056510 0.056510 0.056510
0.056712 0.056712 0.056712
0.056913 0.056913 0.056913
0.057115 0.057115 0.057115
0.057317 0.057317 0.057317
0.057520 0.057520 0.057520
0.057722 0.057722 0.057722
0.057925 0.057925 0.057925
0.058129 0.058129 0.058129
0.058332 0.058332 0.058332
0.058536 0.058536 0.058536
0.058740 0.058740 0.058740
0.058945 0.058945 0.058945
0.059150 0.059150 0.059150
0.059355 0.059355 0.059355
0.059560 0.059560 0.059560
0.059766 0.059766 0.059766
0.059972 0.059972 0.059972
0.060178 0.060178 0.060178
0.060384 0.060384 0.060384
0.060591 0.060591 0.060591
0.060798 0.060798 0.060798
0.061006 0.061006 0.061006
0.061213 0.061213 0.061213
0.061421 0.061421 0.061421
0.061630 0.061630 0.061630
0.061838 0.061838 0.061838
0.062047 0.062047 0.062047
0.062256 0.062256 0.062256
0.062465 0.062465 0.062465
0.062675 0.062675 0.062675
0.062885 0.062885 0.062885
0.063095 0.063095 0.063095
0.063306 0.063306 0.063306
0.063517 0.063517 0.063517
0.063728 0.063728 0.063728
0.063939 0.063939 0.063939
0.064151 0.064151 0.064151
0.064363 0.064363 0.064363
0.064575 0.064575 0.064575
0.064787 0.064787 0.064787
0.065000 0.065000 0.065000
0.065213 0.065213 0.065213
0.065427 0.065427 0.065427
0.065640 0.065640 0.065640
0.065854 0.065854 0.065854
0.066068 0.066068 0.066068
0.066283 0.066283 0.066283
0.066497 0.066497 0.066497
0.066712 0.066712 0.066712
0.066928 0.066928 0.066928
0.067143 0.067143 0.067143
0.067359 0.067359 0.067359
0.067575 0.067575 0.067575
0.067792 0.067792 0.067792
0.068008 0.068008 0.068008
0.068225 0.068225 0.068225
0.068443 0.068443 0.068443
0.068660 0.068660 0.068660
0.068878 0.068878 0.068878
0.069096 0.069096 0.069096
0.069314 0.069314 0.069314
0.069533 0.069533 0.069533
0.069752 0.069752 0.069752
0.069971 0.069971 0.069971
0.070190 0.070190 0.070190
0.070410 0.070410 0.070410
0.070630 0.070630 0.070630
0.070850 0.070850 0.070850
0.071071 0.071071 0.071071
0.071291 0.071291 0.071291
0.071512 0.071512 0.071512
0.071734 0.071734 0.071734
0.071955 0.071955 0.071955
0.072177 0.072177 0.072177
0.072399 0.072399 0.072399
0.072622 0.072622 0.072622
0.072844 0.072844 0.072844
0.073067 0.073067 0.073067
0.073291 0.073291 0.073291
0.073514 0.073514 0.073514
0.073738 0.073738 0.073738
0.073962 0.073962 0.073962
0.074186 0.074186 0.074186
0.074411 0.074411 0.074411
0.074635 0.074635 0.074635
0.074860 0.074860 0.074860
0.075086 0.075086 0.075086
0.075311 0.075311 0.075311
0.075537 0.075537 0.075537
0.075763 0.075763 0.075763
0.075990 0.075990 0.075990
0.076216 0.076216 0.076216
0.076443 0.076443 0.076443
0.076670 0.076670 0.076670
0.076898 0.076898 0.076898
0.077126 0.077126 0.077126
0.077354 0.077354 0.077354
0.077582 0.077582 0.077582
0.077810 0.077810 0.077810
0.078039 0.078039 0.078039
0.078268 0.078268 0.078268
0.078497 0.078497 0.078497
0.078727 0.078727 0.078727
0.078956 0.078956 0.078956
0.079187 0.079187 0.079187
0.079417 0.079417 0.079417
0.079647 0.079647 0.079647
0.079878 0.079878 0.079878
0.080109 0.080109 0.080109
0.080341 0.080341 0.080341
0.080572 0.080572 0.080572
0.080804 0.080804 0.080804
0.081036 0.081036 0.081036
0.081268 0.081268 0.081268
0.081501 0.081501 0.081501
0.081734 0.081734 0.081734
0.081967 0.081967 0.081967
0.082200 0.082200 0.082200
0.082434 0.082434 0.082434
0.082668 0.082668 0.082668
0.082902 0.082902 0.082902
0.083136 0.083136 0.083136
0.083371 0.083371 0.083371
0.083606 0.083606 0.083606
0.083841 0.083841 0.083841
0.084076 0.084076 0.084076
0.084312 0.084312 0.084312
0.084548 0.084548 0.084548
0.084784 0.084784 0.084784
0.085020 0.085020 0.085020
0.085257 0.085257 0.085257
0.085494 0.085494 0.085494
0.085731 0.085731 0.085731
0.085969 0.085969 0.085969
0.086206 0.086206 0.086206
0.086444 0.086444 0.086444
0.086682 0.086682 0.086682
0.086920 0.086920 0.086920
0.087159 0.087159 0.087159
0.087398 0.087398 0.087398
0.087637 0.087637 0.087637
0.087876 0.087876 0.087876
0.088116 0.088116 0.088116
0.088356 0.088356 0.088356
0.088596 0.088596 0.088596
0.088836 0.088836 0.088836
0.089077 0.089077 0.089077
0.089318 0.089318 0.089318
0.089559 0.089559 0.089559
0.089800 0.089800 0.089800
0.090042 0.090042 0.090042
0.090284 0.090284 0.090284
0.090526 0.090526 0.090526
0.090768 0.090768 0.090768
0.091010 0.091010 0.091010
0.091253 0.091253 0.091253
0.091496 0.091496 0.091496
0.091739 0.091739 0.091739
0.091983 0.091983 0.091983
0.092227 0.092227 0.092227
0.092471 0.092471 0.092471
0.092715 0.092715 0.092715
0.092959 0.092959 0.092959
0.093204 0.093204 0.093204
0.093449 0.093449 0.093449
0.093694 0.093694 0.093694
0.093939 0.093939 0.093939
0.094185 0.094185 0.094185
0.094431 0.094431 0.094431
0.094677 0.094677 0.094677
0.094923 0.094923 0.094923
0.095170 0.095170 0.095170
0.095417 0.095417 0.095417
0.095664 0.095664 0.095664
0.095911 0.095911 0.095911
0.096158 0.096158 0.096158
0.096406 0.096406 0.096406
0.096654 0.096654 0.096654
0.096902 0.096902 0.096902
0.097151 0.097151 0.097151
0.097399 0.097399 0.097399
0.097648 0.097648 0.097648
0.097897 0.097897 0.097897
0.098147 0.098147 0.098147
0.098396 0.098396 0.098396
0.098646 0.098646 0.098646
0.098896 0.098896 0.098896
0.099147 0.099147 0.099147
0.099397 0.099397 0.099397
0.099648 0.099648 0.099648
0.099899 0.099899 0.099899
0.100150 0.100150 0.100150
0.100401 0.100401 0.100401
0.100653 0.100653 0.100653
0.100905 0.100905 0.100905
0.101157 0.101157 0.101157
0.101409 0.101409 0.101409
0.101662 0.101662 0.101662
0.101915 0.101915 0.101915
0.102168 0.102168 0.102168
0.102421 0.102421 0.102421
0.102674 0.102674 0.102674
0.102928 0.102928 0.102928
0.103182 0.103182 0.103182
0.103436 0.103436 0.103436
0.103691 0.103691 0.103691
0.103945 0.103945 0.103945
0.104200 0.104200 0.104200
0.104455 0.104455 0.104455
0.104710 0.104710 0.104710
0.104966 0.104966 0.104966
0.105221 0.105221 0.105221
0.105477 0.105477 0.105477
0.105733 0.105733 0.105733
0.105990 0.105990 0.105990
0.106246 0.106246 0.106246
0.106503 0.106503 0.106503
0.106760 0.106760 0.106760
0.107017 0.107017 0.107017
0.107275 0.107275 0.107275
0.107532 0.107532 0.107532
0.107790 0.107790 0.107790
0.108048 0.108048 0.108048
0.108307 0.108307 0.108307
0.108565 0.108565 0.108565
0.108824 0.108824 0.108824
0.109083 0.109083 0.109083
0.109342 0.109342 0.109342
0.109602 0.109602 0.109602
0.109861 0.109861 0.109861
0.110121 0.110121 0.110121
0.110381 0.110381 0.110381
0.110641 0.110641 0.110641
0.110902 0.110902 0.110902
0.111162 0.111162 0.111162
0.111423 0.111423 0.111423
0.111685 0.111685 0.111685
0.111946 0.111946 0.111946
0.112207 0.112207 0.112207
0.112469 0.112469 0.112469
0.112731 0.112731 0.112731
0.112993 0.112993 0.112993
0.113256 0.113256 0.113256
0.113518 0.113518 0.113518
0.113781 0.113781 0.113781
0.114044 0.114044 0.114044
0.114307 0.114307 0.114307
0.114571 0.114571 0.114571
0.114834 0.114834 0.114834
0.115098 0.115098 0.115098
0.115362 0.115362 0.115362
0.115626 0.115626 0.115626
0.115891 0.115891 0.115891
0.116156 0.116156 0.116156
0.116420 0.116420 0.116420
0.116685 0.116685 0.116685
0.116951 0.116951 0.116951
0.117216 0.117216 0.117216
0.117482 0.117482 0.117482
0.117748 0.117748 0.117748
0.118014 0.118014 0.118014
0.118280 0.118280 0.118280
0.118547 0.118547 0.118547
0.118813 0.118813 0.118813
0.119080 0.119080 0.119080
0.119347 0.119347 0.119347
0.119615 0.119615 0.119615
0.119882 0.119882 0.119882
0.120150 0.120150 0.120150
0.120418 0.120418 0.120418
0.120686 0.120686 0.120686
0.120954 0.120954 0.120954
0.121223 0.121223 0.121223
0.121492 0.121492 0.121492
0.121761 0.121761 0.121761
0.122030 0.122030 0.122030
0.122299 0.122299 0.122299
0.122569 0.122569 0.122569
0.122838 0.122838 0.122838
0.123108 0.123108 0.123108
0.123378 0.123378 0.123378
0.123649 0.123649 0.123649
0.123919 0.123919 0.123919
0.124190 0.124190 0.124190
0.124461 0.124461 0.124461
0.124732 0.124732 0.124732
0.125003 0.125003 0.125003
0.125275 0.125275 0.125275
0.125546 0.125546 0.125546
0.125818 0.125818 0.125818
0.126090 0.126090 0.126090
0.126362 0.126362 0.126362
0.126635 0.126635 0.126635
0.126907 0.126907 0.126907
0.127180 0.127180 0.127180
0.127453 0.127453 0.127453
0.127727 0.127727 0.127727
0.128000 0.128000 0.128000
0.128274 0.128274 0.128274
0.128547 0.128547 0.128547
0.128821 0.128821 0.128821
0.129096 0.129096 0.129096
0.129370 0.129370 0.129370
0.129644 0.129644 0.129644
0.129919 0.129919 0.129919
0.130194 0.130194 0.130194
0.130469 0.130469 0.130469
0.130745 0.130745 0.130745
0.131020 0.131020 0.131020
0.131296 0.131296 0.131296
0.131572 0.131572 0.131572
0.131848 0.131848 0.131848
0.132124 0.132124 0.132124
0.132400 0.132400 0.132400
0.132677 0.132677 0.132677
0.132954 0.132954 0.132954
0.133231 0.133231 0.133231
0.133508 0.133508 0.133508
0.133785 0.133785 0.133785
0.134063 0.134063 0.134063
0.134340 0.134340 0.134340
0.134618 0.134618 0.134618
0.134896 0.134896 0.134896
0.135175 0.135175 0.135175
0.135453 0.135453 0.135453
0.135732 0.135732 0.135732
0.136010 0.136010 0.136010
0.136289 0.136289 0.136289
0.136569 0.136569 0.136569
0.136848 0.136848 0.136848
0.137127 0.137127 0.137127
0.137407 0.137407 0.137407
0.137687 0.137687 0.137687
0.137967 0.137967 0.137967
0.138247 0.138247 0.138247
0.138528 0.138528 0.138528
0.138808 0.138808 0.138808
0.139089 0.139089 0.139089
0.139370 0.139370 0.139370
0.139651 0.139651 0.139651
0.139932 0.139932 0.139932
0.140214 0.140214 0.140214
0.140496 0.140496 0.140496
0.140777 0.140777 0.140777
0.141059 0.141059 0.141059
0.141342 0.141342 0.141342
0.141624 0.141624 0.141624
0.141906 0.141906 0.141906
0.142189 0.142189 0.142189
0.142472 0.142472 0.142472
0.142755 0.142755 0.142755
0.143038 0.143038 0.143038
0.143322 0.143322 0.143322
0.143605 0.143605 0.143605
0.143889 0.143889 0.143889
0.144173 0.144173 0.144173
0.144457 0.144457 0.144457
0.144741 0.144741 0.144741
0.145026 0.145026 0.145026
0.145310 0.145310 0.145310
0.145595 0.145595 0.145595
0.145880 0.145880 0.145880
