Shapers/Sigmoid.cube
# Sigmoid Shaper LUT
# Copyright (C) 2022 Jan Van Coppenolle

LUT_1D_SIZE 4096

DOMAIN_MIN 0.0 0.0 0.0
DOMAIN_MAX 1.0 1.0 1.0

0.002473 0.002473 0.002473
0.002480 0.002480 0.002480
0.002487 0.002487 0.002487
0.002494 0.002494 0.002494
0.002502 0.002502 0.002502
0.002509 0.002509 0.002509
0.002516 0.002516 0.002516
0.002524 0.002524 0.002524
0.002531 0.002531 0.002531
0.002539 0.002539 0.002539
0.002546 0.002546 0.002546
0.002553 0.002553 0.002553
0.002561 0.002561 0.002561
0.002568 0.002568 0.002568
0.002576 0.002576 0.002576
0.002583 0.002583 0.002583
0.002591 0.002591 0.002591
0.002599 0.002599 0.002599
0.002606 0.002606 0.002606
0.002614 0.002614 0.002614
0.002621 0.002621 0.002621
0.002629 0.002629 0.002629
0.002637 0.002637 0.002637
0.002645 0.002645 0.002645
0.002652 0.002652 0.002652
0.002660 0.002660 0.002660
0.002668 0.002668 0.002668
0.002676 0.002676 0.002676
0.002683 0.002683 0.002683
0.002691 0.002691 0.002691
0.002699 0.002699 0.002699
0.002707 0.002707 0.002707
0.002715 0.002715 0.002715
0.002723 0.002723 0.002723
0.002731 0.002731 0.002731
0.002739 0.002739 0.002739
0.002747 0.002747 0.002747
0.002755 0.002755 0.002755
0.002763 0.002763 0.002763
0.002771 0.002771 0.002771
0.002779 0.002779 0.002779
0.002787 0.002787 0.002787
0.002796 0.002796 0.002796
0.002804 0.002804 0.002804
0.002812 0.002812 0.002812
0.002820 0.002820 0.002820
0.002828 0.002828 0.002828
0.002837 0.002837 0.002837
0.002845 0.002845 0.002845
0.002853 0.002853 0.002853
0.002862 0.002862 0.002862
0.002870 0.002870 0.002870
0.002878 0.002878 0.002878
0.002887 0.002887 0.002887
0.002895 0.002895 0.002895
0.002904 0.002904 0.002904
0.002912 0.002912 0.002912
0.002921 0.002921 0.002921
0.002929 0.002929 0.002929
0.002938 0.002938 0.002938
0.002947 0.002947 0.002947
0.002955 0.002955 0.002955
0.002964 0.002964 0.002964
0.002972 0.002972 0.002972
0.002981 0.002981 0.002981
0.002990 0.002990 0.002990
0.002999 0.002999 0.002999
0.003007 0.003007 0.003007
0.003016 0.003016 0.003016
0.003025 0.003025 0.003025
0.003034 0.003034 0.003034
0.003043 0.003043 0.003043
0.003052 0.003052 0.003052
0.003061 0.003061 0.003061
0.003070 0.003070 0.003070
0.003079 0.003079 0.003079
0.003088 0.003088 0.003088
0.003097 0.003097 0.003097
0.003106 0.003106 0.003106
0.003115 0.003115 0.003115
0.003124 0.003124 0.003124
0.003133 0.003133 0.003133
0.003142 0.003142 0.003142
0.003151 0.003151 0.003151
0.003161 0.003161 0.003161
0.003170 0.003170 0.003170
0.003179 0.003179 0.003179
0.003188 0.003188 0.003188
0.003198 0.003198 0.003198
0.003207 0.003207 0.003207
0.003216 0.003216 0.003216
0.003226 0.003226 0.003226
0.003235 0.003235 0.003235
0.003245 0.003245 0.003245
0.003254 0.003254 0.003254
0.003264 0.003264 0.003264
0.003273 0.003273 0.003273
0.003283 0.003283 0.003283
0.003292 0.003292 0.003292
0.003302 0.003302 0.003302
0.003312 0.003312 0.003312
0.003321 0.003321 0.003321
0.003331 0.003331 0.003331
0.003341 0.003341 0.003341
0.003351 0.003351 0.003351
0.003360 0.003360 0.003360
0.003370 0.003370 0.003370
0.003380 0.003380 0.003380
0.003390 0.003390 0.003390
0.003400 0.003400 0.003400
0.003410 0.003410 0.003410
0.003420 0.003420 0.003420
0.003430 0.003430 0.003430
0.003440 0.003440 0.003440
0.003450 0.003450 0.003450
0.003460 0.003460 0.003460
0.003470 0.003470 0.003470
0.003480 0.003480 0.003480
0.003491 0.003491 0.003491
0.003501 0.003501 0.003501
0.003511 0.003511 0.003511
0.003521 0.003521 0.003521
0.003532 0.003532 0.003532
0.003542 0.003542 0.003542
0.003552 0.003552 0.003552
0.003563 0.003563 0.003563
0.003573 0.003573 0.003573
0.003583 0.003583 0.003583
0.003594 0.003594 0.003594
0.003604 0.003604 0.003604
0.003615 0.003615 0.003615
0.003626 0.003626 0.003626
0.003636 0.003636 0.003636
0.003647 0.003647 0.003647
0.003657 0.003657 0.003657
0.003668 0.003668 0.003668
0.003679 0.003679 0.003679
0.003690 0.003690 0.003690
0.003700 0.003700 0.003700
0.003711 0.003711 0.003711
0.003722 0.003722 0.003722
0.003733 0.003733 0.003733
0.003744 0.003744 0.003744
0.003755 0.003755 0.003755
0.003766 0.003766 0.003766
0.003777 0.003777 0.003777
0.003788 0.003788 0.003788
0.003799 0.003799 0.003799
0.003810 0.003810 0.003810
0.003821 0.003821 0.003821
0.003832 0.003832 0.003832
0.003844 0.003844 0.003844
0.003855 0.003855 0.003855
0.003866 0.003866 0.003866
0.003877 0.003877 0.003877
0.003889 0.003889 0.003889
0.003900 0.003900 0.003900
0.003911 0.003911 0.003911
0.003923 0.003923 0.003923
0.003934 0.003934 0.003934
0.003946 0.003946 0.003946
0.003957 0.003957 0.003957
0.003969 0.003969 0.003969
0.003981 0.003981 0.003981
0.003992 0.003992 0.003992
0.004004 0.004004 0.004004
0.004016 0.004016 0.004016
0.004027 0.004027 0.004027
0.004039 0.004039 0.004039
0.004051 0.004051 0.004051
0.004063 0.004063 0.004063
0.004075 0.004075 0.004075
0.004087 0.004087 0.004087
0.004098 0.004098 0.004098
0.004110 0.004110 0.004110
0.004122 0.004122 0.004122
0.004134 0.004134 0.004134
0.004147 0.004147 0.004147
0.004159 0.004159 0.004159
0.004171 0.004171 0.004171
0.004183 0.004183 0.004183
0.004195 0.004195 0.004195
0.004208 0.004208 0.004208
0.004220 0.004220 0.004220
0.004232 0.004232 0.004232
0.004245 0.004245 0.004245
0.004257 0.004257 0.004257
0.004269 0.004269 0.004269
0.004282 0.004282 0.004282
0.004294 0.004294 0.004294
0.004307 0.004307 0.004307
0.004319 0.004319 0.004319
0.004332 0.004332 0.004332
0.004345 0.004345 0.004345
0.004357 0.004357 0.004357
0.004370 0.004370 0.004370
0.004383 0.004383 0.004383
0.004396 0.004396 0.004396
0.004409 0.004409 0.004409
0.004421 0.004421 0.004421
0.004434 0.004434 0.004434
0.004447 0.004447 0.004447
0.004460 0.004460 0.004460
0.004473 0.004473 0.004473
0.004486 0.004486 0.004486
0.004500 0.004500 0.004500
0.004513 0.004513 0.004513
0.004526 0.004526 0.004526
0.004539 0.004539 0.004539
0.004552 0.004552 0.004552
0.004566 0.004566 0.004566
0.004579 0.004579 0.004579
0.004592 0.004592 0.004592
0.004606 0.004606 0.004606
0.004619 0.004619 0.004619
0.004633 0.004633 0.004633
0.004646 0.004646 0.004646
0.004660 0.004660 0.004660
0.004673 0.004673 0.004673
0.004687 0.004687 0.004687
0.004701 0.004701 0.004701
0.004715 0.004715 0.004715
0.004728 0.004728 0.004728
0.004742 0.004742 0.004742
0.004756 0.004756 0.004756
0.004770 0.004770 0.004770
0.004784 0.004784 0.004784
0.004798 0.004798 0.004798
0.004812 0.004812 0.004812
0.004826 0.004826 0.004826
0.004840 0.004840 0.004840
0.004854 0.004854 0.004854
0.004868 0.004868 0.004868
0.004882 0.004882 0.004882
0.004897 0.004897 0.004897
0.004911 0.004911 0.004911
0.004925 0.004925 0.004925
0.004940 0.004940 0.004940
0.004954 0.004954 0.004954
0.004969 0.004969 0.004969
0.004983 0.004983 0.004983
0.004998 0.004998 0.004998
0.005012 0.005012 0.005012
0.005027 0.005027 0.005027
0.005042 0.005042 0.005042
0.005056 0.005056 0.005056
0.005071 0.005071 0.005071
0.005086 0.005086 0.005086
0.005101 0.005101 0.005101
0.005116 0.005116 0.005116
0.005131 0.005131 0.005131
0.005146 0.005146 0.005146
0.005161 0.005161 0.005161
0.005176 0.005176 0.005176
0.005191 0.005191 0.005191
0.005206 0.005206 0.005206
0.005221 0.005221 0.005221
0.005236 0.005236 0.005236
0.005252 0.005252 0.005252
0.005267 0.005267 0.005267
0.005282 0.005282 0.005282
0.005298 0.005298 0.005298
0.005313 0.005313 0.005313
0.005329 0.005329 0.005329
0.005344 0.005344 0.005344
0.005360 0.005360 0.005360
0.005376 0.005376 0.005376
0.005391 0.005391 0.005391
0.005407 0.005407 0.005407
0.005423 0.005423 0.005423
0.005439 0.005439 0.005439
0.005454 0.005454 0.005454
0.005470 0.005470 0.005470
0.005486 0.005486 0.005486
0.005502 0.005502 0.005502
0.005518 0.005518 0.005518
0.005534 0.005534 0.005534
0.005551 0.005551 0.005551
0.005567 0.005567 0.005567
0.005583 0.005583 0.005583
0.005599 0.005599 0.005599
0.005616 0.005616 0.005616
0.005632 0.005632 0.005632
0.005649 0.005649 0.005649
0.005665 0.005665 0.005665
0.005682 0.005682 0.005682
0.005698 0.005698 0.005698
0.005715 0.005715 0.005715
0.005731 0.005731 0.005731
0.005748 0.005748 0.005748
0.005765 0.005765 0.005765
0.005782 0.005782 0.005782
0.005799 0.005799 0.005799
0.005816 0.005816 0.005816
0.005832 0.005832 0.005832
0.005850 0.005850 0.005850
0.005867 0.005867 0.005867
0.005884 0.005884 0.005884
0.005901 0.005901 0.005901
0.005918 0.005918 0.005918
0.005935 0.005935 0.005935
0.005953 0.005953 0.005953
0.005970 0.005970 0.005970
0.005987 0.005987 0.005987
0.006005 0.006005 0.006005
0.006022 0.006022 0.006022
0.006040 0.006040 0.006040
0.006058 0.006058 0.006058
0.006075 0.006075 0.006075
0.006093 0.006093 0.006093
0.006111 0.006111 0.006111
0.006129 0.006129 0.006129
0.006146 0.006146 0.006146
0.006164 0.006164 0.006164
0.006182 0.006182 0.006182
0.006200 0.006200 0.006200
0.006218 0.006218 0.006218
0.006237 0.006237 0.006237
0.006255 0.006255 0.006255
0.006273 0.006273 0.006273
0.006291 0.006291 0.006291
0.006310 0.006310 0.006310
0.006328 0.006328 0.006328
0.006347 0.006347 0.006347
0.006365 0.006365 0.006365
0.006384 0.006384 0.006384
0.006402 0.006402 0.006402
0.006421 0.006421 0.006421
0.006440 0.006440 0.006440
0.006458 0.006458 0.006458
0.006477 0.006477 0.006477
0.006496 0.006496 0.006496
0.006515 0.006515 0.006515
0.006534 0.006534 0.006534
0.006553 0.006553 0.006553
0.006572 0.006572 0.006572
0.006591 0.006591 0.006591
0.006611 0.006611 0.006611
0.006630 0.006630 0.006630
0.006649 0.006649 0.006649
0.006669 0.006669 0.006669
0.006688 0.006688 0.006688
0.006707 0.006707 0.006707
0.006727 0.006727 0.006727
0.006747 0.006747 0.006747
0.006766 0.006766 0.006766
0.006786 0.006786 0.006786
0.006806 0.006806 0.006806
0.006826 0.006826 0.006826
0.006846 0.006846 0.006846
0.006865 0.006865 0.006865
0.006885 0.006885 0.006885
0.006906 0.006906 0.006906
0.006926 0.006926 0.006926
0.006946 0.006946 0.006946
0.006966 0.006966 0.006966
0.006986 0.006986 0.006986
0.007007 0.007007 0.007007
0.007027 0.007027 0.007027
0.007048 0.007048 0.007048
0.007068 0.007068 0.007068
0.007089 0.007089 0.007089
0.007109 0.007109 0.007109
0.007130 0.007130 0.007130
0.007151 0.007151 0.007151
0.007172 0.007172 0.007172
0.007193 0.007193 0.007193
0.007214 0.007214 0.007214
0.007235 0.007235 0.007235
0.007256 0.007256 0.007256
0.007277 0.007277 0.007277
0.007298 0.007298 0.007298
0.007319 0.007319 0.007319
0.007341 0.007341 0.007341
0.007362 0.007362 0.007362
0.007383 0.007383 0.007383
0.007405 0.007405 0.007405
0.007427 0.007427 0.007427
0.007448 0.007448 0.007448
0.007470 0.007470 0.007470
0.007492 0.007492 0.007492
0.007513 0.007513 0.007513
0.007535 0.007535 0.007535
0.007557 0.007557 0.007557
0.007579 0.007579 0.007579
0.007601 0.007601 0.007601
0.007624 0.007624 0.007624
0.007646 0.007646 0.007646
0.007668 0.007668 0.007668
0.007690 0.007690 0.007690
0.007713 0.007713 0.007713
0.007735 0.007735 0.007735
0.007758 0.007758 0.007758
0.007780 0.007780 0.007780
0.007803 0.007803 0.007803
0.007826 0.007826 0.007826
0.007848 0.007848 0.007848
0.007871 0.007871 0.007871
0.007894 0.007894 0.007894
0.007917 0.007917 0.007917
0.007940 0.007940 0.007940
0.007963 0.007963 0.007963
0.007987 0.007987 0.007987
0.008010 0.008010 0.008010
0.008033 0.008033 0.008033
0.008057 0.008057 0.008057
0.008080 0.008080 0.008080
0.008103 0.008103 0.008103
0.008127 0.008127 0.008127
0.008151 0.008151 0.008151
0.008174 0.008174 0.008174
0.008198 0.008198 0.008198
0.008222 0.008222 0.008222
0.008246 0.008246 0.008246
0.008270 0.008270 0.008270
0.008294 0.008294 0.008294
0.008318 0.008318 0.008318
0.008342 0.008342 0.008342
0.008367 0.008367 0.008367
0.008391 0.008391 0.008391
0.008415 0.008415 0.008415
0.008440 0.008440 0.008440
0.008465 0.008465 0.008465
0.008489 0.008489 0.008489
0.008514 0.008514 0.008514
0.008539 0.008539 0.008539
0.008563 0.008563 0.008563
0.008588 0.008588 0.008588
0.008613 0.008613 0.008613
0.008638 0.008638 0.008638
0.008664 0.008664 0.008664
0.008689 0.008689 0.008689
0.008714 0.008714 0.008714
0.008739 0.008739 0.008739
0.008765 0.008765 0.008765
0.008790 0.008790 0.008790
0.008816 0.008816 0.008816
0.008842 0.008842 0.008842
0.008867 0.008867 0.008867
0.008893 0.008893 0.008893
0.008919 0.008919 0.008919
0.008945 0.008945 0.008945
0.008971 0.008971 0.008971
0.008997 0.008997 0.008997
0.009023 0.009023 0.009023
0.009049 0.009049 0.009049
0.009076 0.009076 0.009076
0.009102 0.009102 0.009102
0.009129 0.009129 0.009129
0.009155 0.009155 0.009155
0.009182 0.009182 0.009182
0.009208 0.009208 0.009208
0.009235 0.009235 0.009235
0.009262 0.009262 0.009262
0.009289 0.009289 0.009289
0.009316 0.009316 0.009316
0.009343 0.009343 0.009343
0.009370 0.009370 0.009370
0.009397 0.009397 0.009397
0.009425 0.009425 0.009425
0.009452 0.009452 0.009452
0.009480 0.009480 0.009480
0.009507 0.009507 0.009507
0.009535 0.009535 0.009535
0.009563 0.009563 0.009563
0.009590 0.009590 0.009590
0.009618 0.009618 0.009618
0.009646 0.009646 0.009646
0.009674 0.009674 0.009674
0.009702 0.009702 0.009702
0.009731 0.009731 0.009731
0.009759 0.009759 0.009759
0.009787 0.009787 0.009787
0.009816 0.009816 0.009816
0.009844 0.009844 0.009844
0.009873 0.009873 0.009873
0.009901 0.009901 0.009901
0.009930 0.009930 0.009930
0.009959 0.009959 0.009959
0.009988 0.009988 0.009988
0.010017 0.010017 0.010017
0.010046 0.010046 0.010046
0.010075 0.010075 0.010075
0.010105 0.010105 0.010105
0.010134 0.010134 0.010134
0.010163 0.010163 0.010163
0.010193 0.010193 0.010193
0.010222 0.010222 0.010222
0.010252 0.010252 0.010252
0.010282 0.010282 0.010282
0.010312 0.010312 0.010312
0.010342 0.010342 0.010342
0.010372 0.010372 0.010372
0.010402 0.010402 0.010402
0.010432 0.010432 0.010432
0.010462 0.010462 0.010462
0.010493 0.010493 0.010493
0.010523 0.010523 0.010523
0.010554 0.010554 0.010554
0.010584 0.010584 0.010584
0.010615 0.010615 0.010615
0.010646 0.010646 0.010646
0.010677 0.010677 0.010677
0.010708 0.010708 0.010708
0.010739 0.010739 0.010739
0.010770 0.010770 0.010770
0.010801 0.010801 0.010801
0.010833 0.010833 0.010833
0.010864 0.010864 0.010864
0.010896 0.010896 0.010896
0.010927 0.010927 0.010927
0.010959 0.010959 0.010959
0.010991 0.010991 0.010991
0.011023 0.011023 0.011023
0.011055 0.011055 0.011055
0.011087 0.011087 0.011087
0.011119 0.011119 0.011119
0.011151 0.011151 0.011151
0.011184 0.011184 0.011184
0.011216 0.011216 0.011216
0.011249 0.011249 0.011249
0.011281 0.011281 0.011281
0.011314 0.011314 0.011314
0.011347 0.011347 0.011347
0.011380 0.011380 0.011380
0.011413 0.011413 0.011413
0.011446 0.011446 0.011446
0.011479 0.011479 0.011479
0.011512 0.011512 0.011512
0.011546 0.011546 0.011546
0.011579 0.011579 0.011579
0.011613 0.011613 0.011613
0.011647 0.011647 0.011647
0.011680 0.011680 0.011680
0.011714 0.011714 0.011714
0.011748 0.011748 0.011748
0.011782 0.011782 0.011782
0.011816 0.011816 0.011816
0.011851 0.011851 0.011851
0.011885 0.011885 0.011885
0.011920 0.011920 0.011920
0.011954 0.011954 0.011954
0.011989 0.011989 0.011989
0.012024 0.012024 0.012024
0.012058 0.012058 0.012058
0.012093 0.012093 0.012093
0.012128 0.012128 0.012128
0.012164 0.012164 0.012164
0.012199 0.012199 0.012199
0.012234 0.012234 0.012234
0.012270 0.012270 0.012270
0.012305 0.012305 0.012305
0.012341 0.012341 0.012341
0.012377 0.012377 0.012377
0.012413 0.012413 0.012413
0.012449 0.012449 0.012449
0.012485 0.012485 0.012485
0.012521 0.012521 0.012521
0.012557 0.012557 0.012557
0.012593 0.012593 0.012593
0.012630 0.012630 0.012630
0.012667 0.012667 0.012667
0.012703 0.012703 0.012703
0.012740 0.012740 0.012740
0.012777 0.012777 0.012777
0.012814 0.012814 0.012814
0.012851 0.012851 0.012851
0.012888 0.012888 0.012888
0.012926 0.012926 0.012926
0.012963 0.012963 0.012963
0.013001 0.013001 0.013001
0.013038 0.013038 0.013038
0.013076 0.013076 0.013076
0.013114 0.013114 0.013114
0.013152 0.013152 0.013152
0.013190 0.013190 0.013190
0.013228 0.013228 0.013228
0.013267 0.013267 0.013267
0.013305 0.013305 0.013305
0.013343 0.013343 0.013343
0.013382 0.013382 0.013382
0.013421 0.013421 0.013421
0.013460 0.013460 0.013460
0.013499 0.013499 0.013499
0.013538 0.013538 0.013538
0.013577 0.013577 0.013577
0.013616 0.013616 0.013616
0.013656 0.013656 0.013656
0.013695 0.013695 0.013695
0.013735 0.013735 0.013735
0.013775 0.013775 0.013775
0.013814 0.013814 0.013814
0.013854 0.013854 0.013854
0.013894 0.013894 0.013894
0.013935 0.013935 0.013935
0.013975 0.013975 0.013975
0.014015 0.014015 0.014015
0.014056 0.014056 0.014056
0.014097 0.014097 0.014097
0.014137 0.014137 0.014137
0.014178 0.014178 0.014178
0.014219 0.014219 0.014219
0.014261 0.014261 0.014261
0.014302 0.014302 0.014302
0.014343 0.014343 0.014343
0.014385 0.014385 0.014385
0.014426 0.014426 0.014426
0.014468 0.014468 0.014468
0.014510 0.014510 0.014510
0.014552 0.014552 0.014552
0.014594 0.014594 0.014594
0.014636 0.014636 0.014636
0.014678 0.014678 0.014678
0.014721 0.014721 0.014721
0.014763 0.014763 0.014763
0.014806 0.014806 0.014806
0.014849 0.014849 0.014849
0.014892 0.014892 0.014892
0.014935 0.014935 0.014935
0.014978 0.014978 0.014978
0.015021 0.015021 0.015021
0.015065 0.015065 0.015065
0.015108 0.015108 0.015108
0.015152 0.015152 0.015152
0.015196 0.015196 0.015196
0.015240 0.015240 0.015240
0.015284 0.015284 0.015284
0.015328 0.015328 0.015328
0.015372 0.015372 0.015372
0.015417 0.015417 0.015417
0.015461 0.015461 0.015461
0.015506 0.015506 0.015506
0.015551 0.015551 0.015551
0.015595 0.015595 0.015595
0.015641 0.015641 0.015641
0.015686 0.015686 0.015686
0.015731 0.015731 0.015731
0.015776 0.015776 0.015776
0.015822 0.015822 0.015822
0.015868 0.015868 0.015868
0.015914 0.015914 0.015914
0.015960 0.015960 0.015960
0.016006 0.016006 0.016006
0.016052 0.016052 0.016052
0.016098 0.016098 0.016098
0.016145 0.016145 0.016145
0.016191 0.016191 0.016191
0.016238 0.016238 0.016238
0.016285 0.016285 0.016285
0.016332 0.016332 0.016332
0.016379 0.016379 0.016379
0.016426 0.016426 0.016426
0.016474 0.016474 0.016474
0.016521 0.016521 0.016521
0.016569 0.016569 0.016569
0.016617 0.016617 0.016617
0.016665 0.016665 0.016665
0.016713 0.016713 0.016713
0.016761 0.016761 0.016761
0.016809 0.016809 0.016809
0.016858 0.016858 0.016858
0.016907 0.016907 0.016907
0.016955 0.016955 0.016955
0.017004 0.017004 0.017004
0.017053 0.017053 0.017053
0.017102 0.017102 0.017102
0.017152 0.017152 0.017152
0.017201 0.017201 0.017201
0.017251 0.017251 0.017251
0.017301 0.017301 0.017301
0.017351 0.017351 0.017351
0.017401 0.017401 0.017401
0.017451 0.017451 0.017451
0.017501 0.017501 0.017501
0.017552 0.017552 0.017552
0.017602 0.017602 0.017602
0.017653 0.017653 0.017653
0.017704 0.017704 0.017704
0.017755 0.017755 0.017755
0.017806 0.017806 0.017806
0.017857 0.017857 0.017857
0.017909 0.017909 0.017909
0.017960 0.017960 0.017960
0.018012 0.018012 0.018012
0.018064 0.018064 0.018064
0.018116 0.018116 0.018116
0.018168 0.018168 0.018168
0.018221 0.018221 0.018221
0.018273 0.018273 0.018273
0.018326 0.018326 0.018326
0.018379 0.018379 0.018379
0.018431 0.018431 0.018431
0.018485 0.018485 0.018485
0.018538 0.018538 0.018538
0.018591 0.018591 0.018591
0.018645 0.018645 0.018645
0.018698 0.018698 0.018698
0.018752 0.018752 0.018752
0.018806 0.018806 0.018806
0.018860 0.018860 0.018860
0.018915 0.018915 0.018915
0.018969 0.018969 0.018969
0.019024 0.019024 0.019024
0.019079 0.019079 0.019079
0.019133 0.019133 0.019133
0.019189 0.019189 0.019189
0.019244 0.019244 0.019244
0.019299 0.019299 0.019299
0.019355 0.019355 0.019355
0.019410 0.019410 0.019410
0.019466 0.019466 0.019466
0.019522 0.019522 0.019522
0.019578 0.019578 0.019578
0.019635 0.019635 0.019635
0.019691 0.019691 0.019691
0.019748 0.019748 0.019748
0.019805 0.019805 0.019805
0.019862 0.019862 0.019862
0.019919 0.019919 0.019919
0.019976 0.019976 0.019976
0.020034 0.020034 0.020034
0.020091 0.020091 0.020091
0.020149 0.020149 0.020149
0.020207 0.020207 0.020207
0.020265 0.020265 0.020265
0.020323 0.020323 0.020323
0.020382 0.020382 0.020382
0.020440 0.020440 0.020440
0.020499 0.020499 0.020499
0.020558 0.020558 0.020558
0.020617 0.020617 0.020617
0.020676 0.020676 0.020676
0.020736 0.020736 0.020736
0.020795 0.020795 0.020795
0.020855 0.020855 0.020855
0.020915 0.020915 0.020915
0.020975 0.020975 0.020975
0.021035 0.021035 0.021035
0.021096 0.021096 0.021096
0.021156 0.021156 0.021156
0.021217 0.021217 0.021217
0.021278 0.021278 0.021278
0.021339 0.021339 0.021339
0.021400 0.021400 0.021400
0.021462 0.021462 0.021462
0.021524 0.021524 0.021524
0.021585 0.021585 0.021585
0.021647 0.021647 0.021647
0.021709 0.021709 0.021709
0.021772 0.021772 0.021772
0.021834 0.021834 0.021834
0.021897 0.021897 0.021897
0.021960 0.021960 0.021960
0.022023 0.022023 0.022023
0.022086 0.022086 0.022086
0.022149 0.022149 0.022149
0.022213 0.022213 0.022213
0.022277 0.022277 0.022277
0.022341 0.022341 0.022341
0.022405 0.022405 0.022405
0.022469 0.022469 0.022469
0.022533 0.022533 0.022533
0.022598 0.022598 0.022598
0.022663 0.022663 0.022663
0.022728 0.022728 0.022728
0.022793 0.022793 0.022793
0.022858 0.022858 0.022858
0.022924 0.022924 0.022924
0.022990 0.022990 0.022990
0.023056 0.023056 0.023056
0.023122 0.023122 0.023122
0.023188 0.023188 0.023188
0.023254 0.023254 0.023254
0.023321 0.023321 0.023321
0.023388 0.023388 0.023388
0.023455 0.023455 0.023455
0.023522 0.023522 0.023522
0.023590 0.023590 0.023590
0.023657 0.023657 0.023657
0.023725 0.023725 0.023725
0.023793 0.023793 0.023793
0.023861 0.023861 0.023861
0.023929 0.023929 0.023929
0.023998 0.023998 0.023998
0.024067 0.024067 0.024067
0.024136 0.024136 0.024136
0.024205 0.024205 0.024205
0.024274 0.024274 0.024274
0.024344 0.024344 0.024344
0.024413 0.024413 0.024413
0.024483 0.024483 0.024483
0.024553 0.024553 0.024553
0.024624 0.024624 0.024624
0.024694 0.024694 0.024694
0.024765 0.024765 0.024765
0.024836 0.024836 0.024836
0.024907 0.024907 0.024907
0.024978 0.024978 0.024978
0.025049 0.025049 0.025049
0.025121 0.025121 0.025121
0.025193 0.025193 0.025193
0.025265 0.025265 0.025265
0.025337 0.025337 0.025337
0.025410 0.025410 0.025410
0.025482 0.025482 0.025482
0.025555 0.025555 0.025555
0.025628 0.025628 0.025628
0.025702 0.025702 0.025702
0.025775 0.025775 0.025775
0.025849 0.025849 0.025849
0.025923 0.025923 0.025923
0.025997 0.025997 0.025997
0.026071 0.026071 0.026071
0.026146 0.026146 0.026146
0.026220 0.026220 0.026220
0.026295 0.026295 0.026295
0.026370 0.026370 0.026370
0.026446 0.026446 0.026446
0.026521 0.026521 0.026521
0.026597 0.026597 0.026597
0.026673 0.026673 0.026673
0.026749 0.026749 0.026749
0.026826 0.026826 0.026826
0.026902 0.026902 0.026902
0.026979 0.026979 0.026979
0.027056 0.027056 0.027056
0.027133 0.027133 0.027133
0.027211 0.027211 0.027211
0.027288 0.027288 0.027288
0.027366 0.027366 0.027366
0.027444 0.027444 0.027444
0.027523 0.027523 0.027523
0.027601 0.027601 0.027601
0.027680 0.027680 0.027680
0.027759 0.027759 0.027759
0.027838 0.027838 0.027838
0.027918 0.027918 0.027918
0.027997 0.027997 0.027997
0.028077 0.028077 0.028077
0.028157 0.028157 0.028157
0.028237 0.028237 0.028237
0.028318 0.028318 0.028318
0.028399 0.028399 0.028399
0.028480 0.028480 0.028480
0.028561 0.028561 0.028561
0.028642 0.028642 0.028642
0.028724 0.028724 0.028724
0.028806 0.028806 0.028806
0.028888 0.028888 0.028888
0.028970 0.028970 0.028970
0.029053 0.029053 0.029053
0.029136 0.029136 0.029136
0.029219 0.029219 0.029219
0.029302 0.029302 0.029302
0.029385 0.029385 0.029385
0.029469 0.029469 0.029469
0.029553 0.029553 0.029553
0.029637 0.029637 0.029637
0.029721 0.029721 0.029721
0.029806 0.029806 0.029806
0.029891 0.029891 0.029891
0.029976 0.029976 0.029976
0.030061 0.030061 0.030061
0.030147 0.030147 0.030147
0.030233 0.030233 0.030233
0.030319 0.030319 0.030319
0.030405 0.030405 0.030405
0.030492 0.030492 0.030492
0.030578 0.030578 0.030578
0.030665 0.030665 0.030665
0.030752 0.030752 0.030752
0.030840 0.030840 0.030840
0.030928 0.030928 0.030928
0.031016 0.031016 0.031016
0.031104 0.031104 0.031104
0.031192 0.031192 0.031192
0.031281 0.031281 0.031281
0.031370 0.031370 0.031370
0.031459 0.031459 0.031459
0.031548 0.031548 0.031548
0.031638 0.031638 0.031638
0.031728 0.031728 0.031728
0.031818 0.031818 0.031818
0.031909 0.031909 0.031909
