Shapers/SofterLight.cube
# SofterLight Shaper LUT
# Copyright (C) 2022 Jan Van Coppenolle

LUT_1D_SIZE 4096

DOMAIN_MIN 0.0 0.0 0.0
DOMAIN_MAX 1.0 1.0 1.0

0.000000 0.000000 0.000000
0.000122 0.000122 0.000122
0.000245 0.000245 0.000245
0.000367 0.000367 0.000367
0.000490 0.000490 0.000490
0.000613 0.000613 0.000613
0.000736 0.000736 0.000736
0.000859 0.000859 0.000859
0.000983 0.000983 0.000983
0.001106 0.001106 0.001106
0.001230 0.001230 0.001230
0.001354 0.001354 0.001354
0.001478 0.001478 0.001478
0.001602 0.001602 0.001602
0.001727 0.001727 0.001727
0.001852 0.001852 0.001852
0.001976 0.001976 0.001976
0.002101 0.002101 0.002101
0.002227 0.002227 0.002227
0.002352 0.002352 0.002352
0.002478 0.002478 0.002478
0.002603 0.002603 0.002603
0.002729 0.002729 0.002729
0.002855 0.002855 0.002855
0.002982 0.002982 0.002982
0.003108 0.003108 0.003108
0.003235 0.003235 0.003235
0.003362 0.003362 0.003362
0.003489 0.003489 0.003489
0.003616 0.003616 0.003616
0.003743 0.003743 0.003743
0.003871 0.003871 0.003871
0.003998 0.003998 0.003998
0.004126 0.004126 0.004126
0.004254 0.004254 0.004254
0.004382 0.004382 0.004382
0.004511 0.004511 0.004511
0.004639 0.004639 0.004639
0.004768 0.004768 0.004768
0.004897 0.004897 0.004897
0.005026 0.005026 0.005026
0.005155 0.005155 0.005155
0.005285 0.005285 0.005285
0.005415 0.005415 0.005415
0.005544 0.005544 0.005544
0.005674 0.005674 0.005674
0.005804 0.005804 0.005804
0.005935 0.005935 0.005935
0.006065 0.006065 0.006065
0.006196 0.006196 0.006196
0.006327 0.006327 0.006327
0.006458 0.006458 0.006458
0.006589 0.006589 0.006589
0.006720 0.006720 0.006720
0.006852 0.006852 0.006852
0.006984 0.006984 0.006984
0.007116 0.007116 0.007116
0.007248 0.007248 0.007248
0.007380 0.007380 0.007380
0.007512 0.007512 0.007512
0.007645 0.007645 0.007645
0.007778 0.007778 0.007778
0.007911 0.007911 0.007911
0.008044 0.008044 0.008044
0.008177 0.008177 0.008177
0.008310 0.008310 0.008310
0.008444 0.008444 0.008444
0.008578 0.008578 0.008578
0.008712 0.008712 0.008712
0.008846 0.008846 0.008846
0.008980 0.008980 0.008980
0.009115 0.009115 0.009115
0.009249 0.009249 0.009249
0.009384 0.009384 0.009384
0.009519 0.009519 0.009519
0.009655 0.009655 0.009655
0.009790 0.009790 0.009790
0.009925 0.009925 0.009925
0.010061 0.010061 0.010061
0.010197 0.010197 0.010197
0.010333 0.010333 0.010333
0.010469 0.010469 0.010469
0.010606 0.010606 0.010606
0.010742 0.010742 0.010742
0.010879 0.010879 0.010879
0.011016 0.011016 0.011016
0.011153 0.011153 0.011153
0.011290 0.011290 0.011290
0.011428 0.011428 0.011428
0.011565 0.011565 0.011565
0.011703 0.011703 0.011703
0.011841 0.011841 0.011841
0.011979 0.011979 0.011979
0.012117 0.012117 0.012117
0.012256 0.012256 0.012256
0.012394 0.012394 0.012394
0.012533 0.012533 0.012533
0.012672 0.012672 0.012672
0.012811 0.012811 0.012811
0.012950 0.012950 0.012950
0.013090 0.013090 0.013090
0.013230 0.013230 0.013230
0.013369 0.013369 0.013369
0.013509 0.013509 0.013509
0.013650 0.013650 0.013650
0.013790 0.013790 0.013790
0.013930 0.013930 0.013930
0.014071 0.014071 0.014071
0.014212 0.014212 0.014212
0.014353 0.014353 0.014353
0.014494 0.014494 0.014494
0.014635 0.014635 0.014635
0.014777 0.014777 0.014777
0.014918 0.014918 0.014918
0.015060 0.015060 0.015060
0.015202 0.015202 0.015202
0.015345 0.015345 0.015345
0.015487 0.015487 0.015487
0.015629 0.015629 0.015629
0.015772 0.015772 0.015772
0.015915 0.015915 0.015915
0.016058 0.016058 0.016058
0.016201 0.016201 0.016201
0.016345 0.016345 0.016345
0.016488 0.016488 0.016488
0.016632 0.016632 0.016632
0.016776 0.016776 0.016776
0.016920 0.016920 0.016920
0.017064 0.017064 0.017064
0.017208 0.017208 0.017208
0.017353 0.017353 0.017353
0.017497 0.017497 0.017497
0.017642 0.017642 0.017642
0.017787 0.017787 0.017787
0.017933 0.017933 0.017933
0.018078 0.018078 0.018078
0.018223 0.018223 0.018223
0.018369 0.018369 0.018369
0.018515 0.018515 0.018515
0.018661 0.018661 0.018661
0.018807 0.018807 0.018807
0.018954 0.018954 0.018954
0.019100 0.019100 0.019100
0.019247 0.019247 0.019247
0.019394 0.019394 0.019394
0.019541 0.019541 0.019541
0.019688 0.019688 0.019688
0.019835 0.019835 0.019835
0.019983 0.019983 0.019983
0.020131 0.020131 0.020131
0.020279 0.020279 0.020279
0.020427 0.020427 0.020427
0.020575 0.020575 0.020575
0.020723 0.020723 0.020723
0.020872 0.020872 0.020872
0.021020 0.021020 0.021020
0.021169 0.021169 0.021169
0.021318 0.021318 0.021318
0.021467 0.021467 0.021467
0.021617 0.021617 0.021617
0.021766 0.021766 0.021766
0.021916 0.021916 0.021916
0.022066 0.022066 0.022066
0.022216 0.022216 0.022216
0.022366 0.022366 0.022366
0.022516 0.022516 0.022516
0.022667 0.022667 0.022667
0.022818 0.022818 0.022818
0.022968 0.022968 0.022968
0.023119 0.023119 0.023119
0.023271 0.023271 0.023271
0.023422 0.023422 0.023422
0.023573 0.023573 0.023573
0.023725 0.023725 0.023725
0.023877 0.023877 0.023877
0.024029 0.024029 0.024029
0.024181 0.024181 0.024181
0.024333 0.024333 0.024333
0.024486 0.024486 0.024486
0.024638 0.024638 0.024638
0.024791 0.024791 0.024791
0.024944 0.024944 0.024944
0.025097 0.025097 0.025097
0.025251 0.025251 0.025251
0.025404 0.025404 0.025404
0.025558 0.025558 0.025558
0.025712 0.025712 0.025712
0.025865 0.025865 0.025865
0.026020 0.026020 0.026020
0.026174 0.026174 0.026174
0.026328 0.026328 0.026328
0.026483 0.026483 0.026483
0.026638 0.026638 0.026638
0.026793 0.026793 0.026793
0.026948 0.026948 0.026948
0.027103 0.027103 0.027103
0.027258 0.027258 0.027258
0.027414 0.027414 0.027414
0.027570 0.027570 0.027570
0.027725 0.027725 0.027725
0.027882 0.027882 0.027882
0.028038 0.028038 0.028038
0.028194 0.028194 0.028194
0.028351 0.028351 0.028351
0.028507 0.028507 0.028507
0.028664 0.028664 0.028664
0.028821 0.028821 0.028821
0.028978 0.028978 0.028978
0.029136 0.029136 0.029136
0.029293 0.029293 0.029293
0.029451 0.029451 0.029451
0.029609 0.029609 0.029609
0.029767 0.029767 0.029767
0.029925 0.029925 0.029925
0.030083 0.030083 0.030083
0.030242 0.030242 0.030242
0.030400 0.030400 0.030400
0.030559 0.030559 0.030559
0.030718 0.030718 0.030718
0.030877 0.030877 0.030877
0.031036 0.031036 0.031036
0.031196 0.031196 0.031196
0.031355 0.031355 0.031355
0.031515 0.031515 0.031515
0.031675 0.031675 0.031675
0.031835 0.031835 0.031835
0.031995 0.031995 0.031995
0.032156 0.032156 0.032156
0.032316 0.032316 0.032316
0.032477 0.032477 0.032477
0.032638 0.032638 0.032638
0.032799 0.032799 0.032799
0.032960 0.032960 0.032960
0.033121 0.033121 0.033121
0.033283 0.033283 0.033283
0.033444 0.033444 0.033444
0.033606 0.033606 0.033606
0.033768 0.033768 0.033768
0.033930 0.033930 0.033930
0.034093 0.034093 0.034093
0.034255 0.034255 0.034255
0.034418 0.034418 0.034418
0.034580 0.034580 0.034580
0.034743 0.034743 0.034743
0.034906 0.034906 0.034906
0.035070 0.035070 0.035070
0.035233 0.035233 0.035233
0.035397 0.035397 0.035397
0.035560 0.035560 0.035560
0.035724 0.035724 0.035724
0.035888 0.035888 0.035888
0.036052 0.036052 0.036052
0.036217 0.036217 0.036217
0.036381 0.036381 0.036381
0.036546 0.036546 0.036546
0.036711 0.036711 0.036711
0.036876 0.036876 0.036876
0.037041 0.037041 0.037041
0.037206 0.037206 0.037206
0.037371 0.037371 0.037371
0.037537 0.037537 0.037537
0.037703 0.037703 0.037703
0.037869 0.037869 0.037869
0.038035 0.038035 0.038035
0.038201 0.038201 0.038201
0.038367 0.038367 0.038367
0.038534 0.038534 0.038534
0.038700 0.038700 0.038700
0.038867 0.038867 0.038867
0.039034 0.039034 0.039034
0.039201 0.039201 0.039201
0.039369 0.039369 0.039369
0.039536 0.039536 0.039536
0.039704 0.039704 0.039704
0.039871 0.039871 0.039871
0.040039 0.040039 0.040039
0.040207 0.040207 0.040207
0.040376 0.040376 0.040376
0.040544 0.040544 0.040544
0.040713 0.040713 0.040713
0.040881 0.040881 0.040881
0.041050 0.041050 0.041050
0.041219 0.041219 0.041219
0.041388 0.041388 0.041388
0.041558 0.041558 0.041558
0.041727 0.041727 0.041727
0.041897 0.041897 0.041897
0.042066 0.042066 0.042066
0.042236 0.042236 0.042236
0.042406 0.042406 0.042406
0.042577 0.042577 0.042577
0.042747 0.042747 0.042747
0.042918 0.042918 0.042918
0.043088 0.043088 0.043088
0.043259 0.043259 0.043259
0.043430 0.043430 0.043430
0.043601 0.043601 0.043601
0.043773 0.043773 0.043773
0.043944 0.043944 0.043944
0.044116 0.044116 0.044116
0.044287 0.044287 0.044287
0.044459 0.044459 0.044459
0.044631 0.044631 0.044631
0.044804 0.044804 0.044804
0.044976 0.044976 0.044976
0.045149 0.045149 0.045149
0.045321 0.045321 0.045321
0.045494 0.045494 0.045494
0.045667 0.045667 0.045667
0.045840 0.045840 0.045840
0.046013 0.046013 0.046013
0.046187 0.046187 0.046187
0.046360 0.046360 0.046360
0.046534 0.046534 0.046534
0.046708 0.046708 0.046708
0.046882 0.046882 0.046882
0.047056 0.047056 0.047056
0.047231 0.047231 0.047231
0.047405 0.047405 0.047405
0.047580 0.047580 0.047580
0.047755 0.047755 0.047755
0.047930 0.047930 0.047930
0.048105 0.048105 0.048105
0.048280 0.048280 0.048280
0.048455 0.048455 0.048455
0.048631 0.048631 0.048631
0.048807 0.048807 0.048807
0.048982 0.048982 0.048982
0.049158 0.049158 0.049158
0.049335 0.049335 0.049335
0.049511 0.049511 0.049511
0.049687 0.049687 0.049687
0.049864 0.049864 0.049864
0.050041 0.050041 0.050041
0.050218 0.050218 0.050218
0.050395 0.050395 0.050395
0.050572 0.050572 0.050572
0.050749 0.050749 0.050749
0.050927 0.050927 0.050927
0.051104 0.051104 0.051104
0.051282 0.051282 0.051282
0.051460 0.051460 0.051460
0.051638 0.051638 0.051638
0.051816 0.051816 0.051816
0.051995 0.051995 0.051995
0.052173 0.052173 0.052173
0.052352 0.052352 0.052352
0.052531 0.052531 0.052531
0.052710 0.052710 0.052710
0.052889 0.052889 0.052889
0.053068 0.053068 0.053068
0.053248 0.053248 0.053248
0.053427 0.053427 0.053427
0.053607 0.053607 0.053607
0.053787 0.053787 0.053787
0.053967 0.053967 0.053967
0.054147 0.054147 0.054147
0.054328 0.054328 0.054328
0.054508 0.054508 0.054508
0.054689 0.054689 0.054689
0.054869 0.054869 0.054869
0.055050 0.055050 0.055050
0.055231 0.055231 0.055231
0.055413 0.055413 0.055413
0.055594 0.055594 0.055594
0.055775 0.055775 0.055775
0.055957 0.055957 0.055957
0.056139 0.056139 0.056139
0.056321 0.056321 0.056321
0.056503 0.056503 0.056503
0.056685 0.056685 0.056685
0.056868 0.056868 0.056868
0.057050 0.057050 0.057050
0.057233 0.057233 0.057233
0.057416 0.057416 0.057416
0.057599 0.057599 0.057599
0.057782 0.057782 0.057782
0.057965 0.057965 0.057965
0.058148 0.058148 0.058148
0.058332 0.058332 0.058332
0.058516 0.058516 0.058516
0.058699 0.058699 0.058699
0.058883 0.058883 0.058883
0.059068 0.059068 0.059068
0.059252 0.059252 0.059252
0.059436 0.059436 0.059436
0.059621 0.059621 0.059621
0.059806 0.059806 0.059806
0.059990 0.059990 0.059990
0.060176 0.060176 0.060176
0.060361 0.060361 0.060361
0.060546 0.060546 0.060546
0.060731 0.060731 0.060731
0.060917 0.060917 0.060917
0.061103 0.061103 0.061103
0.061289 0.061289 0.061289
0.061475 0.061475 0.061475
0.061661 0.061661 0.061661
0.061847 0.061847 0.061847
0.062034 0.062034 0.062034
0.062220 0.062220 0.062220
0.062407 0.062407 0.062407
0.062594 0.062594 0.062594
0.062781 0.062781 0.062781
0.062968 0.062968 0.062968
0.063155 0.063155 0.063155
0.063343 0.063343 0.063343
0.063530 0.063530 0.063530
0.063718 0.063718 0.063718
0.063906 0.063906 0.063906
0.064094 0.064094 0.064094
0.064282 0.064282 0.064282
0.064471 0.064471 0.064471
0.064659 0.064659 0.064659
0.064848 0.064848 0.064848
0.065036 0.065036 0.065036
0.065225 0.065225 0.065225
0.065414 0.065414 0.065414
0.065603 0.065603 0.065603
0.065793 0.065793 0.065793
0.065982 0.065982 0.065982
0.066172 0.066172 0.066172
0.066362 0.066362 0.066362
0.066551 0.066551 0.066551
0.066741 0.066741 0.066741
0.066932 0.066932 0.066932
0.067122 0.067122 0.067122
0.067312 0.067312 0.067312
0.067503 0.067503 0.067503
0.067694 0.067694 0.067694
0.067885 0.067885 0.067885
0.068076 0.068076 0.068076
0.068267 0.068267 0.068267
0.068458 0.068458 0.068458
0.068650 0.068650 0.068650
0.068841 0.068841 0.068841
0.069033 0.069033 0.069033
0.069225 0.069225 0.069225
0.069417 0.069417 0.069417
0.069609 0.069609 0.069609
0.069801 0.069801 0.069801
0.069994 0.069994 0.069994
0.070186 0.070186 0.070186
0.070379 0.070379 0.070379
0.070572 0.070572 0.070572
0.070765 0.070765 0.070765
0.070958 0.070958 0.070958
0.071151 0.071151 0.071151
0.071345 0.071345 0.071345
0.071538 0.071538 0.071538
0.071732 0.071732 0.071732
0.071926 0.071926 0.071926
0.072120 0.072120 0.072120
0.072314 0.072314 0.072314
0.072508 0.072508 0.072508
0.072702 0.072702 0.072702
0.072897 0.072897 0.072897
0.073092 0.073092 0.073092
0.073286 0.073286 0.073286
0.073481 0.073481 0.073481
0.073676 0.073676 0.073676
0.073872 0.073872 0.073872
0.074067 0.074067 0.074067
0.074262 0.074262 0.074262
0.074458 0.074458 0.074458
0.074654 0.074654 0.074654
0.074850 0.074850 0.074850
0.075046 0.075046 0.075046
0.075242 0.075242 0.075242
0.075438 0.075438 0.075438
0.075635 0.075635 0.075635
0.075831 0.075831 0.075831
0.076028 0.076028 0.076028
0.076225 0.076225 0.076225
0.076422 0.076422 0.076422
0.076619 0.076619 0.076619
0.076816 0.076816 0.076816
0.077014 0.077014 0.077014
0.077211 0.077211 0.077211
0.077409 0.077409 0.077409
0.077607 0.077607 0.077607
0.077805 0.077805 0.077805
0.078003 0.078003 0.078003
0.078201 0.078201 0.078201
0.078400 0.078400 0.078400
0.078598 0.078598 0.078598
0.078797 0.078797 0.078797
0.078996 0.078996 0.078996
0.079195 0.079195 0.079195
0.079394 0.079394 0.079394
0.079593 0.079593 0.079593
0.079792 0.079792 0.079792
0.079992 0.079992 0.079992
0.080191 0.080191 0.080191
0.080391 0.080391 0.080391
0.080591 0.080591 0.080591
0.080791 0.080791 0.080791
0.080991 0.080991 0.080991
0.081191 0.081191 0.081191
0.081392 0.081392 0.081392
0.081592 0.081592 0.081592
0.081793 0.081793 0.081793
0.081994 0.081994 0.081994
0.082195 0.082195 0.082195
0.082396 0.082396 0.082396
0.082597 0.082597 0.082597
0.082799 0.082799 0.082799
0.083000 0.083000 0.083000
0.083202 0.083202 0.083202
0.083404 0.083404 0.083404
0.083605 0.083605 0.083605
0.083807 0.083807 0.083807
0.084010 0.084010 0.084010
0.084212 0.084212 0.084212
0.084414 0.084414 0.084414
0.084617 0.084617 0.084617
0.084820 0.084820 0.084820
0.085023 0.085023 0.085023
0.085226 0.085226 0.085226
0.085429 0.085429 0.085429
0.085632 0.085632 0.085632
0.085835 0.085835 0.085835
0.086039 0.086039 0.086039
0.086242 0.086242 0.086242
0.086446 0.086446 0.086446
0.086650 0.086650 0.086650
0.086854 0.086854 0.086854
0.087058 0.087058 0.087058
0.087263 0.087263 0.087263
0.087467 0.087467 0.087467
0.087672 0.087672 0.087672
0.087876 0.087876 0.087876
0.088081 0.088081 0.088081
0.088286 0.088286 0.088286
0.088491 0.088491 0.088491
0.088697 0.088697 0.088697
0.088902 0.088902 0.088902
0.089107 0.089107 0.089107
0.089313 0.089313 0.089313
0.089519 0.089519 0.089519
0.089725 0.089725 0.089725
0.089931 0.089931 0.089931
0.090137 0.090137 0.090137
0.090343 0.090343 0.090343
0.090550 0.090550 0.090550
0.090756 0.090756 0.090756
0.090963 0.090963 0.090963
0.091170 0.091170 0.091170
0.091377 0.091377 0.091377
0.091584 0.091584 0.091584
0.091791 0.091791 0.091791
0.091998 0.091998 0.091998
0.092206 0.092206 0.092206
0.092413 0.092413 0.092413
0.092621 0.092621 0.092621
0.092829 0.092829 0.092829
0.093037 0.093037 0.093037
0.093245 0.093245 0.093245
0.093453 0.093453 0.093453
0.093662 0.093662 0.093662
0.093870 0.093870 0.093870
0.094079 0.094079 0.094079
0.094288 0.094288 0.094288
0.094497 0.094497 0.094497
0.094706 0.094706 0.094706
0.094915 0.094915 0.094915
0.095124 0.095124 0.095124
0.095334 0.095334 0.095334
0.095543 0.095543 0.095543
0.095753 0.095753 0.095753
0.095963 0.095963 0.095963
0.096173 0.096173 0.096173
0.096383 0.096383 0.096383
0.096593 0.096593 0.096593
0.096803 0.096803 0.096803
0.097014 0.097014 0.097014
0.097224 0.097224 0.097224
0.097435 0.097435 0.097435
0.097646 0.097646 0.097646
0.097857 0.097857 0.097857
0.098068 0.098068 0.098068
0.098279 0.098279 0.098279
0.098491 0.098491 0.098491
0.098702 0.098702 0.098702
0.098914 0.098914 0.098914
0.099125 0.099125 0.099125
0.099337 0.099337 0.099337
0.099549 0.099549 0.099549
0.099761 0.099761 0.099761
0.099974 0.099974 0.099974
0.100186 0.100186 0.100186
0.100399 0.100399 0.100399
0.100611 0.100611 0.100611
0.100824 0.100824 0.100824
0.101037 0.101037 0.101037
0.101250 0.101250 0.101250
0.101463 0.101463 0.101463
0.101676 0.101676 0.101676
0.101890 0.101890 0.101890
0.102103 0.102103 0.102103
0.102317 0.102317 0.102317
0.102531 0.102531 0.102531
0.102744 0.102744 0.102744
0.102959 0.102959 0.102959
0.103173 0.103173 0.103173
0.103387 0.103387 0.103387
0.103601 0.103601 0.103601
0.103816 0.103816 0.103816
0.104031 0.104031 0.104031
0.104245 0.104245 0.104245
0.104460 0.104460 0.104460
0.104675 0.104675 0.104675
0.104890 0.104890 0.104890
0.105106 0.105106 0.105106
0.105321 0.105321 0.105321
0.105537 0.105537 0.105537
0.105752 0.105752 0.105752
0.105968 0.105968 0.105968
0.106184 0.106184 0.106184
0.106400 0.106400 0.106400
0.106616 0.106616 0.106616
0.106833 0.106833 0.106833
0.107049 0.107049 0.107049
0.107265 0.107265 0.107265
0.107482 0.107482 0.107482
0.107699 0.107699 0.107699
0.107916 0.107916 0.107916
0.108133 0.108133 0.108133
0.108350 0.108350 0.108350
0.108567 0.108567 0.108567
0.108785 0.108785 0.108785
0.109002 0.109002 0.109002
0.109220 0.109220 0.109220
0.109438 0.109438 0.109438
0.109656 0.109656 0.109656
0.109874 0.109874 0.109874
0.110092 0.110092 0.110092
0.110310 0.110310 0.110310
0.110528 0.110528 0.110528
0.110747 0.110747 0.110747
0.110966 0.110966 0.110966
0.111184 0.111184 0.111184
0.111403 0.111403 0.111403
0.111622 0.111622 0.111622
0.111841 0.111841 0.111841
0.112061 0.112061 0.112061
0.112280 0.112280 0.112280
0.112499 0.112499 0.112499
0.112719 0.112719 0.112719
0.112939 0.112939 0.112939
0.113159 0.113159 0.113159
0.113379 0.113379 0.113379
0.113599 0.113599 0.113599
0.113819 0.113819 0.113819
0.114039 0.114039 0.114039
0.114260 0.114260 0.114260
0.114480 0.114480 0.114480
0.114701 0.114701 0.114701
0.114922 0.114922 0.114922
0.115143 0.115143 0.115143
0.115364 0.115364 0.115364
0.115585 0.115585 0.115585
0.115807 0.115807 0.115807
0.116028 0.116028 0.116028
0.116250 0.116250 0.116250
0.116471 0.116471 0.116471
0.116693 0.116693 0.116693
0.116915 0.116915 0.116915
0.117137 0.117137 0.117137
0.117359 0.117359 0.117359
0.117582 0.117582 0.117582
0.117804 0.117804 0.117804
0.118027 0.118027 0.118027
0.118249 0.118249 0.118249
0.118472 0.118472 0.118472
0.118695 0.118695 0.118695
0.118918 0.118918 0.118918
0.119141 0.119141 0.119141
0.119364 0.119364 0.119364
0.119588 0.119588 0.119588
0.119811 0.119811 0.119811
0.120035 0.120035 0.120035
0.120258 0.120258 0.120258
0.120482 0.120482 0.120482
0.120706 0.120706 0.120706
0.120930 0.120930 0.120930
0.121155 0.121155 0.121155
0.121379 0.121379 0.121379
0.121603 0.121603 0.121603
0.121828 0.121828 0.121828
0.122053 0.122053 0.122053
0.122277 0.122277 0.122277
0.122502 0.122502 0.122502
0.122727 0.122727 0.122727
0.122953 0.122953 0.122953
0.123178 0.123178 0.123178
0.123403 0.123403 0.123403
0.123629 0.123629 0.123629
0.123854 0.123854 0.123854
0.124080 0.124080 0.124080
0.124306 0.124306 0.124306
0.124532 0.124532 0.124532
0.124758 0.124758 0.124758
0.124984 0.124984 0.124984
0.125211 0.125211 0.125211
0.125437 0.125437 0.125437
0.125664 0.125664 0.125664
0.125890 0.125890 0.125890
0.126117 0.126117 0.126117
0.126344 0.126344 0.126344
0.126571 0.126571 0.126571
0.126798 0.126798 0.126798
0.127025 0.127025 0.127025
0.127253 0.127253 0.127253
0.127480 0.127480 0.127480
0.127708 0.127708 0.127708
0.127936 0.127936 0.127936
0.128164 0.128164 0.128164
0.128392 0.128392 0.128392
0.128620 0.128620 0.128620
0.128848 0.128848 0.128848
0.129076 0.129076 0.129076
0.129305 0.129305 0.129305
0.129533 0.129533 0.129533
0.129762 0.129762 0.129762
0.129991 0.129991 0.129991
0.130220 0.130220 0.130220
0.130449 0.130449 0.130449
0.130678 0.130678 0.130678
0.130907 0.130907 0.130907
0.131136 0.131136 0.131136
0.131366 0.131366 0.131366
0.131595 0.131595 0.131595
0.131825 0.131825 0.131825
0.132055 0.132055 0.132055
0.132285 0.132285 0.132285
0.132515 0.132515 0.132515
0.132745 0.132745 0.132745
0.132975 0.132975 0.132975
0.133206 0.133206 0.133206
0.133436 0.133436 0.133436
0.133667 0.133667 0.133667
0.133898 0.133898 0.133898
0.134128 0.134128 0.134128
0.134359 0.134359 0.134359
0.134590 0.134590 0.134590
0.134822 0.134822 0.134822
0.135053 0.135053 0.135053
0.135284 0.135284 0.135284
0.135516 0.135516 0.135516
0.135747 0.135747 0.135747
0.135979 0.135979 0.135979
0.136211 0.136211 0.136211
0.136443 0.136443 0.136443
0.136675 0.136675 0.136675
0.136907 0.136907 0.136907
0.137140 0.137140 0.137140
0.137372 0.137372 0.137372
0.137605 0.137605 0.137605
0.137837 0.137837 0.137837
0.138070 0.138070 0.138070
0.138303 0.138303 0.138303
0.138536 0.138536 0.138536
0.138769 0.138769 0.138769
0.139002 0.139002 0.139002
0.139236 0.139236 0.139236
0.139469 0.139469 0.139469
0.139703 0.139703 0.139703
0.139936 0.139936 0.139936
0.140170 0.140170 0.140170
0.140404 0.140404 0.140404
0.140638 0.140638 0.140638
0.140872 0.140872 0.140872
0.141106 0.141106 0.141106
0.141341 0.141341 0.141341
0.141575 0.141575 0.141575
0.141810 0.141810 0.141810
0.142044 0.142044 0.142044
0.142279 0.142279 0.142279
0.142514 0.142514 0.142514
0.142749 0.142749 0.142749
0.142984 0.142984 0.142984
0.143220 0.143220 0.143220
0.143455 0.143455 0.143455
0.143690 0.143690 0.143690
0.143926 0.143926 0.143926
0.144162 0.144162 0.144162
0.144397 0.144397 0.144397
0.144633 0.144633 0.144633
0.144869 0.144869 0.144869
0.145105 0.145105 0.145105
0.145342 0.145342 0.145342
0.145578 0.145578 0.145578
0.145814 0.145814 0.145814
0.146051 0.146051 0.146051
0.146288 0.146288 0.146288
0.146524 0.146524 0.146524
0.146761 0.146761 0.146761
0.146998 0.146998 0.146998
0.147235 0.147235 0.147235
0.147472 0.147472 0.147472
0.147710 0.147710 0.147710
0.147947 0.147947 0.147947
0.148185 0.148185 0.148185
0.148422 0.148422 0.148422
0.148660 0.148660 0.148660
0.148898 0.148898 0.148898
0.149136 0.149136 0.149136
0.149374 0.149374 0.149374
0.149612 0.149612 0.149612
0.149851 0.149851 0.149851
0.150089 0.150089 0.150089
0.150327 0.150327 0.150327
0.150566 0.150566 0.150566
0.150805 0.150805 0.150805
0.151044 0.151044 0.151044
0.151283 0.151283 0.151283
0.151522 0.151522 0.151522
0.151761 0.151761 0.151761
0.152000 0.152000 0.152000
0.152239 0.152239 0.152239
0.152479 0.152479 0.152479
0.152718 0.152718 0.152718
0.152958 0.152958 0.152958
0.153198 0.153198 0.153198
0.153438 0.153438 0.153438
0.153678 0.153678 0.153678
0.153918 0.153918 0.153918
0.154158 0.154158 0.154158
0.154399 0.154399 0.154399
0.154639 0.154639 0.154639
0.154880 0.154880 0.154880
0.155120 0.155120 0.155120
0.155361 0.155361 0.155361
0.155602 0.155602 0.155602
0.155843 0.155843 0.155843
0.156084 0.156084 0.156084
0.156325 0.156325 0.156325
0.156566 0.156566 0.156566
0.156808 0.156808 0.156808
0.157049 0.157049 0.157049
0.157291 0.157291 0.157291
0.157532 0.157532 0.157532
0.157774 0.157774 0.157774
0.158016 0.158016 0.158016
0.158258 0.158258 0.158258
0.158500 0.158500 0.158500
0.158743 0.158743 0.158743
0.158985 0.158985 0.158985
0.159227 0.159227 0.159227
0.159470 0.159470 0.159470
0.159713 0.159713 0.159713
0.159955 0.159955 0.159955
0.160198 0.160198 0.160198
0.160441 0.160441 0.160441
0.160684 0.160684 0.160684
0.160927 0.160927 0.160927
0.161171 0.161171 0.161171
0.161414 0.161414 0.161414
0.161658 0.161658 0.161658
0.161901 0.161901 0.161901
0.162145 0.162145 0.162145
0.162389 0.162389 0.162389
0.162633 0.162633 0.162633
0.162877 0.162877 0.162877
0.163121 0.163121 0.163121
0.163365 0.163365 0.163365
0.163609 0.163609 0.163609
0.163854 0.163854 0.163854
0.164098 0.164098 0.164098
0.164343 0.164343 0.164343
0.164588 0.164588 0.164588
0.164832 0.164832 0.164832
0.165077 0.165077 0.165077
0.165322 0.165322 0.165322
0.165567 0.165567 0.165567
0.165813 0.165813 0.165813
0.166058 0.166058 0.166058
0.166304 0.166304 0.166304
0.166549 0.166549 0.166549
0.166795 0.166795 0.166795
0.167040 0.167040 0.167040
0.167286 0.167286 0.167286
0.167532 0.167532 0.167532
