Shapers/SoftSCurve.cube
# SoftSCurve Shaper LUT
# Copyright (C) 2022 Jan Van Coppenolle

LUT_1D_SIZE 4096

DOMAIN_MIN 0.0 0.0 0.0
DOMAIN_MAX 1.0 1.0 1.0

0.000000 0.000000 0.000000
0.000000 0.000000 0.000000
0.000001 0.000001 0.000001
0.000002 0.000002 0.000002
0.000003 0.000003 0.000003
0.000004 0.000004 0.000004
0.000006 0.000006 0.000006
0.000009 0.000009 0.000009
0.000011 0.000011 0.000011
0.000014 0.000014 0.000014
0.000018 0.000018 0.000018
0.000022 0.000022 0.000022
0.000026 0.000026 0.000026
0.000030 0.000030 0.000030
0.000035 0.000035 0.000035
0.000040 0.000040 0.000040
0.000046 0.000046 0.000046
0.000052 0.000052 0.000052
0.000058 0.000058 0.000058
0.000064 0.000064 0.000064
0.000071 0.000071 0.000071
0.000079 0.000079 0.000079
0.000086 0.000086 0.000086
0.000094 0.000094 0.000094
0.000103 0.000103 0.000103
0.000111 0.000111 0.000111
0.000120 0.000120 0.000120
0.000130 0.000130 0.000130
0.000140 0.000140 0.000140
0.000150 0.000150 0.000150
0.000160 0.000160 0.000160
0.000171 0.000171 0.000171
0.000182 0.000182 0.000182
0.000194 0.000194 0.000194
0.000206 0.000206 0.000206
0.000218 0.000218 0.000218
0.000230 0.000230 0.000230
0.000243 0.000243 0.000243
0.000257 0.000257 0.000257
0.000270 0.000270 0.000270
0.000284 0.000284 0.000284
0.000299 0.000299 0.000299
0.000313 0.000313 0.000313
0.000328 0.000328 0.000328
0.000344 0.000344 0.000344
0.000360 0.000360 0.000360
0.000376 0.000376 0.000376
0.000392 0.000392 0.000392
0.000409 0.000409 0.000409
0.000426 0.000426 0.000426
0.000444 0.000444 0.000444
0.000461 0.000461 0.000461
0.000480 0.000480 0.000480
0.000498 0.000498 0.000498
0.000517 0.000517 0.000517
0.000536 0.000536 0.000536
0.000556 0.000556 0.000556
0.000576 0.000576 0.000576
0.000596 0.000596 0.000596
0.000617 0.000617 0.000617
0.000638 0.000638 0.000638
0.000659 0.000659 0.000659
0.000681 0.000681 0.000681
0.000703 0.000703 0.000703
0.000725 0.000725 0.000725
0.000748 0.000748 0.000748
0.000771 0.000771 0.000771
0.000794 0.000794 0.000794
0.000818 0.000818 0.000818
0.000842 0.000842 0.000842
0.000867 0.000867 0.000867
0.000891 0.000891 0.000891
0.000917 0.000917 0.000917
0.000942 0.000942 0.000942
0.000968 0.000968 0.000968
0.000994 0.000994 0.000994
0.001021 0.001021 0.001021
0.001047 0.001047 0.001047
0.001075 0.001075 0.001075
0.001102 0.001102 0.001102
0.001130 0.001130 0.001130
0.001158 0.001158 0.001158
0.001187 0.001187 0.001187
0.001216 0.001216 0.001216
0.001245 0.001245 0.001245
0.001275 0.001275 0.001275
0.001305 0.001305 0.001305
0.001335 0.001335 0.001335
0.001366 0.001366 0.001366
0.001397 0.001397 0.001397
0.001428 0.001428 0.001428
0.001460 0.001460 0.001460
0.001492 0.001492 0.001492
0.001524 0.001524 0.001524
0.001557 0.001557 0.001557
0.001590 0.001590 0.001590
0.001623 0.001623 0.001623
0.001657 0.001657 0.001657
0.001691 0.001691 0.001691
0.001725 0.001725 0.001725
0.001760 0.001760 0.001760
0.001795 0.001795 0.001795
0.001830 0.001830 0.001830
0.001866 0.001866 0.001866
0.001902 0.001902 0.001902
0.001939 0.001939 0.001939
0.001975 0.001975 0.001975
0.002013 0.002013 0.002013
0.002050 0.002050 0.002050
0.002088 0.002088 0.002088
0.002126 0.002126 0.002126
0.002164 0.002164 0.002164
0.002203 0.002203 0.002203
0.002242 0.002242 0.002242
0.002282 0.002282 0.002282
0.002322 0.002322 0.002322
0.002362 0.002362 0.002362
0.002402 0.002402 0.002402
0.002443 0.002443 0.002443
0.002484 0.002484 0.002484
0.002526 0.002526 0.002526
0.002568 0.002568 0.002568
0.002610 0.002610 0.002610
0.002652 0.002652 0.002652
0.002695 0.002695 0.002695
0.002738 0.002738 0.002738
0.002782 0.002782 0.002782
0.002826 0.002826 0.002826
0.002870 0.002870 0.002870
0.002915 0.002915 0.002915
0.002959 0.002959 0.002959
0.003005 0.003005 0.003005
0.003050 0.003050 0.003050
0.003096 0.003096 0.003096
0.003142 0.003142 0.003142
0.003189 0.003189 0.003189
0.003236 0.003236 0.003236
0.003283 0.003283 0.003283
0.003330 0.003330 0.003330
0.003378 0.003378 0.003378
0.003427 0.003427 0.003427
0.003475 0.003475 0.003475
0.003524 0.003524 0.003524
0.003573 0.003573 0.003573
0.003623 0.003623 0.003623
0.003673 0.003673 0.003673
0.003723 0.003723 0.003723
0.003773 0.003773 0.003773
0.003824 0.003824 0.003824
0.003875 0.003875 0.003875
0.003927 0.003927 0.003927
0.003979 0.003979 0.003979
0.004031 0.004031 0.004031
0.004084 0.004084 0.004084
0.004136 0.004136 0.004136
0.004190 0.004190 0.004190
0.004243 0.004243 0.004243
0.004297 0.004297 0.004297
0.004351 0.004351 0.004351
0.004406 0.004406 0.004406
0.004461 0.004461 0.004461
0.004516 0.004516 0.004516
0.004571 0.004571 0.004571
0.004627 0.004627 0.004627
0.004683 0.004683 0.004683
0.004740 0.004740 0.004740
0.004797 0.004797 0.004797
0.004854 0.004854 0.004854
0.004911 0.004911 0.004911
0.004969 0.004969 0.004969
0.005027 0.005027 0.005027
0.005086 0.005086 0.005086
0.005144 0.005144 0.005144
0.005204 0.005204 0.005204
0.005263 0.005263 0.005263
0.005323 0.005323 0.005323
0.005383 0.005383 0.005383
0.005443 0.005443 0.005443
0.005504 0.005504 0.005504
0.005565 0.005565 0.005565
0.005627 0.005627 0.005627
0.005688 0.005688 0.005688
0.005750 0.005750 0.005750
0.005813 0.005813 0.005813
0.005875 0.005875 0.005875
0.005938 0.005938 0.005938
0.006002 0.006002 0.006002
0.006066 0.006066 0.006066
0.006130 0.006130 0.006130
0.006194 0.006194 0.006194
0.006259 0.006259 0.006259
0.006324 0.006324 0.006324
0.006389 0.006389 0.006389
0.006455 0.006455 0.006455
0.006520 0.006520 0.006520
0.006587 0.006587 0.006587
0.006653 0.006653 0.006653
0.006720 0.006720 0.006720
0.006788 0.006788 0.006788
0.006855 0.006855 0.006855
0.006923 0.006923 0.006923
0.006991 0.006991 0.006991
0.007060 0.007060 0.007060
0.007129 0.007129 0.007129
0.007198 0.007198 0.007198
0.007267 0.007267 0.007267
0.007337 0.007337 0.007337
0.007407 0.007407 0.007407
0.007478 0.007478 0.007478
0.007549 0.007549 0.007549
0.007620 0.007620 0.007620
0.007691 0.007691 0.007691
0.007763 0.007763 0.007763
0.007835 0.007835 0.007835
0.007908 0.007908 0.007908
0.007980 0.007980 0.007980
0.008053 0.008053 0.008053
0.008127 0.008127 0.008127
0.008200 0.008200 0.008200
0.008274 0.008274 0.008274
0.008349 0.008349 0.008349
0.008423 0.008423 0.008423
0.008498 0.008498 0.008498
0.008574 0.008574 0.008574
0.008649 0.008649 0.008649
0.008725 0.008725 0.008725
0.008801 0.008801 0.008801
0.008878 0.008878 0.008878
0.008955 0.008955 0.008955
0.009032 0.009032 0.009032
0.009110 0.009110 0.009110
0.009187 0.009187 0.009187
0.009265 0.009265 0.009265
0.009344 0.009344 0.009344
0.009423 0.009423 0.009423
0.009502 0.009502 0.009502
0.009581 0.009581 0.009581
0.009661 0.009661 0.009661
0.009741 0.009741 0.009741
0.009821 0.009821 0.009821
0.009902 0.009902 0.009902
0.009983 0.009983 0.009983
0.010064 0.010064 0.010064
0.010146 0.010146 0.010146
0.010228 0.010228 0.010228
0.010310 0.010310 0.010310
0.010393 0.010393 0.010393
0.010476 0.010476 0.010476
0.010559 0.010559 0.010559
0.010642 0.010642 0.010642
0.010726 0.010726 0.010726
0.010810 0.010810 0.010810
0.010895 0.010895 0.010895
0.010980 0.010980 0.010980
0.011065 0.011065 0.011065
0.011150 0.011150 0.011150
0.011236 0.011236 0.011236
0.011322 0.011322 0.011322
0.011408 0.011408 0.011408
0.011495 0.011495 0.011495
0.011582 0.011582 0.011582
0.011669 0.011669 0.011669
0.011757 0.011757 0.011757
0.011845 0.011845 0.011845
0.011933 0.011933 0.011933
0.012021 0.012021 0.012021
0.012110 0.012110 0.012110
0.012199 0.012199 0.012199
0.012289 0.012289 0.012289
0.012379 0.012379 0.012379
0.012469 0.012469 0.012469
0.012559 0.012559 0.012559
0.012650 0.012650 0.012650
0.012741 0.012741 0.012741
0.012832 0.012832 0.012832
0.012924 0.012924 0.012924
0.013016 0.013016 0.013016
0.013108 0.013108 0.013108
0.013200 0.013200 0.013200
0.013293 0.013293 0.013293
0.013387 0.013387 0.013387
0.013480 0.013480 0.013480
0.013574 0.013574 0.013574
0.013668 0.013668 0.013668
0.013762 0.013762 0.013762
0.013857 0.013857 0.013857
0.013952 0.013952 0.013952
0.014047 0.014047 0.014047
0.014143 0.014143 0.014143
0.014239 0.014239 0.014239
0.014335 0.014335 0.014335
0.014432 0.014432 0.014432
0.014529 0.014529 0.014529
0.014626 0.014626 0.014626
0.014723 0.014723 0.014723
0.014821 0.014821 0.014821
0.014919 0.014919 0.014919
0.015018 0.015018 0.015018
0.015116 0.015116 0.015116
0.015215 0.015215 0.015215
0.015315 0.015315 0.015315
0.015414 0.015414 0.015414
0.015514 0.015514 0.015514
0.015615 0.015615 0.015615
0.015715 0.015715 0.015715
0.015816 0.015816 0.015816
0.015917 0.015917 0.015917
0.016019 0.016019 0.016019
0.016120 0.016120 0.016120
0.016222 0.016222 0.016222
0.016325 0.016325 0.016325
0.016427 0.016427 0.016427
0.016530 0.016530 0.016530
0.016634 0.016634 0.016634
0.016737 0.016737 0.016737
0.016841 0.016841 0.016841
0.016945 0.016945 0.016945
0.017050 0.017050 0.017050
0.017155 0.017155 0.017155
0.017260 0.017260 0.017260
0.017365 0.017365 0.017365
0.017471 0.017471 0.017471
0.017577 0.017577 0.017577
0.017683 0.017683 0.017683
0.017790 0.017790 0.017790
0.017897 0.017897 0.017897
0.018004 0.018004 0.018004
0.018111 0.018111 0.018111
0.018219 0.018219 0.018219
0.018327 0.018327 0.018327
0.018436 0.018436 0.018436
0.018544 0.018544 0.018544
0.018653 0.018653 0.018653
0.018763 0.018763 0.018763
0.018872 0.018872 0.018872
0.018982 0.018982 0.018982
0.019092 0.019092 0.019092
0.019203 0.019203 0.019203
0.019314 0.019314 0.019314
0.019425 0.019425 0.019425
0.019536 0.019536 0.019536
0.019648 0.019648 0.019648
0.019760 0.019760 0.019760
0.019872 0.019872 0.019872
0.019985 0.019985 0.019985
0.020098 0.020098 0.020098
0.020211 0.020211 0.020211
0.020324 0.020324 0.020324
0.020438 0.020438 0.020438
0.020552 0.020552 0.020552
0.020667 0.020667 0.020667
0.020781 0.020781 0.020781
0.020896 0.020896 0.020896
0.021012 0.021012 0.021012
0.021127 0.021127 0.021127
0.021243 0.021243 0.021243
0.021359 0.021359 0.021359
0.021476 0.021476 0.021476
0.021592 0.021592 0.021592
0.021709 0.021709 0.021709
0.021827 0.021827 0.021827
0.021944 0.021944 0.021944
0.022062 0.022062 0.022062
0.022181 0.022181 0.022181
0.022299 0.022299 0.022299
0.022418 0.022418 0.022418
0.022537 0.022537 0.022537
0.022656 0.022656 0.022656
0.022776 0.022776 0.022776
0.022896 0.022896 0.022896
0.023016 0.023016 0.023016
0.023137 0.023137 0.023137
0.023258 0.023258 0.023258
0.023379 0.023379 0.023379
0.023500 0.023500 0.023500
0.023622 0.023622 0.023622
0.023744 0.023744 0.023744
0.023866 0.023866 0.023866
0.023989 0.023989 0.023989
0.024112 0.024112 0.024112
0.024235 0.024235 0.024235
0.024359 0.024359 0.024359
0.024482 0.024482 0.024482
0.024607 0.024607 0.024607
0.024731 0.024731 0.024731
0.024856 0.024856 0.024856
0.024981 0.024981 0.024981
0.025106 0.025106 0.025106
0.025231 0.025231 0.025231
0.025357 0.025357 0.025357
0.025483 0.025483 0.025483
0.025610 0.025610 0.025610
0.025736 0.025736 0.025736
0.025863 0.025863 0.025863
0.025991 0.025991 0.025991
0.026118 0.026118 0.026118
0.026246 0.026246 0.026246
0.026374 0.026374 0.026374
0.026502 0.026502 0.026502
0.026631 0.026631 0.026631
0.026760 0.026760 0.026760
0.026889 0.026889 0.026889
0.027019 0.027019 0.027019
0.027149 0.027149 0.027149
0.027279 0.027279 0.027279
0.027409 0.027409 0.027409
0.027540 0.027540 0.027540
0.027671 0.027671 0.027671
0.027803 0.027803 0.027803
0.027934 0.027934 0.027934
0.028066 0.028066 0.028066
0.028198 0.028198 0.028198
0.028331 0.028331 0.028331
0.028463 0.028463 0.028463
0.028596 0.028596 0.028596
0.028730 0.028730 0.028730
0.028863 0.028863 0.028863
0.028997 0.028997 0.028997
0.029131 0.029131 0.029131
0.029266 0.029266 0.029266
0.029400 0.029400 0.029400
0.029535 0.029535 0.029535
0.029671 0.029671 0.029671
0.029806 0.029806 0.029806
0.029942 0.029942 0.029942
0.030078 0.030078 0.030078
0.030215 0.030215 0.030215
0.030351 0.030351 0.030351
0.030488 0.030488 0.030488
0.030626 0.030626 0.030626
0.030763 0.030763 0.030763
0.030901 0.030901 0.030901
0.031039 0.031039 0.031039
0.031178 0.031178 0.031178
0.031316 0.031316 0.031316
0.031455 0.031455 0.031455
0.031594 0.031594 0.031594
0.031734 0.031734 0.031734
0.031874 0.031874 0.031874
0.032014 0.032014 0.032014
0.032154 0.032154 0.032154
0.032295 0.032295 0.032295
0.032436 0.032436 0.032436
0.032577 0.032577 0.032577
0.032719 0.032719 0.032719
0.032860 0.032860 0.032860
0.033002 0.033002 0.033002
0.033145 0.033145 0.033145
0.033287 0.033287 0.033287
0.033430 0.033430 0.033430
0.033573 0.033573 0.033573
0.033717 0.033717 0.033717
0.033861 0.033861 0.033861
0.034005 0.034005 0.034005
0.034149 0.034149 0.034149
0.034294 0.034294 0.034294
0.034438 0.034438 0.034438
0.034584 0.034584 0.034584
0.034729 0.034729 0.034729
0.034875 0.034875 0.034875
0.035021 0.035021 0.035021
0.035167 0.035167 0.035167
0.035313 0.035313 0.035313
0.035460 0.035460 0.035460
0.035607 0.035607 0.035607
0.035755 0.035755 0.035755
0.035902 0.035902 0.035902
0.036050 0.036050 0.036050
0.036198 0.036198 0.036198
0.036347 0.036347 0.036347
0.036495 0.036495 0.036495
0.036644 0.036644 0.036644
0.036794 0.036794 0.036794
0.036943 0.036943 0.036943
0.037093 0.037093 0.037093
0.037243 0.037243 0.037243
0.037394 0.037394 0.037394
0.037544 0.037544 0.037544
0.037695 0.037695 0.037695
0.037846 0.037846 0.037846
0.037998 0.037998 0.037998
0.038150 0.038150 0.038150
0.038302 0.038302 0.038302
0.038454 0.038454 0.038454
0.038606 0.038606 0.038606
0.038759 0.038759 0.038759
0.038912 0.038912 0.038912
0.039066 0.039066 0.039066
0.039220 0.039220 0.039220
0.039373 0.039373 0.039373
0.039528 0.039528 0.039528
0.039682 0.039682 0.039682
0.039837 0.039837 0.039837
0.039992 0.039992 0.039992
0.040147 0.040147 0.040147
0.040303 0.040303 0.040303
0.040459 0.040459 0.040459
0.040615 0.040615 0.040615
0.040771 0.040771 0.040771
0.040928 0.040928 0.040928
0.041085 0.041085 0.041085
0.041242 0.041242 0.041242
0.041399 0.041399 0.041399
0.041557 0.041557 0.041557
0.041715 0.041715 0.041715
0.041873 0.041873 0.041873
0.042032 0.042032 0.042032
0.042191 0.042191 0.042191
0.042350 0.042350 0.042350
0.042509 0.042509 0.042509
0.042669 0.042669 0.042669
0.042829 0.042829 0.042829
0.042989 0.042989 0.042989
0.043149 0.043149 0.043149
0.043310 0.043310 0.043310
0.043471 0.043471 0.043471
0.043632 0.043632 0.043632
0.043794 0.043794 0.043794
0.043955 0.043955 0.043955
0.044117 0.044117 0.044117
0.044280 0.044280 0.044280
0.044442 0.044442 0.044442
0.044605 0.044605 0.044605
0.044768 0.044768 0.044768
0.044932 0.044932 0.044932
0.045095 0.045095 0.045095
0.045259 0.045259 0.045259
0.045423 0.045423 0.045423
0.045588 0.045588 0.045588
0.045752 0.045752 0.045752
0.045917 0.045917 0.045917
0.046083 0.046083 0.046083
0.046248 0.046248 0.046248
0.046414 0.046414 0.046414
0.046580 0.046580 0.046580
0.046746 0.046746 0.046746
0.046913 0.046913 0.046913
0.047079 0.047079 0.047079
0.047247 0.047247 0.047247
0.047414 0.047414 0.047414
0.047581 0.047581 0.047581
0.047749 0.047749 0.047749
0.047917 0.047917 0.047917
0.048086 0.048086 0.048086
0.048254 0.048254 0.048254
0.048423 0.048423 0.048423
0.048593 0.048593 0.048593
0.048762 0.048762 0.048762
0.048932 0.048932 0.048932
0.049102 0.049102 0.049102
0.049272 0.049272 0.049272
0.049442 0.049442 0.049442
0.049613 0.049613 0.049613
0.049784 0.049784 0.049784
0.049955 0.049955 0.049955
0.050127 0.050127 0.050127
0.050299 0.050299 0.050299
0.050471 0.050471 0.050471
0.050643 0.050643 0.050643
0.050816 0.050816 0.050816
0.050989 0.050989 0.050989
0.051162 0.051162 0.051162
0.051335 0.051335 0.051335
0.051509 0.051509 0.051509
0.051683 0.051683 0.051683
0.051857 0.051857 0.051857
0.052031 0.052031 0.052031
0.052206 0.052206 0.052206
0.052381 0.052381 0.052381
0.052556 0.052556 0.052556
0.052731 0.052731 0.052731
0.052907 0.052907 0.052907
0.053083 0.053083 0.053083
0.053259 0.053259 0.053259
0.053436 0.053436 0.053436
0.053612 0.053612 0.053612
0.053789 0.053789 0.053789
0.053966 0.053966 0.053966
0.054144 0.054144 0.054144
0.054322 0.054322 0.054322
0.054500 0.054500 0.054500
0.054678 0.054678 0.054678
0.054857 0.054857 0.054857
0.055035 0.055035 0.055035
0.055214 0.055214 0.055214
0.055394 0.055394 0.055394
0.055573 0.055573 0.055573
0.055753 0.055753 0.055753
0.055933 0.055933 0.055933
0.056113 0.056113 0.056113
0.056294 0.056294 0.056294
0.056475 0.056475 0.056475
0.056656 0.056656 0.056656
0.056837 0.056837 0.056837
0.057019 0.057019 0.057019
0.057200 0.057200 0.057200
0.057383 0.057383 0.057383
0.057565 0.057565 0.057565
0.057747 0.057747 0.057747
0.057930 0.057930 0.057930
0.058113 0.058113 0.058113
0.058297 0.058297 0.058297
0.058480 0.058480 0.058480
0.058664 0.058664 0.058664
0.058848 0.058848 0.058848
0.059033 0.059033 0.059033
0.059217 0.059217 0.059217
0.059402 0.059402 0.059402
0.059587 0.059587 0.059587
0.059773 0.059773 0.059773
0.059958 0.059958 0.059958
0.060144 0.060144 0.060144
0.060330 0.060330 0.060330
0.060517 0.060517 0.060517
0.060703 0.060703 0.060703
0.060890 0.060890 0.060890
0.061077 0.061077 0.061077
0.061265 0.061265 0.061265
0.061452 0.061452 0.061452
0.061640 0.061640 0.061640
0.061828 0.061828 0.061828
0.062017 0.062017 0.062017
0.062205 0.062205 0.062205
0.062394 0.062394 0.062394
0.062583 0.062583 0.062583
0.062773 0.062773 0.062773
0.062962 0.062962 0.062962
0.063152 0.063152 0.063152
0.063342 0.063342 0.063342
0.063533 0.063533 0.063533
0.063723 0.063723 0.063723
0.063914 0.063914 0.063914
0.064105 0.064105 0.064105
0.064297 0.064297 0.064297
0.064488 0.064488 0.064488
0.064680 0.064680 0.064680
0.064872 0.064872 0.064872
0.065064 0.065064 0.065064
0.065257 0.065257 0.065257
0.065450 0.065450 0.065450
0.065643 0.065643 0.065643
0.065836 0.065836 0.065836
0.066030 0.066030 0.066030
0.066224 0.066224 0.066224
0.066418 0.066418 0.066418
0.066612 0.066612 0.066612
0.066807 0.066807 0.066807
0.067001 0.067001 0.067001
0.067196 0.067196 0.067196
0.067392 0.067392 0.067392
0.067587 0.067587 0.067587
0.067783 0.067783 0.067783
0.067979 0.067979 0.067979
0.068175 0.068175 0.068175
0.068372 0.068372 0.068372
0.068569 0.068569 0.068569
0.068766 0.068766 0.068766
0.068963 0.068963 0.068963
0.069160 0.069160 0.069160
0.069358 0.069358 0.069358
0.069556 0.069556 0.069556
0.069754 0.069754 0.069754
0.069953 0.069953 0.069953
0.070151 0.070151 0.070151
0.070350 0.070350 0.070350
0.070550 0.070550 0.070550
0.070749 0.070749 0.070749
0.070949 0.070949 0.070949
0.071148 0.071148 0.071148
0.071349 0.071349 0.071349
0.071549 0.071549 0.071549
0.071750 0.071750 0.071750
0.071951 0.071951 0.071951
0.072152 0.072152 0.072152
0.072353 0.072353 0.072353
0.072555 0.072555 0.072555
0.072756 0.072756 0.072756
0.072958 0.072958 0.072958
0.073161 0.073161 0.073161
0.073363 0.073363 0.073363
0.073566 0.073566 0.073566
0.073769 0.073769 0.073769
0.073972 0.073972 0.073972
0.074176 0.074176 0.074176
0.074380 0.074380 0.074380
0.074584 0.074584 0.074584
0.074788 0.074788 0.074788
0.074992 0.074992 0.074992
0.075197 0.075197 0.075197
0.075402 0.075402 0.075402
0.075607 0.075607 0.075607
0.075812 0.075812 0.075812
0.076018 0.076018 0.076018
0.076224 0.076224 0.076224
0.076430 0.076430 0.076430
0.076636 0.076636 0.076636
0.076843 0.076843 0.076843
0.077050 0.077050 0.077050
0.077257 0.077257 0.077257
0.077464 0.077464 0.077464
0.077672 0.077672 0.077672
0.077879 0.077879 0.077879
0.078087 0.078087 0.078087
0.078296 0.078296 0.078296
0.078504 0.078504 0.078504
0.078713 0.078713 0.078713
0.078922 0.078922 0.078922
0.079131 0.079131 0.079131
0.079340 0.079340 0.079340
0.079550 0.079550 0.079550
0.079760 0.079760 0.079760
0.079970 0.079970 0.079970
0.080180 0.080180 0.080180
0.080391 0.080391 0.080391
0.080602 0.080602 0.080602
0.080813 0.080813 0.080813
0.081024 0.081024 0.081024
0.081236 0.081236 0.081236
0.081447 0.081447 0.081447
0.081659 0.081659 0.081659
0.081872 0.081872 0.081872
0.082084 0.082084 0.082084
0.082297 0.082297 0.082297
0.082510 0.082510 0.082510
0.082723 0.082723 0.082723
0.082936 0.082936 0.082936
0.083150 0.083150 0.083150
0.083363 0.083363 0.083363
0.083577 0.083577 0.083577
0.083792 0.083792 0.083792
0.084006 0.084006 0.084006
0.084221 0.084221 0.084221
0.084436 0.084436 0.084436
0.084651 0.084651 0.084651
0.084867 0.084867 0.084867
0.085082 0.085082 0.085082
0.085298 0.085298 0.085298
0.085514 0.085514 0.085514
0.085731 0.085731 0.085731
0.085947 0.085947 0.085947
0.086164 0.086164 0.086164
0.086381 0.086381 0.086381
0.086598 0.086598 0.086598
0.086816 0.086816 0.086816
0.087034 0.087034 0.087034
0.087252 0.087252 0.087252
0.087470 0.087470 0.087470
0.087688 0.087688 0.087688
0.087907 0.087907 0.087907
0.088126 0.088126 0.088126
0.088345 0.088345 0.088345
0.088564 0.088564 0.088564
0.088784 0.088784 0.088784
0.089003 0.089003 0.089003
0.089223 0.089223 0.089223
0.089444 0.089444 0.089444
0.089664 0.089664 0.089664
0.089885 0.089885 0.089885
0.090106 0.090106 0.090106
0.090327 0.090327 0.090327
0.090548 0.090548 0.090548
0.090770 0.090770 0.090770
0.090992 0.090992 0.090992
0.091214 0.091214 0.091214
0.091436 0.091436 0.091436
0.091658 0.091658 0.091658
0.091881 0.091881 0.091881
0.092104 0.092104 0.092104
0.092327 0.092327 0.092327
0.092550 0.092550 0.092550
0.092774 0.092774 0.092774
0.092998 0.092998 0.092998
0.093222 0.093222 0.093222
0.093446 0.093446 0.093446
0.093671 0.093671 0.093671
0.093895 0.093895 0.093895
0.094120 0.094120 0.094120
0.094345 0.094345 0.094345
0.094571 0.094571 0.094571
0.094796 0.094796 0.094796
0.095022 0.095022 0.095022
0.095248 0.095248 0.095248
0.095474 0.095474 0.095474
0.095701 0.095701 0.095701
0.095928 0.095928 0.095928
0.096155 0.096155 0.096155
0.096382 0.096382 0.096382
0.096609 0.096609 0.096609
0.096837 0.096837 0.096837
0.097064 0.097064 0.097064
0.097292 0.097292 0.097292
0.097521 0.097521 0.097521
0.097749 0.097749 0.097749
0.097978 0.097978 0.097978
0.098207 0.098207 0.098207
0.098436 0.098436 0.098436
0.098665 0.098665 0.098665
0.098895 0.098895 0.098895
0.099125 0.099125 0.099125
0.099355 0.099355 0.099355
0.099585 0.099585 0.099585
0.099815 0.099815 0.099815
0.100046 0.100046 0.100046
0.100277 0.100277 0.100277
0.100508 0.100508 0.100508
0.100739 0.100739 0.100739
0.100971 0.100971 0.100971
0.101202 0.101202 0.101202
0.101434 0.101434 0.101434
0.101666 0.101666 0.101666
0.101899 0.101899 0.101899
0.102131 0.102131 0.102131
0.102364 0.102364 0.102364
0.102597 0.102597 0.102597
0.102831 0.102831 0.102831
0.103064 0.103064 0.103064
0.103298 0.103298 0.103298
0.103532 0.103532 0.103532
0.103766 0.103766 0.103766
0.104000 0.104000 0.104000
0.104235 0.104235 0.104235
0.104469 0.104469 0.104469
0.104704 0.104704 0.104704
0.104939 0.104939 0.104939
0.105175 0.105175 0.105175
0.105410 0.105410 0.105410
0.105646 0.105646 0.105646
0.105882 0.105882 0.105882
0.106119 0.106119 0.106119
0.106355 0.106355 0.106355
0.106592 0.106592 0.106592
0.106829 0.106829 0.106829
0.107066 0.107066 0.107066
0.107303 0.107303 0.107303
0.107541 0.107541 0.107541
0.107778 0.107778 0.107778
0.108016 0.108016 0.108016
0.108254 0.108254 0.108254
0.108493 0.108493 0.108493
0.108731 0.108731 0.108731
0.108970 0.108970 0.108970
0.109209 0.109209 0.109209
0.109448 0.109448 0.109448
0.109688 0.109688 0.109688
0.109927 0.109927 0.109927
0.110167 0.110167 0.110167
0.110407 0.110407 0.110407
0.110648 0.110648 0.110648
0.110888 0.110888 0.110888
0.111129 0.111129 0.111129
0.111370 0.111370 0.111370
0.111611 0.111611 0.111611
0.111852 0.111852 0.111852
0.112094 0.112094 0.112094
0.112335 0.112335 0.112335
0.112577 0.112577 0.112577
0.112819 0.112819 0.112819
0.113062 0.113062 0.113062
0.113304 0.113304 0.113304
0.113547 0.113547 0.113547
0.113790 0.113790 0.113790
0.114033 0.114033 0.114033
0.114277 0.114277 0.114277
0.114520 0.114520 0.114520
0.114764 0.114764 0.114764
0.115008 0.115008 0.115008
0.115252 0.115252 0.115252
0.115497 0.115497 0.115497
0.115741 0.115741 0.115741
0.115986 0.115986 0.115986
0.116231 0.116231 0.116231
0.116477 0.116477 0.116477
0.116722 0.116722 0.116722
0.116968 0.116968 0.116968
0.117214 0.117214 0.117214
0.117460 0.117460 0.117460
0.117706 0.117706 0.117706
0.117952 0.117952 0.117952
0.118199 0.118199 0.118199
0.118446 0.118446 0.118446
0.118693 0.118693 0.118693
0.118940 0.118940 0.118940
0.119188 0.119188 0.119188
0.119436 0.119436 0.119436
