Inverters/ChannelInversion.cube
# ChannelInversion LUT
# Copyright (C) 2022 Jan Van Coppenolle

LUT_1D_SIZE 4096

DOMAIN_MIN 0.0 0.0 0.0
DOMAIN_MAX 1.0 1.0 1.0

1.000000 1.000000 1.000000
0.999756 0.999756 0.999756
0.999512 0.999512 0.999512
0.999267 0.999267 0.999267
0.999023 0.999023 0.999023
0.998779 0.998779 0.998779
0.998535 0.998535 0.998535
0.998291 0.998291 0.998291
0.998046 0.998046 0.998046
0.997802 0.997802 0.997802
0.997558 0.997558 0.997558
0.997314 0.997314 0.997314
0.997070 0.997070 0.997070
0.996825 0.996825 0.996825
0.996581 0.996581 0.996581
0.996337 0.996337 0.996337
0.996093 0.996093 0.996093
0.995849 0.995849 0.995849
0.995604 0.995604 0.995604
0.995360 0.995360 0.995360
0.995116 0.995116 0.995116
0.994872 0.994872 0.994872
0.994628 0.994628 0.994628
0.994383 0.994383 0.994383
0.994139 0.994139 0.994139
0.993895 0.993895 0.993895
0.993651 0.993651 0.993651
0.993407 0.993407 0.993407
0.993162 0.993162 0.993162
0.992918 0.992918 0.992918
0.992674 0.992674 0.992674
0.992430 0.992430 0.992430
0.992186 0.992186 0.992186
0.991941 0.991941 0.991941
0.991697 0.991697 0.991697
0.991453 0.991453 0.991453
0.991209 0.991209 0.991209
0.990965 0.990965 0.990965
0.990720 0.990720 0.990720
0.990476 0.990476 0.990476
0.990232 0.990232 0.990232
0.989988 0.989988 0.989988
0.989744 0.989744 0.989744
0.989499 0.989499 0.989499
0.989255 0.989255 0.989255
0.989011 0.989011 0.989011
0.988767 0.988767 0.988767
0.988523 0.988523 0.988523
0.988278 0.988278 0.988278
0.988034 0.988034 0.988034
0.987790 0.987790 0.987790
0.987546 0.987546 0.987546
0.987302 0.987302 0.987302
0.987057 0.987057 0.987057
0.986813 0.986813 0.986813
0.986569 0.986569 0.986569
0.986325 0.986325 0.986325
0.986081 0.986081 0.986081
0.985836 0.985836 0.985836
0.985592 0.985592 0.985592
0.985348 0.985348 0.985348
0.985104 0.985104 0.985104
0.984860 0.984860 0.984860
0.984615 0.984615 0.984615
0.984371 0.984371 0.984371
0.984127 0.984127 0.984127
0.983883 0.983883 0.983883
0.983639 0.983639 0.983639
0.983394 0.983394 0.983394
0.983150 0.983150 0.983150
0.982906 0.982906 0.982906
0.982662 0.982662 0.982662
0.982418 0.982418 0.982418
0.982173 0.982173 0.982173
0.981929 0.981929 0.981929
0.981685 0.981685 0.981685
0.981441 0.981441 0.981441
0.981197 0.981197 0.981197
0.980952 0.980952 0.980952
0.980708 0.980708 0.980708
0.980464 0.980464 0.980464
0.980220 0.980220 0.980220
0.979976 0.979976 0.979976
0.979731 0.979731 0.979731
0.979487 0.979487 0.979487
0.979243 0.979243 0.979243
0.978999 0.978999 0.978999
0.978755 0.978755 0.978755
0.978510 0.978510 0.978510
0.978266 0.978266 0.978266
0.978022 0.978022 0.978022
0.977778 0.977778 0.977778
0.977534 0.977534 0.977534
0.977289 0.977289 0.977289
0.977045 0.977045 0.977045
0.976801 0.976801 0.976801
0.976557 0.976557 0.976557
0.976313 0.976313 0.976313
0.976068 0.976068 0.976068
0.975824 0.975824 0.975824
0.975580 0.975580 0.975580
0.975336 0.975336 0.975336
0.975092 0.975092 0.975092
0.974847 0.974847 0.974847
0.974603 0.974603 0.974603
0.974359 0.974359 0.974359
0.974115 0.974115 0.974115
0.973871 0.973871 0.973871
0.973626 0.973626 0.973626
0.973382 0.973382 0.973382
0.973138 0.973138 0.973138
0.972894 0.972894 0.972894
0.972650 0.972650 0.972650
0.972405 0.972405 0.972405
0.972161 0.972161 0.972161
0.971917 0.971917 0.971917
0.971673 0.971673 0.971673
0.971429 0.971429 0.971429
0.971184 0.971184 0.971184
0.970940 0.970940 0.970940
0.970696 0.970696 0.970696
0.970452 0.970452 0.970452
0.970208 0.970208 0.970208
0.969963 0.969963 0.969963
0.969719 0.969719 0.969719
0.969475 0.969475 0.969475
0.969231 0.969231 0.969231
0.968987 0.968987 0.968987
0.968742 0.968742 0.968742
0.968498 0.968498 0.968498
0.968254 0.968254 0.968254
0.968010 0.968010 0.968010
0.967766 0.967766 0.967766
0.967521 0.967521 0.967521
0.967277 0.967277 0.967277
0.967033 0.967033 0.967033
0.966789 0.966789 0.966789
0.966545 0.966545 0.966545
0.966300 0.966300 0.966300
0.966056 0.966056 0.966056
0.965812 0.965812 0.965812
0.965568 0.965568 0.965568
0.965324 0.965324 0.965324
0.965079 0.965079 0.965079
0.964835 0.964835 0.964835
0.964591 0.964591 0.964591
0.964347 0.964347 0.964347
0.964103 0.964103 0.964103
0.963858 0.963858 0.963858
0.963614 0.963614 0.963614
0.963370 0.963370 0.963370
0.963126 0.963126 0.963126
0.962882 0.962882 0.962882
0.962637 0.962637 0.962637
0.962393 0.962393 0.962393
0.962149 0.962149 0.962149
0.961905 0.961905 0.961905
0.961661 0.961661 0.961661
0.961416 0.961416 0.961416
0.961172 0.961172 0.961172
0.960928 0.960928 0.960928
0.960684 0.960684 0.960684
0.960440 0.960440 0.960440
0.960195 0.960195 0.960195
0.959951 0.959951 0.959951
0.959707 0.959707 0.959707
0.959463 0.959463 0.959463
0.959219 0.959219 0.959219
0.958974 0.958974 0.958974
0.958730 0.958730 0.958730
0.958486 0.958486 0.958486
0.958242 0.958242 0.958242
0.957998 0.957998 0.957998
0.957753 0.957753 0.957753
0.957509 0.957509 0.957509
0.957265 0.957265 0.957265
0.957021 0.957021 0.957021
0.956777 0.956777 0.956777
0.956532 0.956532 0.956532
0.956288 0.956288 0.956288
0.956044 0.956044 0.956044
0.955800 0.955800 0.955800
0.955556 0.955556 0.955556
0.955311 0.955311 0.955311
0.955067 0.955067 0.955067
0.954823 0.954823 0.954823
0.954579 0.954579 0.954579
0.954335 0.954335 0.954335
0.954090 0.954090 0.954090
0.953846 0.953846 0.953846
0.953602 0.953602 0.953602
0.953358 0.953358 0.953358
0.953114 0.953114 0.953114
0.952869 0.952869 0.952869
0.952625 0.952625 0.952625
0.952381 0.952381 0.952381
0.952137 0.952137 0.952137
0.951893 0.951893 0.951893
0.951648 0.951648 0.951648
0.951404 0.951404 0.951404
0.951160 0.951160 0.951160
0.950916 0.950916 0.950916
0.950672 0.950672 0.950672
0.950427 0.950427 0.950427
0.950183 0.950183 0.950183
0.949939 0.949939 0.949939
0.949695 0.949695 0.949695
0.949451 0.949451 0.949451
0.949206 0.949206 0.949206
0.948962 0.948962 0.948962
0.948718 0.948718 0.948718
0.948474 0.948474 0.948474
0.948230 0.948230 0.948230
0.947985 0.947985 0.947985
0.947741 0.947741 0.947741
0.947497 0.947497 0.947497
0.947253 0.947253 0.947253
0.947009 0.947009 0.947009
0.946764 0.946764 0.946764
0.946520 0.946520 0.946520
0.946276 0.946276 0.946276
0.946032 0.946032 0.946032
0.945788 0.945788 0.945788
0.945543 0.945543 0.945543
0.945299 0.945299 0.945299
0.945055 0.945055 0.945055
0.944811 0.944811 0.944811
0.944567 0.944567 0.944567
0.944322 0.944322 0.944322
0.944078 0.944078 0.944078
0.943834 0.943834 0.943834
0.943590 0.943590 0.943590
0.943346 0.943346 0.943346
0.943101 0.943101 0.943101
0.942857 0.942857 0.942857
0.942613 0.942613 0.942613
0.942369 0.942369 0.942369
0.942125 0.942125 0.942125
0.941880 0.941880 0.941880
0.941636 0.941636 0.941636
0.941392 0.941392 0.941392
0.941148 0.941148 0.941148
0.940904 0.940904 0.940904
0.940659 0.940659 0.940659
0.940415 0.940415 0.940415
0.940171 0.940171 0.940171
0.939927 0.939927 0.939927
0.939683 0.939683 0.939683
0.939438 0.939438 0.939438
0.939194 0.939194 0.939194
0.938950 0.938950 0.938950
0.938706 0.938706 0.938706
0.938462 0.938462 0.938462
0.938217 0.938217 0.938217
0.937973 0.937973 0.937973
0.937729 0.937729 0.937729
0.937485 0.937485 0.937485
0.937241 0.937241 0.937241
0.936996 0.936996 0.936996
0.936752 0.936752 0.936752
0.936508 0.936508 0.936508
0.936264 0.936264 0.936264
0.936020 0.936020 0.936020
0.935775 0.935775 0.935775
0.935531 0.935531 0.935531
0.935287 0.935287 0.935287
0.935043 0.935043 0.935043
0.934799 0.934799 0.934799
0.934554 0.934554 0.934554
0.934310 0.934310 0.934310
0.934066 0.934066 0.934066
0.933822 0.933822 0.933822
0.933578 0.933578 0.933578
0.933333 0.933333 0.933333
0.933089 0.933089 0.933089
0.932845 0.932845 0.932845
0.932601 0.932601 0.932601
0.932357 0.932357 0.932357
0.932112 0.932112 0.932112
0.931868 0.931868 0.931868
0.931624 0.931624 0.931624
0.931380 0.931380 0.931380
0.931136 0.931136 0.931136
0.930891 0.930891 0.930891
0.930647 0.930647 0.930647
0.930403 0.930403 0.930403
0.930159 0.930159 0.930159
0.929915 0.929915 0.929915
0.929670 0.929670 0.929670
0.929426 0.929426 0.929426
0.929182 0.929182 0.929182
0.928938 0.928938 0.928938
0.928694 0.928694 0.928694
0.928449 0.928449 0.928449
0.928205 0.928205 0.928205
0.927961 0.927961 0.927961
0.927717 0.927717 0.927717
0.927473 0.927473 0.927473
0.927228 0.927228 0.927228
0.926984 0.926984 0.926984
0.926740 0.926740 0.926740
0.926496 0.926496 0.926496
0.926252 0.926252 0.926252
0.926007 0.926007 0.926007
0.925763 0.925763 0.925763
0.925519 0.925519 0.925519
0.925275 0.925275 0.925275
0.925031 0.925031 0.925031
0.924786 0.924786 0.924786
0.924542 0.924542 0.924542
0.924298 0.924298 0.924298
0.924054 0.924054 0.924054
0.923810 0.923810 0.923810
0.923565 0.923565 0.923565
0.923321 0.923321 0.923321
0.923077 0.923077 0.923077
0.922833 0.922833 0.922833
0.922589 0.922589 0.922589
0.922344 0.922344 0.922344
0.922100 0.922100 0.922100
0.921856 0.921856 0.921856
0.921612 0.921612 0.921612
0.921368 0.921368 0.921368
0.921123 0.921123 0.921123
0.920879 0.920879 0.920879
0.920635 0.920635 0.920635
0.920391 0.920391 0.920391
0.920147 0.920147 0.920147
0.919902 0.919902 0.919902
0.919658 0.919658 0.919658
0.919414 0.919414 0.919414
0.919170 0.919170 0.919170
0.918926 0.918926 0.918926
0.918681 0.918681 0.918681
0.918437 0.918437 0.918437
0.918193 0.918193 0.918193
0.917949 0.917949 0.917949
0.917705 0.917705 0.917705
0.917460 0.917460 0.917460
0.917216 0.917216 0.917216
0.916972 0.916972 0.916972
0.916728 0.916728 0.916728
0.916484 0.916484 0.916484
0.916239 0.916239 0.916239
0.915995 0.915995 0.915995
0.915751 0.915751 0.915751
0.915507 0.915507 0.915507
0.915263 0.915263 0.915263
0.915018 0.915018 0.915018
0.914774 0.914774 0.914774
0.914530 0.914530 0.914530
0.914286 0.914286 0.914286
0.914042 0.914042 0.914042
0.913797 0.913797 0.913797
0.913553 0.913553 0.913553
0.913309 0.913309 0.913309
0.913065 0.913065 0.913065
0.912821 0.912821 0.912821
0.912576 0.912576 0.912576
0.912332 0.912332 0.912332
0.912088 0.912088 0.912088
0.911844 0.911844 0.911844
0.911600 0.911600 0.911600
0.911355 0.911355 0.911355
0.911111 0.911111 0.911111
0.910867 0.910867 0.910867
0.910623 0.910623 0.910623
0.910379 0.910379 0.910379
0.910134 0.910134 0.910134
0.909890 0.909890 0.909890
0.909646 0.909646 0.909646
0.909402 0.909402 0.909402
0.909158 0.909158 0.909158
0.908913 0.908913 0.908913
0.908669 0.908669 0.908669
0.908425 0.908425 0.908425
0.908181 0.908181 0.908181
0.907937 0.907937 0.907937
0.907692 0.907692 0.907692
0.907448 0.907448 0.907448
0.907204 0.907204 0.907204
0.906960 0.906960 0.906960
0.906716 0.906716 0.906716
0.906471 0.906471 0.906471
0.906227 0.906227 0.906227
0.905983 0.905983 0.905983
0.905739 0.905739 0.905739
0.905495 0.905495 0.905495
0.905250 0.905250 0.905250
0.905006 0.905006 0.905006
0.904762 0.904762 0.904762
0.904518 0.904518 0.904518
0.904274 0.904274 0.904274
0.904029 0.904029 0.904029
0.903785 0.903785 0.903785
0.903541 0.903541 0.903541
0.903297 0.903297 0.903297
0.903053 0.903053 0.903053
0.902808 0.902808 0.902808
0.902564 0.902564 0.902564
0.902320 0.902320 0.902320
0.902076 0.902076 0.902076
0.901832 0.901832 0.901832
0.901587 0.901587 0.901587
0.901343 0.901343 0.901343
0.901099 0.901099 0.901099
0.900855 0.900855 0.900855
0.900611 0.900611 0.900611
0.900366 0.900366 0.900366
0.900122 0.900122 0.900122
0.899878 0.899878 0.899878
0.899634 0.899634 0.899634
0.899390 0.899390 0.899390
0.899145 0.899145 0.899145
0.898901 0.898901 0.898901
0.898657 0.898657 0.898657
0.898413 0.898413 0.898413
0.898169 0.898169 0.898169
0.897924 0.897924 0.897924
0.897680 0.897680 0.897680
0.897436 0.897436 0.897436
0.897192 0.897192 0.897192
0.896948 0.896948 0.896948
0.896703 0.896703 0.896703
0.896459 0.896459 0.896459
0.896215 0.896215 0.896215
0.895971 0.895971 0.895971
0.895727 0.895727 0.895727
0.895482 0.895482 0.895482
0.895238 0.895238 0.895238
0.894994 0.894994 0.894994
0.894750 0.894750 0.894750
0.894506 0.894506 0.894506
0.894261 0.894261 0.894261
0.894017 0.894017 0.894017
0.893773 0.893773 0.893773
0.893529 0.893529 0.893529
0.893284 0.893284 0.893284
0.893040 0.893040 0.893040
0.892796 0.892796 0.892796
0.892552 0.892552 0.892552
0.892308 0.892308 0.892308
0.892063 0.892063 0.892063
0.891819 0.891819 0.891819
0.891575 0.891575 0.891575
0.891331 0.891331 0.891331
0.891087 0.891087 0.891087
0.890842 0.890842 0.890842
0.890598 0.890598 0.890598
0.890354 0.890354 0.890354
0.890110 0.890110 0.890110
0.889866 0.889866 0.889866
0.889621 0.889621 0.889621
0.889377 0.889377 0.889377
0.889133 0.889133 0.889133
0.888889 0.888889 0.888889
0.888645 0.888645 0.888645
0.888400 0.888400 0.888400
0.888156 0.888156 0.888156
0.887912 0.887912 0.887912
0.887668 0.887668 0.887668
0.887424 0.887424 0.887424
0.887179 0.887179 0.887179
0.886935 0.886935 0.886935
0.886691 0.886691 0.886691
0.886447 0.886447 0.886447
0.886203 0.886203 0.886203
0.885958 0.885958 0.885958
0.885714 0.885714 0.885714
0.885470 0.885470 0.885470
0.885226 0.885226 0.885226
0.884982 0.884982 0.884982
0.884737 0.884737 0.884737
0.884493 0.884493 0.884493
0.884249 0.884249 0.884249
0.884005 0.884005 0.884005
0.883761 0.883761 0.883761
0.883516 0.883516 0.883516
0.883272 0.883272 0.883272
0.883028 0.883028 0.883028
0.882784 0.882784 0.882784
0.882540 0.882540 0.882540
0.882295 0.882295 0.882295
0.882051 0.882051 0.882051
0.881807 0.881807 0.881807
0.881563 0.881563 0.881563
0.881319 0.881319 0.881319
0.881074 0.881074 0.881074
0.880830 0.880830 0.880830
0.880586 0.880586 0.880586
0.880342 0.880342 0.880342
0.880098 0.880098 0.880098
0.879853 0.879853 0.879853
0.879609 0.879609 0.879609
0.879365 0.879365 0.879365
0.879121 0.879121 0.879121
0.878877 0.878877 0.878877
0.878632 0.878632 0.878632
0.878388 0.878388 0.878388
0.878144 0.878144 0.878144
0.877900 0.877900 0.877900
0.877656 0.877656 0.877656
0.877411 0.877411 0.877411
0.877167 0.877167 0.877167
0.876923 0.876923 0.876923
0.876679 0.876679 0.876679
0.876435 0.876435 0.876435
0.876190 0.876190 0.876190
0.875946 0.875946 0.875946
0.875702 0.875702 0.875702
0.875458 0.875458 0.875458
0.875214 0.875214 0.875214
0.874969 0.874969 0.874969
0.874725 0.874725 0.874725
0.874481 0.874481 0.874481
0.874237 0.874237 0.874237
0.873993 0.873993 0.873993
0.873748 0.873748 0.873748
0.873504 0.873504 0.873504
0.873260 0.873260 0.873260
0.873016 0.873016 0.873016
0.872772 0.872772 0.872772
0.872527 0.872527 0.872527
0.872283 0.872283 0.872283
0.872039 0.872039 0.872039
0.871795 0.871795 0.871795
0.871551 0.871551 0.871551
0.871306 0.871306 0.871306
0.871062 0.871062 0.871062
0.870818 0.870818 0.870818
0.870574 0.870574 0.870574
0.870330 0.870330 0.870330
0.870085 0.870085 0.870085
0.869841 0.869841 0.869841
0.869597 0.869597 0.869597
0.869353 0.869353 0.869353
0.869109 0.869109 0.869109
0.868864 0.868864 0.868864
0.868620 0.868620 0.868620
0.868376 0.868376 0.868376
0.868132 0.868132 0.868132
0.867888 0.867888 0.867888
0.867643 0.867643 0.867643
0.867399 0.867399 0.867399
0.867155 0.867155 0.867155
0.866911 0.866911 0.866911
0.866667 0.866667 0.866667
0.866422 0.866422 0.866422
0.866178 0.866178 0.866178
0.865934 0.865934 0.865934
0.865690 0.865690 0.865690
0.865446 0.865446 0.865446
0.865201 0.865201 0.865201
0.864957 0.864957 0.864957
0.864713 0.864713 0.864713
0.864469 0.864469 0.864469
0.864225 0.864225 0.864225
0.863980 0.863980 0.863980
0.863736 0.863736 0.863736
0.863492 0.863492 0.863492
0.863248 0.863248 0.863248
0.863004 0.863004 0.863004
0.862759 0.862759 0.862759
0.862515 0.862515 0.862515
0.862271 0.862271 0.862271
0.862027 0.862027 0.862027
0.861783 0.861783 0.861783
0.861538 0.861538 0.861538
0.861294 0.861294 0.861294
0.861050 0.861050 0.861050
0.860806 0.860806 0.860806
0.860562 0.860562 0.860562
0.860317 0.860317 0.860317
0.860073 0.860073 0.860073
0.859829 0.859829 0.859829
0.859585 0.859585 0.859585
0.859341 0.859341 0.859341
0.859096 0.859096 0.859096
0.858852 0.858852 0.858852
0.858608 0.858608 0.858608
0.858364 0.858364 0.858364
0.858120 0.858120 0.858120
0.857875 0.857875 0.857875
0.857631 0.857631 0.857631
0.857387 0.857387 0.857387
0.857143 0.857143 0.857143
0.856899 0.856899 0.856899
0.856654 0.856654 0.856654
0.856410 0.856410 0.856410
0.856166 0.856166 0.856166
0.855922 0.855922 0.855922
0.855678 0.855678 0.855678
0.855433 0.855433 0.855433
0.855189 0.855189 0.855189
0.854945 0.854945 0.854945
0.854701 0.854701 0.854701
0.854457 0.854457 0.854457
0.854212 0.854212 0.854212
0.853968 0.853968 0.853968
0.853724 0.853724 0.853724
0.853480 0.853480 0.853480
0.853236 0.853236 0.853236
0.852991 0.852991 0.852991
0.852747 0.852747 0.852747
0.852503 0.852503 0.852503
0.852259 0.852259 0.852259
0.852015 0.852015 0.852015
0.851770 0.851770 0.851770
0.851526 0.851526 0.851526
0.851282 0.851282 0.851282
0.851038 0.851038 0.851038
0.850794 0.850794 0.850794
0.850549 0.850549 0.850549
0.850305 0.850305 0.850305
0.850061 0.850061 0.850061
0.849817 0.849817 0.849817
0.849573 0.849573 0.849573
0.849328 0.849328 0.849328
0.849084 0.849084 0.849084
0.848840 0.848840 0.848840
0.848596 0.848596 0.848596
0.848352 0.848352 0.848352
0.848107 0.848107 0.848107
0.847863 0.847863 0.847863
0.847619 0.847619 0.847619
0.847375 0.847375 0.847375
0.847131 0.847131 0.847131
0.846886 0.846886 0.846886
0.846642 0.846642 0.846642
0.846398 0.846398 0.846398
0.846154 0.846154 0.846154
0.845910 0.845910 0.845910
0.845665 0.845665 0.845665
0.845421 0.845421 0.845421
0.845177 0.845177 0.845177
0.844933 0.844933 0.844933
0.844689 0.844689 0.844689
0.844444 0.844444 0.844444
0.844200 0.844200 0.844200
0.843956 0.843956 0.843956
0.843712 0.843712 0.843712
0.843468 0.843468 0.843468
0.843223 0.843223 0.843223
0.842979 0.842979 0.842979
0.842735 0.842735 0.842735
0.842491 0.842491 0.842491
0.842247 0.842247 0.842247
0.842002 0.842002 0.842002
0.841758 0.841758 0.841758
0.841514 0.841514 0.841514
0.841270 0.841270 0.841270
0.841026 0.841026 0.841026
0.840781 0.840781 0.840781
0.840537 0.840537 0.840537
0.840293 0.840293 0.840293
0.840049 0.840049 0.840049
0.839805 0.839805 0.839805
0.839560 0.839560 0.839560
0.839316 0.839316 0.839316
0.839072 0.839072 0.839072
0.838828 0.838828 0.838828
0.838584 0.838584 0.838584
0.838339 0.838339 0.838339
0.838095 0.838095 0.838095
0.837851 0.837851 0.837851
0.837607 0.837607 0.837607
0.837363 0.837363 0.837363
0.837118 0.837118 0.837118
0.836874 0.836874 0.836874
0.836630 0.836630 0.836630
0.836386 0.836386 0.836386
0.836142 0.836142 0.836142
0.835897 0.835897 0.835897
0.835653 0.835653 0.835653
0.835409 0.835409 0.835409
0.835165 0.835165 0.835165
0.834921 0.834921 0.834921
0.834676 0.834676 0.834676
0.834432 0.834432 0.834432
0.834188 0.834188 0.834188
0.833944 0.833944 0.833944
0.833700 0.833700 0.833700
0.833455 0.833455 0.833455
0.833211 0.833211 0.833211
0.832967 0.832967 0.832967
0.832723 0.832723 0.832723
0.832479 0.832479 0.832479
0.832234 0.832234 0.832234
0.831990 0.831990 0.831990
0.831746 0.831746 0.831746
0.831502 0.831502 0.831502
0.831258 0.831258 0.831258
0.831013 0.831013 0.831013
0.830769 0.830769 0.830769
0.830525 0.830525 0.830525
0.830281 0.830281 0.830281
0.830037 0.830037 0.830037
0.829792 0.829792 0.829792
0.829548 0.829548 0.829548
0.829304 0.829304 0.829304
0.829060 0.829060 0.829060
0.828816 0.828816 0.828816
0.828571 0.828571 0.828571
0.828327 0.828327 0.828327
0.828083 0.828083 0.828083
0.827839 0.827839 0.827839
0.827595 0.827595 0.827595
0.827350 0.827350 0.827350
0.827106 0.827106 0.827106
0.826862 0.826862 0.826862
0.826618 0.826618 0.826618
0.826374 0.826374 0.826374
0.826129 0.826129 0.826129
0.825885 0.825885 0.825885
0.825641 0.825641 0.825641
0.825397 0.825397 0.825397
0.825153 0.825153 0.825153
0.824908 0.824908 0.824908
0.824664 0.824664 0.824664
0.824420 0.824420 0.824420
0.824176 0.824176 0.824176
0.823932 0.823932 0.823932
0.823687 0.823687 0.823687
0.823443 0.823443 0.823443
0.823199 0.823199 0.823199
0.822955 0.822955 0.822955
0.822711 0.822711 0.822711
0.822466 0.822466 0.822466
0.822222 0.822222 0.822222
0.821978 0.821978 0.821978
0.821734 0.821734 0.821734
0.821490 0.821490 0.821490
0.821245 0.821245 0.821245
0.821001 0.821001 0.821001
0.820757 0.820757 0.820757
0.820513 0.820513 0.820513
0.820269 0.820269 0.820269
0.820024 0.820024 0.820024
0.819780 0.819780 0.819780
0.819536 0.819536 0.819536
0.819292 0.819292 0.819292
0.819048 0.819048 0.819048
0.818803 0.818803 0.818803
0.818559 0.818559 0.818559
0.818315 0.818315 0.818315
0.818071 0.818071 0.818071
0.817827 0.817827 0.817827
0.817582 0.817582 0.817582
0.817338 0.817338 0.817338
0.817094 0.817094 0.817094
0.816850 0.816850 0.816850
0.816606 0.816606 0.816606
0.816361 0.816361 0.816361
0.816117 0.816117 0.816117
0.815873 0.815873 0.815873
0.815629 0.815629 0.815629
0.815385 0.815385 0.815385
0.815140 0.815140 0.815140
0.814896 0.814896 0.814896
0.814652 0.814652 0.814652
0.814408 0.814408 0.814408
0.814164 0.814164 0.814164
0.813919 0.813919 0.813919
0.813675 0.813675 0.813675
0.813431 0.813431 0.813431
0.813187 0.813187 0.813187
0.812943 0.812943 0.812943
0.812698 0.812698 0.812698
0.812454 0.812454 0.812454
0.812210 0.812210 0.812210
0.811966 0.811966 0.811966
0.811722 0.811722 0.811722
0.811477 0.811477 0.811477
0.811233 0.811233 0.811233
0.810989 0.810989 0.810989
0.810745 0.810745 0.810745
0.810501 0.810501 0.810501
0.810256 0.810256 0.810256
0.810012 0.810012 0.810012
0.809768 0.809768 0.809768
0.809524 0.809524 0.809524
0.809280 0.809280 0.809280
0.809035 0.809035 0.809035
0.808791 0.808791 0.808791
0.808547 0.808547 0.808547
0.808303 0.808303 0.808303
0.808059 0.808059 0.808059
0.807814 0.807814 0.807814
0.807570 0.807570 0.807570
0.807326 0.807326 0.807326
0.807082 0.807082 0.807082
0.806838 0.806838 0.806838
0.806593 0.806593 0.806593
0.806349 0.806349 0.806349
0.806105 0.806105 0.806105
0.805861 0.805861 0.805861
0.805617 0.805617 0.805617
0.805372 0.805372 0.805372
0.805128 0.805128 0.805128
0.804884 0.804884 0.804884
0.804640 0.804640 0.804640
0.804396 0.804396 0.804396
0.804151 0.804151 0.804151
0.803907 0.803907 0.803907
0.803663 0.803663 0.803663
0.803419 0.803419 0.803419
0.803175 0.803175 0.803175
0.802930 0.802930 0.802930
0.802686 0.802686 0.802686
0.802442 0.802442 0.802442
0.802198 0.802198 0.802198
0.801954 0.801954 0.801954
0.801709 0.801709 0.801709
0.801465 0.801465 0.801465
0.801221 0.801221 0.801221
0.800977 0.800977 0.800977
0.800733 0.800733 0.800733
0.800488 0.800488 0.800488
0.800244 0.800244 0.800244
0.800000 0.800000 0.800000
0.799756 0.799756 0.799756
0.799512 0.799512 0.799512
0.799267 0.799267 0.799267
0.799023 0.799023 0.799023
0.798779 0.798779 0.798779
0.798535 0.798535 0.798535
0.798291 0.798291 0.798291
0.798046 0.798046 0.798046
0.797802 0.797802 0.797802
0.797558 0.797558 0.797558
0.797314 0.797314 0.797314
0.797070 0.797070 0.797070
0.796825 0.796825 0.796825
0.796581 0.796581 0.796581
0.796337 0.796337 0.796337
0.796093 0.796093 0.796093
0.795849 0.795849 0.795849
0.795604 0.795604 0.795604
0.795360 0.795360 0.795360
0.795116 0.795116 0.795116
0.794872 0.794872 0.794872
0.794628 0.794628 0.794628
0.794383 0.794383 0.794383
0.794139 0.794139 0.794139
0.793895 0.793895 0.793895
0.793651 0.793651 0.793651
0.793407 0.793407 0.793407
0.793162 0.793162 0.793162
0.792918 0.792918 0.792918
0.792674 0.792674 0.792674
0.792430 0.792430 0.792430
0.792186 0.792186 0.792186
0.791941 0.791941 0.791941
0.791697 0.791697 0.791697
0.791453 0.791453 0.791453
0.791209 0.791209 0.791209
0.790965 0.790965 0.790965
0.790720 0.790720 0.790720
0.790476 0.790476 0.790476
0.790232 0.790232 0.790232
0.789988 0.789988 0.789988
0.789744 0.789744 0.789744
0.789499 0.789499 0.789499
0.789255 0.789255 0.789255
0.789011 0.789011 0.789011
0.788767 0.788767 0.788767
0.788523 0.788523 0.788523
0.788278 0.788278 0.788278
0.788034 0.788034 0.788034
0.787790 0.787790 0.787790
0.787546 0.787546 0.787546
0.787302 0.787302 0.787302
0.787057 0.787057 0.787057
0.786813 0.786813 0.786813
0.786569 0.786569 0.786569
0.786325 0.786325 0.786325
0.786081 0.786081 0.786081
0.785836 0.785836 0.785836
0.785592 0.785592 0.785592
0.785348 0.785348 0.785348
0.785104 0.785104 0.785104
0.784860 0.784860 0.784860
0.784615 0.784615 0.784615
0.784371 0.784371 0.784371
