Graders/Fission.cube
# Fission Colour Grading LUT
# Copyright (C) 2022 Jan Van Coppenolle

LUT_1D_SIZE 4096

DOMAIN_MIN 0.0 0.0 0.0
DOMAIN_MAX 1.0 1.0 1.0

0.000000 0.000000 0.000000
0.000488 0.000000 0.000000
0.000977 0.000000 0.000000
0.001465 0.000000 0.000000
0.001953 0.000000 0.000000
0.002441 0.000000 0.000000
0.002928 0.000000 0.000000
0.003416 0.000000 0.000000
0.003903 0.000000 0.000000
0.004391 0.000000 0.000000
0.004878 0.000000 0.000000
0.005365 0.000000 0.000000
0.005852 0.000000 0.000000
0.006339 0.000000 0.000000
0.006826 0.000000 0.000000
0.007313 0.000000 0.000000
0.007799 0.000000 0.000000
0.008286 0.000000 0.000000
0.008772 0.000000 0.000000
0.009258 0.000000 0.000000
0.009744 0.000000 0.000000
0.010230 0.000000 0.000000
0.010716 0.000000 0.000000
0.011202 0.000000 0.000000
0.011687 0.000000 0.000000
0.012173 0.000000 0.000000
0.012658 0.000000 0.000000
0.013143 0.000000 0.000000
0.013628 0.000000 0.000000
0.014113 0.000000 0.000000
0.014598 0.000000 0.000000
0.015083 0.000000 0.000000
0.015568 0.000000 0.000000
0.016052 0.000000 0.000000
0.016537 0.000000 0.000000
0.017021 0.000000 0.000000
0.017505 0.000000 0.000000
0.017989 0.000000 0.000000
0.018473 0.000000 0.000000
0.018957 0.000000 0.000000
0.019441 0.000000 0.000000
0.019924 0.000000 0.000000
0.020408 0.000000 0.000000
0.020891 0.000000 0.000000
0.021374 0.000000 0.000000
0.021857 0.000000 0.000000
0.022340 0.000000 0.000000
0.022823 0.000000 0.000000
0.023306 0.000000 0.000000
0.023788 0.000000 0.000000
0.024271 0.000000 0.000000
0.024753 0.000000 0.000000
0.025236 0.000000 0.000000
0.025718 0.000000 0.000000
0.026200 0.000000 0.000000
0.026682 0.000000 0.000000
0.027163 0.000000 0.000000
0.027645 0.000000 0.000000
0.028127 0.000000 0.000000
0.028608 0.000000 0.000000
0.029089 0.000000 0.000000
0.029571 0.000000 0.000000
0.030052 0.000000 0.000000
0.030533 0.000000 0.000000
0.031013 0.000000 0.000000
0.031494 0.000000 0.000000
0.031975 0.000000 0.000000
0.032455 0.000000 0.000000
0.032935 0.000000 0.000000
0.033416 0.000000 0.000000
0.033896 0.000000 0.000000
0.034376 0.000000 0.000000
0.034856 0.000000 0.000000
0.035335 0.000000 0.000000
0.035815 0.000000 0.000000
0.036295 0.000000 0.000000
0.036774 0.000000 0.000000
0.037253 0.000000 0.000000
0.037732 0.000000 0.000000
0.038211 0.000000 0.000000
0.038690 0.000000 0.000000
0.039169 0.000000 0.000000
0.039648 0.000000 0.000000
0.040126 0.000000 0.000000
0.040605 0.000000 0.000000
0.041083 0.000000 0.000000
0.041561 0.000000 0.000000
0.042039 0.000000 0.000000
0.042517 0.000000 0.000000
0.042995 0.000000 0.000000
0.043473 0.000000 0.000000
0.043951 0.000000 0.000000
0.044428 0.000000 0.000000
0.044905 0.000000 0.000000
0.045383 0.000000 0.000000
0.045860 0.000000 0.000000
0.046337 0.000000 0.000000
0.046814 0.000000 0.000000
0.047291 0.000000 0.000000
0.047767 0.000000 0.000000
0.048244 0.000000 0.000000
0.048720 0.000000 0.000000
0.049196 0.000000 0.000000
0.049673 0.000000 0.000000
0.050149 0.000000 0.000000
0.050625 0.000000 0.000000
0.051100 0.000000 0.000000
0.051576 0.000000 0.000000
0.052052 0.000000 0.000000
0.052527 0.000000 0.000000
0.053002 0.000000 0.000000
0.053478 0.000000 0.000000
0.053953 0.000000 0.000000
0.054428 0.000000 0.000000
0.054903 0.000000 0.000000
0.055377 0.000000 0.000000
0.055852 0.000000 0.000000
0.056327 0.000000 0.000000
0.056801 0.000000 0.000000
0.057275 0.000000 0.000000
0.057749 0.000000 0.000000
0.058223 0.000000 0.000000
0.058697 0.000000 0.000000
0.059171 0.000000 0.000000
0.059645 0.000000 0.000000
0.060118 0.000000 0.000000
0.060592 0.000000 0.000000
0.061065 0.000000 0.000000
0.061538 0.000000 0.000000
0.062011 0.000000 0.000000
0.062484 0.000000 0.000000
0.062957 0.000000 0.000000
0.063430 0.000000 0.000000
0.063902 0.000000 0.000000
0.064375 0.000000 0.000000
0.064847 0.000000 0.000000
0.065319 0.000000 0.000000
0.065792 0.000000 0.000000
0.066264 0.000000 0.000000
0.066735 0.000000 0.000000
0.067207 0.000000 0.000000
0.067679 0.000000 0.000000
0.068150 0.000000 0.000000
0.068622 0.000000 0.000000
0.069093 0.000000 0.000000
0.069564 0.000000 0.000000
0.070035 0.000000 0.000000
0.070506 0.000000 0.000000
0.070977 0.000000 0.000000
0.071448 0.000000 0.000000
0.071918 0.000000 0.000000
0.072389 0.000000 0.000000
0.072859 0.000000 0.000000
0.073329 0.000000 0.000000
0.073799 0.000000 0.000000
0.074269 0.000000 0.000000
0.074739 0.000000 0.000000
0.075209 0.000000 0.000000
0.075679 0.000000 0.000000
0.076148 0.000000 0.000000
0.076617 0.000000 0.000000
0.077087 0.000000 0.000000
0.077556 0.000000 0.000000
0.078025 0.000000 0.000000
0.078494 0.000000 0.000000
0.078963 0.000000 0.000000
0.079431 0.000000 0.000000
0.079900 0.000000 0.000000
0.080368 0.000000 0.000000
0.080836 0.000000 0.000000
0.081305 0.000000 0.000000
0.081773 0.000000 0.000000
0.082241 0.000000 0.000000
0.082709 0.000000 0.000000
0.083176 0.000000 0.000000
0.083644 0.000000 0.000000
0.084111 0.000000 0.000000
0.084579 0.000000 0.000000
0.085046 0.000000 0.000000
0.085513 0.000000 0.000000
0.085980 0.000000 0.000000
0.086447 0.000000 0.000000
0.086914 0.000000 0.000000
0.087380 0.000000 0.000000
0.087847 0.000000 0.000000
0.088313 0.000000 0.000000
0.088779 0.000000 0.000000
0.089246 0.000000 0.000000
0.089712 0.000000 0.000000
0.090178 0.000000 0.000000
0.090643 0.000000 0.000000
0.091109 0.000000 0.000000
0.091575 0.000000 0.000000
0.092040 0.000000 0.000000
0.092505 0.000000 0.000000
0.092971 0.000000 0.000000
0.093436 0.000000 0.000000
0.093901 0.000000 0.000000
0.094365 0.000000 0.000000
0.094830 0.000000 0.000000
0.095295 0.000000 0.000000
0.095759 0.000000 0.000000
0.096224 0.000000 0.000000
0.096688 0.000000 0.000000
0.097152 0.000000 0.000000
0.097616 0.000000 0.000000
0.098080 0.000000 0.000000
0.098544 0.000000 0.000000
0.099007 0.000000 0.000000
0.099471 0.000000 0.000000
0.099934 0.000000 0.000000
0.100398 0.000000 0.000000
0.100861 0.000000 0.000000
0.101324 0.000000 0.000000
0.101787 0.000000 0.000000
0.102250 0.000000 0.000000
0.102712 0.000000 0.000000
0.103175 0.000000 0.000000
0.103637 0.000000 0.000000
0.104100 0.000000 0.000000
0.104562 0.000000 0.000000
0.105024 0.000000 0.000000
0.105486 0.000000 0.000000
0.105948 0.000000 0.000000
0.106410 0.000000 0.000000
0.106871 0.000000 0.000000
0.107333 0.000000 0.000000
0.107794 0.000000 0.000000
0.108255 0.000000 0.000000
0.108716 0.000000 0.000000
0.109177 0.000000 0.000000
0.109638 0.000000 0.000000
0.110099 0.000000 0.000000
0.110560 0.000000 0.000000
0.111020 0.000000 0.000000
0.111481 0.000000 0.000000
0.111941 0.000000 0.000000
0.112401 0.000000 0.000000
0.112861 0.000000 0.000000
0.113321 0.000000 0.000000
0.113781 0.000000 0.000000
0.114241 0.000000 0.000000
0.114701 0.000000 0.000000
0.115160 0.000000 0.000000
0.115619 0.000000 0.000000
0.116079 0.000000 0.000000
0.116538 0.000000 0.000000
0.116997 0.000000 0.000000
0.117456 0.000000 0.000000
0.117914 0.000000 0.000000
0.118373 0.000000 0.000000
0.118832 0.000000 0.000000
0.119290 0.000000 0.000000
0.119748 0.000000 0.000000
0.120206 0.000000 0.000000
0.120664 0.000000 0.000000
0.121122 0.000000 0.000000
0.121580 0.000000 0.000000
0.122038 0.000000 0.000000
0.122495 0.000000 0.000000
0.122953 0.000000 0.000000
0.123410 0.000000 0.000000
0.123867 0.000000 0.000000
0.124325 0.000000 0.000000
0.124782 0.000000 0.000000
0.125238 0.000000 0.000000
0.125695 0.000000 0.000000
0.126152 0.000000 0.000000
0.126608 0.000000 0.000000
0.127065 0.000000 0.000000
0.127521 0.000000 0.000000
0.127977 0.000000 0.000000
0.128433 0.000000 0.000000
0.128889 0.000000 0.000000
0.129345 0.000000 0.000000
0.129800 0.000000 0.000000
0.130256 0.000000 0.000000
0.130711 0.000000 0.000000
0.131167 0.000000 0.000000
0.131622 0.000000 0.000000
0.132077 0.000000 0.000000
0.132532 0.000000 0.000000
0.132987 0.000000 0.000000
0.133441 0.000000 0.000000
0.133896 0.000000 0.000000
0.134350 0.000000 0.000000
0.134805 0.000000 0.000000
0.135259 0.000000 0.000000
0.135713 0.000000 0.000000
0.136167 0.000000 0.000000
0.136621 0.000000 0.000000
0.137075 0.000000 0.000000
0.137528 0.000000 0.000000
0.137982 0.000000 0.000000
0.138435 0.000000 0.000000
0.138889 0.000000 0.000000
0.139342 0.000000 0.000000
0.139795 0.000000 0.000000
0.140248 0.000000 0.000000
0.140700 0.000000 0.000000
0.141153 0.000000 0.000000
0.141606 0.000000 0.000000
0.142058 0.000000 0.000000
0.142510 0.000000 0.000000
0.142963 0.000000 0.000000
0.143415 0.000000 0.000000
0.143867 0.000000 0.000000
0.144319 0.000000 0.000000
0.144770 0.000000 0.000000
0.145222 0.000000 0.000000
0.145673 0.000000 0.000000
0.146125 0.000000 0.000000
0.146576 0.000000 0.000000
0.147027 0.000000 0.000000
0.147478 0.000000 0.000000
0.147929 0.000000 0.000000
0.148380 0.000000 0.000000
0.148830 0.000000 0.000000
0.149281 0.000000 0.000000
0.149731 0.000000 0.000000
0.150182 0.000000 0.000000
0.150632 0.000000 0.000000
0.151082 0.000000 0.000000
0.151532 0.000000 0.000000
0.151982 0.000000 0.000000
0.152431 0.000000 0.000000
0.152881 0.000000 0.000000
0.153330 0.000000 0.000000
0.153780 0.000000 0.000000
0.154229 0.000000 0.000000
0.154678 0.000000 0.000000
0.155127 0.000000 0.000000
0.155576 0.000000 0.000000
0.156025 0.000000 0.000000
0.156473 0.000000 0.000000
0.156922 0.000000 0.000000
0.157370 0.000000 0.000000
0.157818 0.000000 0.000000
0.158267 0.000000 0.000000
0.158715 0.000000 0.000000
0.159163 0.000000 0.000000
0.159610 0.000000 0.000000
0.160058 0.000000 0.000000
0.160506 0.000000 0.000000
0.160953 0.000000 0.000000
0.161400 0.000000 0.000000
0.161847 0.000000 0.000000
0.162295 0.000000 0.000000
0.162741 0.000000 0.000000
0.163188 0.000000 0.000000
0.163635 0.000000 0.000000
0.164082 0.000000 0.000000
0.164528 0.000000 0.000000
0.164974 0.000000 0.000000
0.165421 0.000000 0.000000
0.165867 0.000000 0.000000
0.166313 0.000000 0.000000
0.166759 0.000000 0.000000
0.167204 0.000000 0.000000
0.167650 0.000000 0.000000
0.168096 0.000000 0.000000
0.168541 0.000000 0.000000
0.168986 0.000000 0.000000
0.169432 0.000000 0.000000
0.169877 0.000000 0.000000
0.170321 0.000000 0.000000
0.170766 0.000000 0.000000
0.171211 0.000000 0.000000
0.171656 0.000000 0.000000
0.172100 0.000000 0.000000
0.172544 0.000000 0.000000
0.172989 0.000000 0.000000
0.173433 0.000000 0.000000
0.173877 0.000000 0.000000
0.174320 0.000000 0.000000
0.174764 0.000000 0.000000
0.175208 0.000000 0.000000
0.175651 0.000000 0.000000
0.176095 0.000000 0.000000
0.176538 0.000000 0.000000
0.176981 0.000000 0.000000
0.177424 0.000000 0.000000
0.177867 0.000000 0.000000
0.178310 0.000000 0.000000
0.178752 0.000000 0.000000
0.179195 0.000000 0.000000
0.179637 0.000000 0.000000
0.180080 0.000000 0.000000
0.180522 0.000000 0.000000
0.180964 0.000000 0.000000
0.181406 0.000000 0.000000
0.181848 0.000000 0.000000
0.182289 0.000000 0.000000
0.182731 0.000000 0.000000
0.183172 0.000000 0.000000
0.183614 0.000000 0.000000
0.184055 0.000000 0.000000
0.184496 0.000000 0.000000
0.184937 0.000000 0.000000
0.185378 0.000000 0.000000
0.185819 0.000000 0.000000
0.186259 0.000000 0.000000
0.186700 0.000000 0.000000
0.187140 0.000000 0.000000
0.187581 0.000000 0.000000
0.188021 0.000000 0.000000
0.188461 0.000000 0.000000
0.188901 0.000000 0.000000
0.189341 0.000000 0.000000
0.189780 0.000000 0.000000
0.190220 0.000000 0.000000
0.190659 0.000000 0.000000
0.191099 0.000000 0.000000
0.191538 0.000000 0.000000
0.191977 0.000000 0.000000
0.192416 0.000000 0.000000
0.192855 0.000000 0.000000
0.193293 0.000000 0.000000
0.193732 0.000000 0.000000
0.194170 0.000000 0.000000
0.194609 0.000000 0.000000
0.195047 0.000000 0.000000
0.195485 0.000000 0.000000
0.195923 0.000000 0.000000
0.196361 0.000000 0.000000
0.196799 0.000000 0.000000
0.197237 0.000000 0.000000
0.197674 0.000000 0.000000
0.198111 0.000000 0.000000
0.198549 0.000000 0.000000
0.198986 0.000000 0.000000
0.199423 0.000000 0.000000
0.199860 0.000000 0.000000
0.200297 0.000000 0.000000
0.200733 0.000000 0.000000
0.201170 0.000000 0.000000
0.201606 0.000000 0.000000
0.202043 0.000000 0.000000
0.202479 0.000000 0.000000
0.202915 0.000000 0.000000
0.203351 0.000000 0.000000
0.203787 0.000000 0.000000
0.204223 0.000000 0.000000
0.204658 0.000000 0.000000
0.205094 0.000000 0.000000
0.205529 0.000000 0.000000
0.205965 0.000000 0.000000
0.206400 0.000000 0.000000
0.206835 0.000000 0.000000
0.207270 0.000000 0.000000
0.207704 0.000000 0.000000
0.208139 0.000000 0.000000
0.208574 0.000000 0.000000
0.209008 0.000000 0.000000
0.209442 0.000000 0.000000
0.209877 0.000000 0.000000
0.210311 0.000000 0.000000
0.210745 0.000000 0.000000
0.211178 0.000000 0.000000
0.211612 0.000000 0.000000
0.212046 0.000000 0.000000
0.212479 0.000000 0.000000
0.212913 0.000000 0.000000
0.213346 0.000000 0.000000
0.213779 0.000000 0.000000
0.214212 0.000000 0.000000
0.214645 0.000000 0.000000
0.215078 0.000000 0.000000
0.215510 0.000000 0.000000
0.215943 0.000000 0.000000
0.216375 0.000000 0.000000
0.216807 0.000000 0.000000
0.217240 0.000000 0.000000
0.217672 0.000000 0.000000
0.218104 0.000000 0.000000
0.218535 0.000000 0.000000
0.218967 0.000000 0.000000
0.219399 0.000000 0.000000
0.219830 0.000000 0.000000
0.220261 0.000000 0.000000
0.220693 0.000000 0.000000
0.221124 0.000000 0.000000
0.221555 0.000000 0.000000
0.221986 0.000000 0.000000
0.222416 0.000000 0.000000
0.222847 0.000000 0.000000
0.223277 0.000000 0.000000
0.223708 0.000000 0.000000
0.224138 0.000000 0.000000
0.224568 0.000000 0.000000
0.224998 0.000000 0.000000
0.225428 0.000000 0.000000
0.225858 0.000000 0.000000
0.226288 0.000000 0.000000
0.226717 0.000000 0.000000
0.227146 0.000000 0.000000
0.227576 0.000000 0.000000
0.228005 0.000000 0.000000
0.228434 0.000000 0.000000
0.228863 0.000000 0.000000
0.229292 0.000000 0.000000
0.229721 0.000000 0.000000
0.230149 0.000000 0.000000
0.230578 0.000000 0.000000
0.231006 0.000000 0.000000
0.231434 0.000000 0.000000
0.231862 0.000000 0.000000
0.232290 0.000000 0.000000
0.232718 0.000000 0.000000
0.233146 0.000000 0.000000
0.233574 0.000000 0.000000
0.234001 0.000000 0.000000
0.234428 0.000000 0.000000
0.234856 0.000000 0.000000
0.235283 0.000000 0.000000
0.235710 0.000000 0.000000
0.236137 0.000000 0.000000
0.236564 0.000000 0.000000
0.236990 0.000000 0.000000
0.237417 0.000000 0.000000
0.237843 0.000000 0.000000
0.238270 0.000000 0.000000
0.238696 0.000000 0.000000
0.239122 0.000000 0.000000
0.239548 0.000000 0.000000
0.239974 0.000000 0.000000
0.240399 0.000000 0.000000
0.240825 0.000000 0.000000
0.241251 0.000000 0.000000
0.241676 0.000000 0.000000
0.242101 0.000000 0.000000
0.242526 0.000000 0.000000
0.242951 0.000000 0.000000
0.243376 0.000000 0.000000
0.243801 0.000000 0.000000
0.244226 0.000000 0.000000
0.244650 0.000000 0.000000
0.245075 0.000000 0.000000
0.245499 0.000000 0.000000
0.245923 0.000000 0.000000
0.246347 0.000000 0.000000
0.246771 0.000000 0.000000
0.247195 0.000000 0.000000
0.247619 0.000000 0.000000
0.248042 0.000000 0.000000
0.248466 0.000000 0.000000
0.248889 0.000000 0.000000
0.249312 0.000000 0.000000
0.249735 0.000000 0.000000
0.250158 0.000000 0.000000
0.250581 0.000000 0.000000
0.251004 0.000000 0.000000
0.251426 0.000000 0.000000
0.251849 0.000000 0.000000
0.252271 0.000000 0.000000
0.252694 0.000000 0.000000
0.253116 0.000000 0.000000
0.253538 0.000000 0.000000
0.253960 0.000000 0.000000
0.254381 0.000000 0.000000
0.254803 0.000000 0.000000
0.255225 0.000000 0.000000
0.255646 0.000000 0.000000
0.256067 0.000000 0.000000
0.256489 0.000000 0.000000
0.256910 0.000000 0.000000
0.257331 0.000000 0.000000
0.257751 0.000000 0.000000
0.258172 0.000000 0.000000
0.258593 0.000000 0.000000
0.259013 0.000000 0.000000
0.259434 0.000000 0.000000
0.259854 0.000000 0.000000
0.260274 0.000000 0.000000
0.260694 0.000000 0.000000
0.261114 0.000000 0.000000
0.261534 0.000000 0.000000
0.261953 0.000000 0.000000
0.262373 0.000000 0.000000
0.262792 0.000000 0.000000
0.263211 0.000000 0.000000
0.263631 0.000000 0.000000
0.264050 0.000000 0.000000
0.264469 0.000000 0.000000
0.264887 0.000000 0.000000
0.265306 0.000000 0.000000
0.265725 0.000000 0.000000
0.266143 0.000000 0.000000
0.266561 0.000000 0.000000
0.266980 0.000000 0.000000
0.267398 0.000000 0.000000
0.267816 0.000000 0.000000
0.268234 0.000000 0.000000
0.268651 0.000000 0.000000
0.269069 0.000000 0.000000
0.269486 0.000000 0.000000
0.269904 0.000000 0.000000
0.270321 0.000000 0.000000
0.270738 0.000000 0.000000
0.271155 0.000000 0.000000
0.271572 0.000000 0.000000
0.271989 0.000000 0.000000
0.272406 0.000000 0.000000
0.272822 0.000000 0.000000
0.273239 0.000000 0.000000
0.273655 0.000000 0.000000
0.274071 0.000000 0.000000
0.274487 0.000000 0.000000
0.274903 0.000000 0.000000
0.275319 0.000000 0.000000
0.275735 0.000000 0.000000
0.276150 0.000000 0.000000
0.276566 0.000000 0.000000
0.276981 0.000000 0.000000
0.277396 0.000000 0.000000
0.277811 0.000000 0.000000
0.278226 0.000000 0.000000
0.278641 0.000000 0.000000
0.279056 0.000000 0.000000
0.279471 0.000000 0.000000
0.279885 0.000000 0.000000
0.280299 0.000000 0.000000
0.280714 0.000000 0.000000
0.281128 0.000000 0.000000
0.281542 0.000000 0.000000
0.281956 0.000000 0.000000
0.282370 0.000000 0.000000
0.282783 0.000000 0.000000
0.283197 0.000000 0.000000
0.283610 0.000000 0.000000
0.284024 0.000000 0.000000
0.284437 0.000000 0.000000
0.284850 0.000000 0.000000
0.285263 0.000000 0.000000
0.285676 0.000000 0.000000
0.286088 0.000000 0.000000
0.286501 0.000000 0.000000
0.286914 0.000000 0.000000
0.287326 0.000000 0.000000
0.287738 0.000000 0.000000
0.288150 0.000000 0.000000
0.288562 0.000000 0.000000
0.288974 0.000000 0.000000
0.289386 0.000000 0.000000
0.289798 0.000000 0.000000
0.290209 0.000000 0.000000
0.290621 0.000000 0.000000
0.291032 0.000000 0.000000
0.291443 0.000000 0.000000
0.291854 0.000000 0.000000
0.292265 0.000000 0.000000
0.292676 0.000000 0.000000
0.293087 0.000000 0.000000
0.293497 0.000000 0.000000
0.293908 0.000000 0.000000
0.294318 0.000000 0.000000
0.294728 0.000000 0.000000
0.295138 0.000000 0.000000
0.295548 0.000000 0.000000
0.295958 0.000000 0.000000
0.296368 0.000000 0.000000
0.296777 0.000000 0.000000
0.297187 0.000000 0.000000
0.297596 0.000000 0.000000
0.298006 0.000000 0.000000
0.298415 0.000000 0.000000
0.298824 0.000000 0.000000
0.299233 0.000000 0.000000
0.299642 0.000000 0.000000
0.300050 0.000000 0.000000
0.300459 0.000000 0.000000
0.300867 0.000000 0.000000
0.301275 0.000000 0.000000
0.301684 0.000000 0.000000
0.302092 0.000000 0.000000
0.302500 0.000000 0.000000
0.302908 0.000000 0.000000
0.303315 0.000000 0.000000
0.303723 0.000000 0.000000
0.304130 0.000000 0.000000
0.304538 0.000000 0.000000
0.304945 0.000000 0.000000
0.305352 0.000000 0.000000
0.305759 0.000000 0.000000
0.306166 0.000000 0.000000
0.306573 0.000000 0.000000
0.306979 0.000000 0.000000
0.307386 0.000000 0.000000
0.307792 0.000000 0.000000
0.308199 0.000000 0.000000
0.308605 0.000000 0.000000
0.309011 0.000000 0.000000
0.309417 0.000000 0.000000
0.309822 0.000000 0.000000
0.310228 0.000000 0.000000
0.310634 0.000000 0.000000
0.311039 0.000000 0.000000
0.311445 0.000000 0.000000
0.311850 0.000000 0.000000
0.312255 0.000000 0.000000
0.312660 0.000000 0.000000
0.313065 0.000000 0.000000
0.313469 0.000000 0.000000
0.313874 0.000000 0.000000
0.314279 0.000000 0.000000
0.314683 0.000000 0.000000
0.315087 0.000000 0.000000
0.315491 0.000000 0.000000
0.315895 0.000000 0.000000
0.316299 0.000000 0.000000
0.316703 0.000000 0.000000
0.317107 0.000000 0.000000
0.317510 0.000000 0.000000
0.317914 0.000000 0.000000
0.318317 0.000000 0.000000
0.318720 0.000000 0.000000
0.319123 0.000000 0.000000
0.319526 0.000000 0.000000
0.319929 0.000000 0.000000
0.320332 0.000000 0.000000
0.320734 0.000000 0.000000
0.321137 0.000000 0.000000
0.321539 0.000000 0.000000
0.321941 0.000000 0.000000
0.322343 0.000000 0.000000
0.322745 0.000000 0.000000
0.323147 0.000000 0.000000
0.323549 0.000000 0.000000
0.323951 0.000000 0.000000
0.324352 0.000000 0.000000
0.324754 0.000000 0.000000
0.325155 0.000000 0.000000
0.325556 0.000000 0.000000
0.325957 0.000000 0.000000
0.326358 0.000000 0.000000
0.326759 0.000000 0.000000
0.327159 0.000000 0.000000
0.327560 0.000000 0.000000
0.327960 0.000000 0.000000
0.328361 0.000000 0.000000
0.328761 0.000000 0.000000
0.329161 0.000000 0.000000
0.329561 0.000000 0.000000
0.329961 0.000000 0.000000
0.330361 0.000000 0.000000
0.330760 0.000000 0.000000
0.331160 0.000000 0.000000
0.331559 0.000000 0.000000
0.331958 0.000000 0.000000
0.332357 0.000000 0.000000
0.332756 0.000000 0.000000
0.333155 0.000000 0.000000
0.333554 0.000000 0.000000
0.333953 0.000000 0.000000
0.334351 0.000000 0.000000
0.334750 0.000000 0.000000
0.335148 0.000000 0.000000
0.335546 0.000000 0.000000
0.335944 0.000000 0.000000
0.336342 0.000000 0.000000
0.336740 0.000000 0.000000
0.337138 0.000000 0.000000
0.337535 0.000000 0.000000
0.337933 0.000000 0.000000
0.338330 0.000000 0.000000
0.338727 0.000000 0.000000
0.339124 0.000000 0.000000
0.339521 0.000000 0.000000
0.339918 0.000000 0.000000
0.340315 0.000000 0.000000
0.340712 0.000000 0.000000
0.341108 0.000000 0.000000
0.341504 0.000000 0.000000
0.341901 0.000000 0.000000
0.342297 0.000000 0.000000
0.342693 0.000000 0.000000
0.343089 0.000000 0.000000
0.343485 0.000000 0.000000
0.343880 0.000000 0.000000
0.344276 0.000000 0.000000
0.344671 0.000000 0.000000
0.345067 0.000000 0.000000
0.345462 0.000000 0.000000
0.345857 0.000000 0.000000
0.346252 0.000000 0.000000
0.346647 0.000000 0.000000
0.347041 0.000000 0.000000
0.347436 0.000000 0.000000
0.347830 0.000000 0.000000
0.348225 0.000000 0.000000
0.348619 0.000000 0.000000
0.349013 0.000000 0.000000
0.349407 0.000000 0.000000
0.349801 0.000000 0.000000
0.350195 0.000000 0.000000
0.350588 0.000000 0.000000
0.350982 0.000000 0.000000
0.351375 0.000000 0.000000
0.351769 0.000000 0.000000
0.352162 0.000000 0.000000
0.352555 0.000000 0.000000
0.352948 0.000000 0.000000
0.353341 0.000000 0.000000
0.353733 0.000000 0.000000
0.354126 0.000000 0.000000
0.354518 0.000000 0.000000
0.354911 0.000000 0.000000
0.355303 0.000000 0.000000
0.355695 0.000000 0.000000
0.356087 0.000000 0.000000
0.356479 0.000000 0.000000
0.356870 0.000000 0.000000
0.357262 0.000000 0.000000
0.357654 0.000000 0.000000
0.358045 0.000000 0.000000
0.358436 0.000000 0.000000
0.358827 0.000000 0.000000
0.359218 0.000000 0.000000
0.359609 0.000000 0.000000
0.360000 0.000000 0.000000
0.360391 0.000000 0.000000
0.360781 0.000000 0.000000
0.361172 0.000000 0.000000
0.361562 0.000000 0.000000
0.361952 0.000000 0.000000
0.362342 0.000000 0.000000
0.362732 0.000000 0.000000
0.363122 0.000000 0.000000
0.363512 0.000000 0.000000
0.363901 0.000000 0.000000
0.364291 0.000000 0.000000
0.364680 0.000000 0.000000
0.365069 0.000000 0.000000
0.365458 0.000000 0.000000
0.365847 0.000000 0.000000
0.366236 0.000000 0.000000
0.366625 0.000000 0.000000
0.367014 0.000000 0.000000
0.367402 0.000000 0.000000
0.367791 0.000000 0.000000
0.368179 0.000000 0.000000
0.368567 0.000000 0.000000
0.368955 0.000000 0.000000
0.369343 0.000000 0.000000
0.369731 0.000000 0.000000
0.370118 0.000000 0.000000
0.370506 0.000000 0.000000
0.370893 0.000000 0.000000
0.371281 0.000000 0.000000
0.371668 0.000000 0.000000
0.372055 0.000000 0.000000
0.372442 0.000000 0.000000
0.372829 0.000000 0.000000
0.373216 0.000000 0.000000
0.373602 0.000000 0.000000
0.373989 0.000000 0.000000
0.374375 0.000000 0.000000
0.374761 0.000000 0.000000
0.375147 0.000000 0.000000
0.375533 0.000000 0.000000
0.375919 0.000000 0.000000
0.376305 0.000000 0.000000
0.376691 0.000000 0.000000
0.377076 0.000000 0.000000
0.377462 0.000000 0.000000
0.377847 0.000000 0.000000
0.378232 0.000000 0.000000
0.378617 0.000000 0.000000
0.379002 0.000000 0.000000
0.379387 0.000000 0.000000
0.379772 0.000000 0.000000
0.380156 0.000000 0.000000
0.380541 0.000000 0.000000
0.380925 0.000000 0.000000
0.381309 0.000000 0.000000
0.381693 0.000000 0.000000
0.382077 0.000000 0.000000
0.382461 0.000000 0.000000
0.382845 0.000000 0.000000
0.383229 0.000000 0.000000
0.383612 0.000000 0.000000
0.383995 0.000000 0.000000
0.384379 0.000000 0.000000
