Graders/Fusion.cube
# Fusion Colour Grading LUT
# Copyright (C) 2022 Jan Van Coppenolle

LUT_1D_SIZE 4096

DOMAIN_MIN 0.0 0.0 0.0
DOMAIN_MAX 1.0 1.0 1.0

0.000000 0.000000 0.000000
0.000733 0.000366 0.000244
0.001465 0.000733 0.000488
0.002198 0.001099 0.000733
0.002930 0.001465 0.000977
0.003663 0.001832 0.001221
0.004396 0.002198 0.001465
0.005128 0.002564 0.001709
0.005861 0.002930 0.001954
0.006593 0.003297 0.002198
0.007326 0.003663 0.002442
0.008059 0.004029 0.002686
0.008791 0.004396 0.002930
0.009524 0.004762 0.003175
0.010256 0.005128 0.003419
0.010989 0.005495 0.003663
0.011722 0.005861 0.003907
0.012454 0.006227 0.004151
0.013187 0.006593 0.004396
0.013919 0.006960 0.004640
0.014652 0.007326 0.004884
0.015385 0.007692 0.005128
0.016117 0.008059 0.005372
0.016850 0.008425 0.005617
0.017582 0.008791 0.005861
0.018315 0.009158 0.006105
0.019048 0.009524 0.006349
0.019780 0.009890 0.006593
0.020513 0.010256 0.006838
0.021245 0.010623 0.007082
0.021978 0.010989 0.007326
0.022711 0.011355 0.007570
0.023443 0.011722 0.007814
0.024176 0.012088 0.008059
0.024908 0.012454 0.008303
0.025641 0.012821 0.008547
0.026374 0.013187 0.008791
0.027106 0.013553 0.009035
0.027839 0.013919 0.009280
0.028571 0.014286 0.009524
0.029304 0.014652 0.009768
0.030037 0.015018 0.010012
0.030769 0.015385 0.010256
0.031502 0.015751 0.010501
0.032234 0.016117 0.010745
0.032967 0.016484 0.010989
0.033700 0.016850 0.011233
0.034432 0.017216 0.011477
0.035165 0.017582 0.011722
0.035897 0.017949 0.011966
0.036630 0.018315 0.012210
0.037363 0.018681 0.012454
0.038095 0.019048 0.012698
0.038828 0.019414 0.012943
0.039560 0.019780 0.013187
0.040293 0.020147 0.013431
0.041026 0.020513 0.013675
0.041758 0.020879 0.013919
0.042491 0.021245 0.014164
0.043223 0.021612 0.014408
0.043956 0.021978 0.014652
0.044689 0.022344 0.014896
0.045421 0.022711 0.015140
0.046154 0.023077 0.015385
0.046886 0.023443 0.015629
0.047619 0.023810 0.015873
0.048352 0.024176 0.016117
0.049084 0.024542 0.016361
0.049817 0.024908 0.016606
0.050549 0.025275 0.016850
0.051282 0.025641 0.017094
0.052015 0.026007 0.017338
0.052747 0.026374 0.017582
0.053480 0.026740 0.017827
0.054212 0.027106 0.018071
0.054945 0.027473 0.018315
0.055678 0.027839 0.018559
0.056410 0.028205 0.018803
0.057143 0.028571 0.019048
0.057875 0.028938 0.019292
0.058608 0.029304 0.019536
0.059341 0.029670 0.019780
0.060073 0.030037 0.020024
0.060806 0.030403 0.020269
0.061538 0.030769 0.020513
0.062271 0.031136 0.020757
0.063004 0.031502 0.021001
0.063736 0.031868 0.021245
0.064469 0.032234 0.021490
0.065201 0.032601 0.021734
0.065934 0.032967 0.021978
0.066667 0.033333 0.022222
0.067399 0.033700 0.022466
0.068132 0.034066 0.022711
0.068864 0.034432 0.022955
0.069597 0.034799 0.023199
0.070330 0.035165 0.023443
0.071062 0.035531 0.023687
0.071795 0.035897 0.023932
0.072527 0.036264 0.024176
0.073260 0.036630 0.024420
0.073993 0.036996 0.024664
0.074725 0.037363 0.024908
0.075458 0.037729 0.025153
0.076190 0.038095 0.025397
0.076923 0.038462 0.025641
0.077656 0.038828 0.025885
0.078388 0.039194 0.026129
0.079121 0.039560 0.026374
0.079853 0.039927 0.026618
0.080586 0.040293 0.026862
0.081319 0.040659 0.027106
0.082051 0.041026 0.027350
0.082784 0.041392 0.027595
0.083516 0.041758 0.027839
0.084249 0.042125 0.028083
0.084982 0.042491 0.028327
0.085714 0.042857 0.028571
0.086447 0.043223 0.028816
0.087179 0.043590 0.029060
0.087912 0.043956 0.029304
0.088645 0.044322 0.029548
0.089377 0.044689 0.029792
0.090110 0.045055 0.030037
0.090842 0.045421 0.030281
0.091575 0.045788 0.030525
0.092308 0.046154 0.030769
0.093040 0.046520 0.031013
0.093773 0.046886 0.031258
0.094506 0.047253 0.031502
0.095238 0.047619 0.031746
0.095971 0.047985 0.031990
0.096703 0.048352 0.032234
0.097436 0.048718 0.032479
0.098169 0.049084 0.032723
0.098901 0.049451 0.032967
0.099634 0.049817 0.033211
0.100366 0.050183 0.033455
0.101099 0.050549 0.033700
0.101832 0.050916 0.033944
0.102564 0.051282 0.034188
0.103297 0.051648 0.034432
0.104029 0.052015 0.034676
0.104762 0.052381 0.034921
0.105495 0.052747 0.035165
0.106227 0.053114 0.035409
0.106960 0.053480 0.035653
0.107692 0.053846 0.035897
0.108425 0.054212 0.036142
0.109158 0.054579 0.036386
0.109890 0.054945 0.036630
0.110623 0.055311 0.036874
0.111355 0.055678 0.037118
0.112088 0.056044 0.037363
0.112821 0.056410 0.037607
0.113553 0.056777 0.037851
0.114286 0.057143 0.038095
0.115018 0.057509 0.038339
0.115751 0.057875 0.038584
0.116484 0.058242 0.038828
0.117216 0.058608 0.039072
0.117949 0.058974 0.039316
0.118681 0.059341 0.039560
0.119414 0.059707 0.039805
0.120147 0.060073 0.040049
0.120879 0.060440 0.040293
0.121612 0.060806 0.040537
0.122344 0.061172 0.040781
0.123077 0.061538 0.041026
0.123810 0.061905 0.041270
0.124542 0.062271 0.041514
0.125275 0.062637 0.041758
0.126007 0.063004 0.042002
0.126740 0.063370 0.042247
0.127473 0.063736 0.042491
0.128205 0.064103 0.042735
0.128938 0.064469 0.042979
0.129670 0.064835 0.043223
0.130403 0.065201 0.043468
0.131136 0.065568 0.043712
0.131868 0.065934 0.043956
0.132601 0.066300 0.044200
0.133333 0.066667 0.044444
0.134066 0.067033 0.044689
0.134799 0.067399 0.044933
0.135531 0.067766 0.045177
0.136264 0.068132 0.045421
0.136996 0.068498 0.045665
0.137729 0.068864 0.045910
0.138462 0.069231 0.046154
0.139194 0.069597 0.046398
0.139927 0.069963 0.046642
0.140659 0.070330 0.046886
0.141392 0.070696 0.047131
0.142125 0.071062 0.047375
0.142857 0.071429 0.047619
0.143590 0.071795 0.047863
0.144322 0.072161 0.048107
0.145055 0.072527 0.048352
0.145788 0.072894 0.048596
0.146520 0.073260 0.048840
0.147253 0.073626 0.049084
0.147985 0.073993 0.049328
0.148718 0.074359 0.049573
0.149451 0.074725 0.049817
0.150183 0.075092 0.050061
0.150916 0.075458 0.050305
0.151648 0.075824 0.050549
0.152381 0.076190 0.050794
0.153114 0.076557 0.051038
0.153846 0.076923 0.051282
0.154579 0.077289 0.051526
0.155311 0.077656 0.051770
0.156044 0.078022 0.052015
0.156777 0.078388 0.052259
0.157509 0.078755 0.052503
0.158242 0.079121 0.052747
0.158974 0.079487 0.052991
0.159707 0.079853 0.053236
0.160440 0.080220 0.053480
0.161172 0.080586 0.053724
0.161905 0.080952 0.053968
0.162637 0.081319 0.054212
0.163370 0.081685 0.054457
0.164103 0.082051 0.054701
0.164835 0.082418 0.054945
0.165568 0.082784 0.055189
0.166300 0.083150 0.055433
0.167033 0.083516 0.055678
0.167766 0.083883 0.055922
0.168498 0.084249 0.056166
0.169231 0.084615 0.056410
0.169963 0.084982 0.056654
0.170696 0.085348 0.056899
0.171429 0.085714 0.057143
0.172161 0.086081 0.057387
0.172894 0.086447 0.057631
0.173626 0.086813 0.057875
0.174359 0.087179 0.058120
0.175092 0.087546 0.058364
0.175824 0.087912 0.058608
0.176557 0.088278 0.058852
0.177289 0.088645 0.059096
0.178022 0.089011 0.059341
0.178755 0.089377 0.059585
0.179487 0.089744 0.059829
0.180220 0.090110 0.060073
0.180952 0.090476 0.060317
0.181685 0.090842 0.060562
0.182418 0.091209 0.060806
0.183150 0.091575 0.061050
0.183883 0.091941 0.061294
0.184615 0.092308 0.061538
0.185348 0.092674 0.061783
0.186081 0.093040 0.062027
0.186813 0.093407 0.062271
0.187546 0.093773 0.062515
0.188278 0.094139 0.062759
0.189011 0.094506 0.063004
0.189744 0.094872 0.063248
0.190476 0.095238 0.063492
0.191209 0.095604 0.063736
0.191941 0.095971 0.063980
0.192674 0.096337 0.064225
0.193407 0.096703 0.064469
0.194139 0.097070 0.064713
0.194872 0.097436 0.064957
0.195604 0.097802 0.065201
0.196337 0.098169 0.065446
0.197070 0.098535 0.065690
0.197802 0.098901 0.065934
0.198535 0.099267 0.066178
0.199267 0.099634 0.066422
0.200000 0.100000 0.066667
0.200733 0.100366 0.066911
0.201465 0.100733 0.067155
0.202198 0.101099 0.067399
0.202930 0.101465 0.067643
0.203663 0.101832 0.067888
0.204396 0.102198 0.068132
0.205128 0.102564 0.068376
0.205861 0.102930 0.068620
0.206593 0.103297 0.068864
0.207326 0.103663 0.069109
0.208059 0.104029 0.069353
0.208791 0.104396 0.069597
0.209524 0.104762 0.069841
0.210256 0.105128 0.070085
0.210989 0.105495 0.070330
0.211722 0.105861 0.070574
0.212454 0.106227 0.070818
0.213187 0.106593 0.071062
0.213919 0.106960 0.071306
0.214652 0.107326 0.071551
0.215385 0.107692 0.071795
0.216117 0.108059 0.072039
0.216850 0.108425 0.072283
0.217582 0.108791 0.072527
0.218315 0.109158 0.072772
0.219048 0.109524 0.073016
0.219780 0.109890 0.073260
0.220513 0.110256 0.073504
0.221245 0.110623 0.073748
0.221978 0.110989 0.073993
0.222711 0.111355 0.074237
0.223443 0.111722 0.074481
0.224176 0.112088 0.074725
0.224908 0.112454 0.074969
0.225641 0.112821 0.075214
0.226374 0.113187 0.075458
0.227106 0.113553 0.075702
0.227839 0.113919 0.075946
0.228571 0.114286 0.076190
0.229304 0.114652 0.076435
0.230037 0.115018 0.076679
0.230769 0.115385 0.076923
0.231502 0.115751 0.077167
0.232234 0.116117 0.077411
0.232967 0.116484 0.077656
0.233700 0.116850 0.077900
0.234432 0.117216 0.078144
0.235165 0.117582 0.078388
0.235897 0.117949 0.078632
0.236630 0.118315 0.078877
0.237363 0.118681 0.079121
0.238095 0.119048 0.079365
0.238828 0.119414 0.079609
0.239560 0.119780 0.079853
0.240293 0.120147 0.080098
0.241026 0.120513 0.080342
0.241758 0.120879 0.080586
0.242491 0.121245 0.080830
0.243223 0.121612 0.081074
0.243956 0.121978 0.081319
0.244689 0.122344 0.081563
0.245421 0.122711 0.081807
0.246154 0.123077 0.082051
0.246886 0.123443 0.082295
0.247619 0.123810 0.082540
0.248352 0.124176 0.082784
0.249084 0.124542 0.083028
0.249817 0.124908 0.083272
0.250549 0.125275 0.083516
0.251282 0.125641 0.083761
0.252015 0.126007 0.084005
0.252747 0.126374 0.084249
0.253480 0.126740 0.084493
0.254212 0.127106 0.084737
0.254945 0.127473 0.084982
0.255678 0.127839 0.085226
0.256410 0.128205 0.085470
0.257143 0.128571 0.085714
0.257875 0.128938 0.085958
0.258608 0.129304 0.086203
0.259341 0.129670 0.086447
0.260073 0.130037 0.086691
0.260806 0.130403 0.086935
0.261538 0.130769 0.087179
0.262271 0.131136 0.087424
0.263004 0.131502 0.087668
0.263736 0.131868 0.087912
0.264469 0.132234 0.088156
0.265201 0.132601 0.088400
0.265934 0.132967 0.088645
0.266667 0.133333 0.088889
0.267399 0.133700 0.089133
0.268132 0.134066 0.089377
0.268864 0.134432 0.089621
0.269597 0.134799 0.089866
0.270330 0.135165 0.090110
0.271062 0.135531 0.090354
0.271795 0.135897 0.090598
0.272527 0.136264 0.090842
0.273260 0.136630 0.091087
0.273993 0.136996 0.091331
0.274725 0.137363 0.091575
0.275458 0.137729 0.091819
0.276190 0.138095 0.092063
0.276923 0.138462 0.092308
0.277656 0.138828 0.092552
0.278388 0.139194 0.092796
0.279121 0.139560 0.093040
0.279853 0.139927 0.093284
0.280586 0.140293 0.093529
0.281319 0.140659 0.093773
0.282051 0.141026 0.094017
0.282784 0.141392 0.094261
0.283516 0.141758 0.094505
0.284249 0.142125 0.094750
0.284982 0.142491 0.094994
0.285714 0.142857 0.095238
0.286447 0.143223 0.095482
0.287179 0.143590 0.095726
0.287912 0.143956 0.095971
0.288645 0.144322 0.096215
0.289377 0.144689 0.096459
0.290110 0.145055 0.096703
0.290843 0.145421 0.096947
0.291575 0.145788 0.097192
0.292308 0.146154 0.097436
0.293040 0.146520 0.097680
0.293773 0.146886 0.097924
0.294506 0.147253 0.098168
0.295238 0.147619 0.098413
0.295971 0.147985 0.098657
0.296703 0.148352 0.098901
0.297436 0.148718 0.099145
0.298169 0.149084 0.099390
0.298901 0.149451 0.099634
0.299634 0.149817 0.099878
0.300366 0.150183 0.100122
0.301099 0.150549 0.100366
0.301832 0.150916 0.100611
0.302564 0.151282 0.100855
0.303297 0.151648 0.101099
0.304029 0.152015 0.101343
0.304762 0.152381 0.101587
0.305495 0.152747 0.101832
0.306227 0.153114 0.102076
0.306960 0.153480 0.102320
0.307692 0.153846 0.102564
0.308425 0.154212 0.102808
0.309158 0.154579 0.103053
0.309890 0.154945 0.103297
0.310623 0.155311 0.103541
0.311355 0.155678 0.103785
0.312088 0.156044 0.104029
0.312821 0.156410 0.104274
0.313553 0.156777 0.104518
0.314286 0.157143 0.104762
0.315018 0.157509 0.105006
0.315751 0.157875 0.105250
0.316484 0.158242 0.105495
0.317216 0.158608 0.105739
0.317949 0.158974 0.105983
0.318681 0.159341 0.106227
0.319414 0.159707 0.106471
0.320147 0.160073 0.106716
0.320879 0.160440 0.106960
0.321612 0.160806 0.107204
0.322344 0.161172 0.107448
0.323077 0.161538 0.107692
0.323810 0.161905 0.107937
0.324542 0.162271 0.108181
0.325275 0.162637 0.108425
0.326007 0.163004 0.108669
0.326740 0.163370 0.108913
0.327473 0.163736 0.109158
0.328205 0.164103 0.109402
0.328938 0.164469 0.109646
0.329670 0.164835 0.109890
0.330403 0.165201 0.110134
0.331136 0.165568 0.110379
0.331868 0.165934 0.110623
0.332601 0.166300 0.110867
0.333333 0.166667 0.111111
0.334066 0.167033 0.111355
0.334799 0.167399 0.111600
0.335531 0.167766 0.111844
0.336264 0.168132 0.112088
0.336996 0.168498 0.112332
0.337729 0.168864 0.112576
0.338462 0.169231 0.112821
0.339194 0.169597 0.113065
0.339927 0.169963 0.113309
0.340659 0.170330 0.113553
0.341392 0.170696 0.113797
0.342125 0.171062 0.114042
0.342857 0.171429 0.114286
0.343590 0.171795 0.114530
0.344322 0.172161 0.114774
0.345055 0.172527 0.115018
0.345788 0.172894 0.115263
0.346520 0.173260 0.115507
0.347253 0.173626 0.115751
0.347985 0.173993 0.115995
0.348718 0.174359 0.116239
0.349451 0.174725 0.116484
0.350183 0.175092 0.116728
0.350916 0.175458 0.116972
0.351648 0.175824 0.117216
0.352381 0.176190 0.117460
0.353114 0.176557 0.117705
0.353846 0.176923 0.117949
0.354579 0.177289 0.118193
0.355311 0.177656 0.118437
0.356044 0.178022 0.118681
0.356777 0.178388 0.118926
0.357509 0.178755 0.119170
0.358242 0.179121 0.119414
0.358974 0.179487 0.119658
0.359707 0.179853 0.119902
0.360440 0.180220 0.120147
0.361172 0.180586 0.120391
0.361905 0.180952 0.120635
0.362637 0.181319 0.120879
0.363370 0.181685 0.121123
0.364103 0.182051 0.121368
0.364835 0.182418 0.121612
0.365568 0.182784 0.121856
0.366300 0.183150 0.122100
0.367033 0.183516 0.122344
0.367766 0.183883 0.122589
0.368498 0.184249 0.122833
0.369231 0.184615 0.123077
0.369963 0.184982 0.123321
0.370696 0.185348 0.123565
0.371429 0.185714 0.123810
0.372161 0.186081 0.124054
0.372894 0.186447 0.124298
0.373626 0.186813 0.124542
0.374359 0.187179 0.124786
0.375092 0.187546 0.125031
0.375824 0.187912 0.125275
0.376557 0.188278 0.125519
0.377289 0.188645 0.125763
0.378022 0.189011 0.126007
0.378755 0.189377 0.126252
0.379487 0.189744 0.126496
0.380220 0.190110 0.126740
0.380952 0.190476 0.126984
0.381685 0.190843 0.127228
0.382418 0.191209 0.127473
0.383150 0.191575 0.127717
0.383883 0.191941 0.127961
0.384615 0.192308 0.128205
0.385348 0.192674 0.128449
0.386081 0.193040 0.128694
0.386813 0.193407 0.128938
0.387546 0.193773 0.129182
0.388278 0.194139 0.129426
0.389011 0.194506 0.129670
0.389744 0.194872 0.129915
0.390476 0.195238 0.130159
0.391209 0.195604 0.130403
0.391941 0.195971 0.130647
0.392674 0.196337 0.130891
0.393407 0.196703 0.131136
0.394139 0.197070 0.131380
0.394872 0.197436 0.131624
0.395604 0.197802 0.131868
0.396337 0.198169 0.132112
0.397070 0.198535 0.132357
0.397802 0.198901 0.132601
0.398535 0.199267 0.132845
0.399267 0.199634 0.133089
0.400000 0.200000 0.133333
0.400733 0.200366 0.133578
0.401465 0.200733 0.133822
0.402198 0.201099 0.134066
0.402930 0.201465 0.134310
0.403663 0.201832 0.134554
0.404396 0.202198 0.134799
0.405128 0.202564 0.135043
0.405861 0.202930 0.135287
0.406593 0.203297 0.135531
0.407326 0.203663 0.135775
0.408059 0.204029 0.136020
0.408791 0.204396 0.136264
0.409524 0.204762 0.136508
0.410256 0.205128 0.136752
0.410989 0.205495 0.136996
0.411722 0.205861 0.137241
0.412454 0.206227 0.137485
0.413187 0.206593 0.137729
0.413919 0.206960 0.137973
0.414652 0.207326 0.138217
0.415385 0.207692 0.138462
0.416117 0.208059 0.138706
0.416850 0.208425 0.138950
0.417582 0.208791 0.139194
0.418315 0.209158 0.139438
0.419048 0.209524 0.139683
0.419780 0.209890 0.139927
0.420513 0.210256 0.140171
0.421245 0.210623 0.140415
0.421978 0.210989 0.140659
0.422711 0.211355 0.140904
0.423443 0.211722 0.141148
0.424176 0.212088 0.141392
0.424908 0.212454 0.141636
0.425641 0.212821 0.141880
0.426374 0.213187 0.142125
0.427106 0.213553 0.142369
0.427839 0.213919 0.142613
0.428571 0.214286 0.142857
0.429304 0.214652 0.143101
0.430037 0.215018 0.143346
0.430769 0.215385 0.143590
0.431502 0.215751 0.143834
0.432234 0.216117 0.144078
0.432967 0.216484 0.144322
0.433700 0.216850 0.144567
0.434432 0.217216 0.144811
0.435165 0.217582 0.145055
0.435897 0.217949 0.145299
0.436630 0.218315 0.145543
0.437363 0.218681 0.145788
0.438095 0.219048 0.146032
0.438828 0.219414 0.146276
0.439560 0.219780 0.146520
0.440293 0.220147 0.146764
0.441026 0.220513 0.147009
0.441758 0.220879 0.147253
0.442491 0.221245 0.147497
0.443223 0.221612 0.147741
0.443956 0.221978 0.147985
0.444689 0.222344 0.148230
0.445421 0.222711 0.148474
0.446154 0.223077 0.148718
0.446886 0.223443 0.148962
0.447619 0.223810 0.149206
0.448352 0.224176 0.149451
0.449084 0.224542 0.149695
0.449817 0.224908 0.149939
0.450549 0.225275 0.150183
0.451282 0.225641 0.150427
0.452015 0.226007 0.150672
0.452747 0.226374 0.150916
0.453480 0.226740 0.151160
0.454212 0.227106 0.151404
0.454945 0.227473 0.151648
0.455678 0.227839 0.151893
0.456410 0.228205 0.152137
0.457143 0.228571 0.152381
0.457875 0.228938 0.152625
0.458608 0.229304 0.152869
0.459341 0.229670 0.153114
0.460073 0.230037 0.153358
0.460806 0.230403 0.153602
0.461538 0.230769 0.153846
0.462271 0.231136 0.154090
0.463004 0.231502 0.154335
0.463736 0.231868 0.154579
0.464469 0.232234 0.154823
0.465201 0.232601 0.155067
0.465934 0.232967 0.155311
0.466667 0.233333 0.155556
0.467399 0.233700 0.155800
0.468132 0.234066 0.156044
0.468865 0.234432 0.156288
0.469597 0.234799 0.156532
0.470330 0.235165 0.156777
0.471062 0.235531 0.157021
0.471795 0.235897 0.157265
0.472528 0.236264 0.157509
0.473260 0.236630 0.157753
0.473993 0.236996 0.157998
0.474725 0.237363 0.158242
0.475458 0.237729 0.158486
0.476191 0.238095 0.158730
0.476923 0.238462 0.158974
0.477656 0.238828 0.159219
0.478388 0.239194 0.159463
0.479121 0.239560 0.159707
0.479854 0.239927 0.159951
0.480586 0.240293 0.160195
0.481319 0.240659 0.160440
0.482051 0.241026 0.160684
0.482784 0.241392 0.160928
0.483517 0.241758 0.161172
0.484249 0.242125 0.161416
0.484982 0.242491 0.161661
0.485714 0.242857 0.161905
0.486447 0.243223 0.162149
0.487180 0.243590 0.162393
0.487912 0.243956 0.162637
0.488645 0.244322 0.162882
0.489377 0.244689 0.163126
0.490110 0.245055 0.163370
0.490843 0.245421 0.163614
0.491575 0.245788 0.163858
0.492308 0.246154 0.164103
0.493040 0.246520 0.164347
0.493773 0.246886 0.164591
0.494506 0.247253 0.164835
0.495238 0.247619 0.165079
0.495971 0.247985 0.165324
0.496703 0.248352 0.165568
0.497436 0.248718 0.165812
0.498169 0.249084 0.166056
0.498901 0.249451 0.166300
0.499634 0.249817 0.166545
0.500366 0.250183 0.166789
0.501099 0.250549 0.167033
0.501832 0.250916 0.167277
0.502564 0.251282 0.167521
0.503297 0.251648 0.167766
0.504029 0.252015 0.168010
0.504762 0.252381 0.168254
0.505495 0.252747 0.168498
0.506227 0.253114 0.168742
0.506960 0.253480 0.168987
0.507692 0.253846 0.169231
0.508425 0.254212 0.169475
0.509158 0.254579 0.169719
0.509890 0.254945 0.169963
0.510623 0.255311 0.170208
0.511355 0.255678 0.170452
0.512088 0.256044 0.170696
0.512821 0.256410 0.170940
0.513553 0.256777 0.171184
0.514286 0.257143 0.171429
0.515018 0.257509 0.171673
0.515751 0.257875 0.171917
0.516484 0.258242 0.172161
0.517216 0.258608 0.172405
0.517949 0.258974 0.172650
0.518681 0.259341 0.172894
0.519414 0.259707 0.173138
0.520147 0.260073 0.173382
0.520879 0.260440 0.173626
0.521612 0.260806 0.173871
0.522344 0.261172 0.174115
0.523077 0.261538 0.174359
0.523810 0.261905 0.174603
0.524542 0.262271 0.174847
0.525275 0.262637 0.175092
0.526007 0.263004 0.175336
0.526740 0.263370 0.175580
0.527473 0.263736 0.175824
0.528205 0.264103 0.176068
0.528938 0.264469 0.176313
0.529670 0.264835 0.176557
0.530403 0.265201 0.176801
0.531136 0.265568 0.177045
0.531868 0.265934 0.177289
0.532601 0.266300 0.177534
0.533333 0.266667 0.177778
0.534066 0.267033 0.178022
0.534799 0.267399 0.178266
0.535531 0.267766 0.178510
0.536264 0.268132 0.178755
0.536996 0.268498 0.178999
0.537729 0.268864 0.179243
0.538462 0.269231 0.179487
0.539194 0.269597 0.179731
0.539927 0.269963 0.179976
0.540659 0.270330 0.180220
0.541392 0.270696 0.180464
0.542125 0.271062 0.180708
0.542857 0.271429 0.180952
0.543590 0.271795 0.181197
0.544322 0.272161 0.181441
0.545055 0.272527 0.181685
0.545788 0.272894 0.181929
0.546520 0.273260 0.182173
0.547253 0.273626 0.182418
0.547985 0.273993 0.182662
0.548718 0.274359 0.182906
0.549451 0.274725 0.183150
0.550183 0.275092 0.183394
0.550916 0.275458 0.183639
0.551648 0.275824 0.183883
0.552381 0.276190 0.184127
0.553114 0.276557 0.184371
0.553846 0.276923 0.184615
0.554579 0.277289 0.184860
0.555311 0.277656 0.185104
0.556044 0.278022 0.185348
0.556777 0.278388 0.185592
0.557509 0.278755 0.185836
0.558242 0.279121 0.186081
0.558974 0.279487 0.186325
0.559707 0.279853 0.186569
0.560440 0.280220 0.186813
0.561172 0.280586 0.187057
0.561905 0.280952 0.187302
0.562637 0.281319 0.187546
0.563370 0.281685 0.187790
0.564103 0.282051 0.188034
0.564835 0.282418 0.188278
0.565568 0.282784 0.188523
0.566300 0.283150 0.188767
0.567033 0.283516 0.189011
0.567766 0.283883 0.189255
0.568498 0.284249 0.189499
0.569231 0.284615 0.189744
0.569963 0.284982 0.189988
0.570696 0.285348 0.190232
0.571429 0.285714 0.190476
0.572161 0.286081 0.190720
0.572894 0.286447 0.190965
0.573626 0.286813 0.191209
0.574359 0.287179 0.191453
0.575092 0.287546 0.191697
0.575824 0.287912 0.191941
0.576557 0.288278 0.192186
0.577289 0.288645 0.192430
0.578022 0.289011 0.192674
0.578755 0.289377 0.192918
0.579487 0.289744 0.193162
0.580220 0.290110 0.193407
0.580952 0.290476 0.193651
0.581685 0.290843 0.193895
0.582418 0.291209 0.194139
0.583150 0.291575 0.194383
0.583883 0.291941 0.194628
0.584615 0.292308 0.194872
0.585348 0.292674 0.195116
0.586081 0.293040 0.195360
0.586813 0.293407 0.195604
0.587546 0.293773 0.195849
0.588278 0.294139 0.196093
0.589011 0.294506 0.196337
0.589744 0.294872 0.196581
0.590476 0.295238 0.196825
0.591209 0.295604 0.197070
0.591941 0.295971 0.197314
0.592674 0.296337 0.197558
0.593407 0.296703 0.197802
0.594139 0.297070 0.198046
0.594872 0.297436 0.198291
0.595604 0.297802 0.198535
0.596337 0.298169 0.198779
0.597070 0.298535 0.199023
0.597802 0.298901 0.199267
0.598535 0.299267 0.199512
0.599267 0.299634 0.199756
0.600000 0.300000 0.200000
0.600733 0.300366 0.200244
0.601465 0.300733 0.200488
0.602198 0.301099 0.200733
0.602930 0.301465 0.200977
0.603663 0.301832 0.201221
0.604396 0.302198 0.201465
0.605128 0.302564 0.201709
0.605861 0.302930 0.201954
0.606593 0.303297 0.202198
0.607326 0.303663 0.202442
0.608059 0.304029 0.202686
0.608791 0.304396 0.202930
0.609524 0.304762 0.203175
0.610256 0.305128 0.203419
0.610989 0.305495 0.203663
0.611722 0.305861 0.203907
0.612454 0.306227 0.204151
0.613187 0.306593 0.204396
0.613919 0.306960 0.204640
0.614652 0.307326 0.204884
0.615385 0.307692 0.205128
0.616117 0.308059 0.205372
0.616850 0.308425 0.205617
0.617582 0.308791 0.205861
0.618315 0.309158 0.206105
0.619048 0.309524 0.206349
0.619780 0.309890 0.206593
0.620513 0.310256 0.206838
0.621245 0.310623 0.207082
0.621978 0.310989 0.207326
0.622711 0.311355 0.207570
0.623443 0.311722 0.207814
0.624176 0.312088 0.208059
0.624908 0.312454 0.208303
0.625641 0.312821 0.208547
0.626374 0.313187 0.208791
0.627106 0.313553 0.209035
0.627839 0.313919 0.209280
0.628571 0.314286 0.209524
0.629304 0.314652 0.209768
0.630037 0.315018 0.210012
0.630769 0.315385 0.210256
0.631502 0.315751 0.210501
0.632234 0.316117 0.210745
0.632967 0.316484 0.210989
0.633700 0.316850 0.211233
0.634432 0.317216 0.211477
0.635165 0.317582 0.211722
0.635897 0.317949 0.211966
0.636630 0.318315 0.212210
0.637363 0.318681 0.212454
0.638095 0.319048 0.212698
0.638828 0.319414 0.212943
0.639560 0.319780 0.213187
0.640293 0.320147 0.213431
0.641026 0.320513 0.213675
0.641758 0.320879 0.213919
0.642491 0.321245 0.214164
0.643223 0.321612 0.214408
0.643956 0.321978 0.214652
0.644689 0.322344 0.214896
0.645421 0.322711 0.215140
0.646154 0.323077 0.215385
